; generated by PrusaSlicer 2.2.0+win64 on 2022-03-18 at 18:54:54 UTC

; 

; external perimeters extrusion width = 0.45mm
; perimeters extrusion width = 0.45mm
; infill extrusion width = 0.45mm
; solid infill extrusion width = 0.45mm
; top infill extrusion width = 0.40mm
; first layer extrusion width = 0.42mm

M201 X500 Y500 Z100 E5000 ; sets maximum accelerations, mm/sec^2
M203 X500 Y500 Z10 E60 ; sets maximum feedrates, mm/sec
M204 P500 R1000 T500 ; sets acceleration (P, T) and retract acceleration (R), mm/sec^2
M205 X8.00 Y8.00 Z0.40 E5.00 ; sets the jerk limits, mm/sec
M205 S0 T0 ; sets the minimum extruding and travel feed rate, mm/sec
M107
G90 ; use absolute coordinates
M83 ; extruder relative mode
M104 S215 ; set extruder temp
M140 S40 ; set bed temp
M190 S40 ; wait for bed temp
M109 S215 ; wait for extruder temp
G28 ; home all
G1 Z2 F240
G1 X2 Y10 F3000
G1 Z0.28 F240
G92 E0.0
G1 Y190 E15.0 F1500.0 ; intro line
G1 X2.3 F5000
G1 Y10 E30 F1200.0 ; intro line
G92 E0.0
G21 ; set units to millimeters
G90 ; use absolute coordinates
M83 ; use relative distances for extrusion
; Filament gcode
;BEFORE_LAYER_CHANGE
;0.2


G1 E-5.00000 F3600.00000
G1 Z0.200 F9000.000
;AFTER_LAYER_CHANGE
;0.2
G1 X87.102 Y89.209
G1 E5.00000 F2400.00000
G1 F1200.000
G1 X88.383 Y87.847 E0.05864
G1 X89.203 Y87.106 E0.03464
G1 X96.801 Y82.029 E0.28653
G1 X98.506 Y81.261 E0.05864
G1 X99.547 Y80.890 E0.03464
G1 X108.506 Y79.108 E0.28641
G1 X110.356 Y79.050 E0.05804
G1 X111.482 Y79.106 E0.03536
G1 X120.441 Y80.888 E0.28641
G1 X122.184 Y81.547 E0.05841
G1 X123.195 Y82.026 E0.03508
G1 X130.791 Y87.102 E0.28644
G1 X132.153 Y88.383 E0.05864
G1 X132.894 Y89.203 E0.03464
G1 X137.971 Y96.801 E0.28653
G1 X138.740 Y98.510 E0.05876
G1 X139.110 Y99.547 E0.03452
G1 X140.893 Y108.510 E0.28653
G1 X140.950 Y110.379 E0.05864
G1 X140.894 Y111.482 E0.03464
G1 X139.111 Y120.445 E0.28653
G1 X138.452 Y122.187 E0.05841
G1 X137.974 Y123.195 E0.03496
G1 X132.898 Y130.791 E0.28644
G1 X131.614 Y132.155 E0.05876
G1 X130.797 Y132.894 E0.03452
G1 X123.199 Y137.971 E0.28653
G1 X121.490 Y138.740 E0.05876
G1 X120.453 Y139.110 E0.03452
G1 X111.490 Y140.893 E0.28653
G1 X109.621 Y140.950 E0.05864
G1 X108.518 Y140.894 E0.03464
G1 X99.555 Y139.111 E0.28653
G1 X97.813 Y138.452 E0.05841
G1 X96.805 Y137.974 E0.03496
G1 X89.209 Y132.898 E0.28644
G1 X87.845 Y131.614 E0.05876
G1 X87.106 Y130.797 E0.03452
G1 X82.029 Y123.199 E0.28653
G1 X81.260 Y121.490 E0.05876
G1 X80.890 Y120.453 E0.03452
G1 X79.107 Y111.490 E0.28653
G1 X79.050 Y109.621 E0.05864
G1 X79.106 Y108.518 E0.03464
G1 X80.889 Y99.555 E0.28653
G1 X81.548 Y97.813 E0.05841
G1 X82.026 Y96.805 E0.03496
G1 X87.068 Y89.259 E0.28456
G1 E-3.50000 F3600.00000
G1 F7200.000
G1 X88.383 Y87.847 E-0.91645
G1 X89.177 Y87.129 E-0.50855
G1 E-0.07500 F3600.00000
G1 X106.645 Y107.437 F9000.000
G1 E5.00000 F2400.00000
G1 F1200.000
G1 X113.335 Y107.437 E0.20979
G1 X113.335 Y112.584 E0.16139
G1 X106.645 Y112.584 E0.20979
G1 X106.645 Y107.497 E0.15950
G1 X107.022 Y107.814 F9000.000
G1 F1200.000
G1 X112.958 Y107.814 E0.18614
G1 X112.958 Y112.207 E0.13774
G1 X107.022 Y112.207 E0.18614
G1 X107.022 Y107.874 E0.13586
G1 X107.399 Y108.191 F9000.000
G1 F1200.000
G1 X112.581 Y108.191 E0.16249
G1 X112.581 Y111.830 E0.11409
G1 X107.399 Y111.830 E0.16249
G1 X107.399 Y108.251 E0.11221
G1 X107.273 Y107.811 F9000.000
G1 E-3.50000 F3600.00000
G1 F7200.000
G1 X110.399 Y108.216 E-1.42500
G1 E-0.07500 F3600.00000
G1 X90.162 Y90.939 F9000.000
G1 E5.00000 F2400.00000
G1 F1200.000
G1 X90.135 Y90.836 E0.00335
G1 X90.828 Y90.133 E0.03096
G1 X91.525 Y90.349 E0.02289
G1 X92.100 Y90.563 E0.01922
G1 X92.654 Y90.805 E0.01895
G1 X93.171 Y91.068 E0.01821
G1 X93.653 Y91.357 E0.01761
G1 X94.089 Y91.669 E0.01679
G1 X94.410 Y91.964 E0.01368
G1 X94.915 Y92.597 E0.02541
G1 X95.329 Y93.001 E0.01812
G1 X95.882 Y93.320 E0.02003
G1 X96.498 Y93.491 E0.02003
G1 X97.136 Y93.506 E0.02003
G1 X97.759 Y93.361 E0.02003
G1 X98.265 Y93.098 E0.01790
G1 X98.875 Y92.691 E0.02301
G1 X99.312 Y92.323 E0.01790
G1 X99.684 Y91.803 E0.02003
G1 X99.915 Y91.208 E0.02003
G1 X99.992 Y90.574 E0.02003
G1 X99.909 Y89.940 E0.02003
G1 X99.695 Y89.404 E0.01812
G1 X99.304 Y88.696 E0.02535
G1 X99.223 Y88.506 E0.00649
G1 X99.031 Y87.762 E0.02409
G1 X98.950 Y87.212 E0.01742
G1 X98.904 Y86.627 E0.01841
G1 X98.893 Y86.030 E0.01871
G1 X98.914 Y85.420 E0.01916
G1 X98.967 Y84.798 E0.01955
G1 X98.981 Y84.692 E0.00335
G1 X99.890 Y84.308 E0.03096
G1 X100.452 Y84.775 E0.02289
G1 X100.900 Y85.193 E0.01922
G1 X101.320 Y85.628 E0.01895
G1 X101.700 Y86.073 E0.01835
G1 X102.032 Y86.520 E0.01747
G1 X102.422 Y87.181 E0.02405
G1 X102.499 Y87.371 E0.00643
G1 X102.723 Y88.149 E0.02541
G1 X102.951 Y88.680 E0.01812
G1 X103.340 Y89.187 E0.02003
G1 X103.843 Y89.581 E0.02003
G1 X104.428 Y89.838 E0.02003
G1 X105.058 Y89.943 E0.02003
G1 X105.627 Y89.894 E0.01790
G1 X106.346 Y89.751 E0.02301
G1 X106.891 Y89.578 E0.01790
G1 X107.433 Y89.241 E0.02003
G1 X107.874 Y88.779 E0.02003
G1 X108.188 Y88.223 E0.02003
G1 X108.354 Y87.606 E0.02003
G1 X108.361 Y87.028 E0.01812
G1 X108.270 Y86.226 E0.02530
G1 X108.269 Y86.018 E0.00653
G1 X108.288 Y85.790 E0.00716
G1 X108.377 Y85.251 E0.01712
G1 X108.514 Y84.711 E0.01747
G1 X108.693 Y84.160 E0.01817
G1 X108.911 Y83.604 E0.01872
G1 X109.165 Y83.048 E0.01916
G1 X109.504 Y82.402 E0.02289
G1 X110.357 Y82.392 E0.02675
G1 X110.492 Y82.395 E0.00422
G1 X110.832 Y83.041 E0.02289
G1 X111.086 Y83.599 E0.01922
G1 X111.307 Y84.161 E0.01895
G1 X111.487 Y84.714 E0.01821
G1 X111.624 Y85.258 E0.01761
G1 X111.731 Y86.018 E0.02407
G1 X111.730 Y86.223 E0.00640
G1 X111.639 Y87.028 E0.02541
G1 X111.646 Y87.606 E0.01812
G1 X111.812 Y88.223 E0.02003
G1 X112.126 Y88.779 E0.02003
G1 X112.567 Y89.241 E0.02003
G1 X113.109 Y89.578 E0.02003
G1 X113.654 Y89.751 E0.01790
G1 X114.373 Y89.894 E0.02301
G1 X114.942 Y89.943 E0.01790
G1 X115.572 Y89.838 E0.02003
G1 X116.157 Y89.581 E0.02003
G1 X116.660 Y89.187 E0.02003
G1 X117.049 Y88.680 E0.02003
G1 X117.277 Y88.149 E0.01812
G1 X117.501 Y87.372 E0.02535
G1 X117.578 Y87.181 E0.00649
G1 X117.969 Y86.519 E0.02409
G1 X118.300 Y86.073 E0.01742
G1 X118.681 Y85.627 E0.01841
G1 X119.095 Y85.197 E0.01871
G1 X119.542 Y84.780 E0.01916
G1 X120.110 Y84.308 E0.02314
G1 X121.019 Y84.692 E0.03096
G1 X121.085 Y85.411 E0.02264
G1 X121.107 Y86.024 E0.01922
G1 X121.096 Y86.628 E0.01895
G1 X121.050 Y87.212 E0.01835
G1 X120.969 Y87.763 E0.01747
G1 X120.845 Y88.292 E0.01703
G1 X120.697 Y88.694 E0.01344
G1 X120.305 Y89.404 E0.02541
G1 X120.091 Y89.940 E0.01812
G1 X120.008 Y90.574 E0.02003
G1 X120.085 Y91.208 E0.02003
G1 X120.316 Y91.803 E0.02003
G1 X120.688 Y92.323 E0.02003
G1 X121.125 Y92.691 E0.01790
G1 X121.735 Y93.098 E0.02301
G1 X122.241 Y93.361 E0.01790
G1 X122.864 Y93.506 E0.02003
G1 X123.502 Y93.491 E0.02003
G1 X124.118 Y93.320 E0.02003
G1 X124.671 Y93.001 E0.02003
G1 X125.085 Y92.597 E0.01812
G1 X125.588 Y91.966 E0.02530
G1 X125.909 Y91.671 E0.01367
G1 X126.353 Y91.353 E0.01712
G1 X126.831 Y91.067 E0.01747
G1 X127.348 Y90.804 E0.01817
G1 X127.895 Y90.566 E0.01872
G1 X128.467 Y90.352 E0.01916
G1 X129.164 Y90.135 E0.02290
G1 X129.767 Y90.723 E0.02640
G1 X129.867 Y90.828 E0.00456
G1 X129.651 Y91.525 E0.02289
G1 X129.437 Y92.100 E0.01922
G1 X129.195 Y92.654 E0.01895
G1 X128.932 Y93.171 E0.01821
G1 X128.643 Y93.653 E0.01761
G1 X128.182 Y94.267 E0.02407
G1 X128.036 Y94.410 E0.00640
G1 X127.403 Y94.915 E0.02541
G1 X126.999 Y95.329 E0.01812
G1 X126.680 Y95.882 E0.02003
G1 X126.509 Y96.498 E0.02003
G1 X126.494 Y97.136 E0.02003
G1 X126.639 Y97.759 E0.02003
G1 X126.902 Y98.265 E0.01790
G1 X127.309 Y98.875 E0.02301
G1 X127.677 Y99.312 E0.01790
G1 X128.197 Y99.684 E0.02003
G1 X128.792 Y99.915 E0.02003
G1 X129.426 Y99.992 E0.02003
G1 X130.060 Y99.909 E0.02003
G1 X130.596 Y99.695 E0.01812
G1 X131.304 Y99.304 E0.02535
G1 X131.494 Y99.223 E0.00649
G1 X132.238 Y99.031 E0.02409
G1 X132.788 Y98.950 E0.01742
G1 X133.373 Y98.904 E0.01841
G1 X133.970 Y98.893 E0.01871
G1 X134.580 Y98.914 E0.01916
G1 X135.308 Y98.981 E0.02290
G1 X135.692 Y99.890 E0.03096
G1 X135.225 Y100.452 E0.02289
G1 X134.807 Y100.900 E0.01922
G1 X134.372 Y101.320 E0.01895
G1 X133.927 Y101.700 E0.01835
G1 X133.480 Y102.032 E0.01747
G1 X133.019 Y102.319 E0.01703
G1 X132.629 Y102.499 E0.01344
G1 X131.851 Y102.723 E0.02541
G1 X131.320 Y102.951 E0.01812
G1 X130.813 Y103.340 E0.02003
G1 X130.419 Y103.843 E0.02003
G1 X130.162 Y104.428 E0.02003
G1 X130.057 Y105.058 E0.02003
G1 X130.106 Y105.627 E0.01790
G1 X130.249 Y106.346 E0.02301
G1 X130.422 Y106.891 E0.01790
G1 X130.759 Y107.433 E0.02003
G1 X131.221 Y107.874 E0.02003
G1 X131.777 Y108.188 E0.02003
G1 X132.394 Y108.354 E0.02003
G1 X132.972 Y108.361 E0.01812
G1 X133.774 Y108.270 E0.02530
G1 X134.210 Y108.288 E0.01367
G1 X134.749 Y108.377 E0.01712
G1 X135.289 Y108.514 E0.01747
G1 X135.840 Y108.693 E0.01817
G1 X136.396 Y108.911 E0.01872
G1 X136.952 Y109.165 E0.01916
G1 X137.598 Y109.504 E0.02290
G1 X137.609 Y110.346 E0.02640
G1 X137.605 Y110.492 E0.00456
G1 X136.959 Y110.832 E0.02289
G1 X136.401 Y111.086 E0.01922
G1 X135.839 Y111.307 E0.01895
G1 X135.286 Y111.487 E0.01821
G1 X134.742 Y111.624 E0.01761
G1 X133.982 Y111.731 E0.02407
G1 X133.777 Y111.730 E0.00640
G1 X132.972 Y111.639 E0.02541
G1 X132.394 Y111.646 E0.01812
G1 X131.777 Y111.812 E0.02003
G1 X131.221 Y112.126 E0.02003
G1 X130.759 Y112.567 E0.02003
G1 X130.422 Y113.109 E0.02003
G1 X130.249 Y113.654 E0.01790
G1 X130.106 Y114.373 E0.02301
G1 X130.057 Y114.942 E0.01790
G1 X130.162 Y115.572 E0.02003
G1 X130.419 Y116.157 E0.02003
G1 X130.813 Y116.660 E0.02003
G1 X131.320 Y117.049 E0.02003
G1 X131.851 Y117.277 E0.01812
G1 X132.628 Y117.501 E0.02535
G1 X132.819 Y117.578 E0.00649
G1 X133.481 Y117.969 E0.02409
G1 X133.927 Y118.300 E0.01742
G1 X134.373 Y118.681 E0.01841
G1 X134.803 Y119.095 E0.01871
G1 X135.220 Y119.542 E0.01916
G1 X135.692 Y120.110 E0.02314
G1 X135.308 Y121.019 E0.03096
G1 X134.589 Y121.085 E0.02264
G1 X133.976 Y121.107 E0.01922
G1 X133.372 Y121.096 E0.01895
G1 X132.788 Y121.050 E0.01835
G1 X132.237 Y120.969 E0.01747
G1 X131.708 Y120.845 E0.01703
G1 X131.306 Y120.697 E0.01344
G1 X130.596 Y120.305 E0.02541
G1 X130.060 Y120.091 E0.01812
G1 X129.426 Y120.008 E0.02003
G1 X128.792 Y120.085 E0.02003
G1 X128.197 Y120.316 E0.02003
G1 X127.677 Y120.688 E0.02003
G1 X127.309 Y121.125 E0.01790
G1 X126.902 Y121.735 E0.02301
G1 X126.639 Y122.241 E0.01790
G1 X126.494 Y122.864 E0.02003
G1 X126.509 Y123.502 E0.02003
G1 X126.680 Y124.118 E0.02003
G1 X126.999 Y124.671 E0.02003
G1 X127.403 Y125.085 E0.01812
G1 X128.034 Y125.588 E0.02530
G1 X128.329 Y125.909 E0.01367
G1 X128.647 Y126.353 E0.01712
G1 X128.933 Y126.831 E0.01747
G1 X129.196 Y127.348 E0.01817
G1 X129.434 Y127.895 E0.01872
G1 X129.648 Y128.467 E0.01916
G1 X129.865 Y129.164 E0.02290
G1 X129.277 Y129.767 E0.02640
G1 X129.172 Y129.867 E0.00456
G1 X128.475 Y129.651 E0.02289
G1 X127.900 Y129.437 E0.01922
G1 X127.346 Y129.195 E0.01895
G1 X126.829 Y128.932 E0.01821
G1 X126.347 Y128.643 E0.01761
G1 X125.733 Y128.182 E0.02407
G1 X125.590 Y128.036 E0.00640
G1 X125.085 Y127.403 E0.02541
G1 X124.671 Y126.999 E0.01812
G1 X124.118 Y126.680 E0.02003
G1 X123.502 Y126.509 E0.02003
G1 X122.864 Y126.494 E0.02003
G1 X122.241 Y126.639 E0.02003
G1 X121.735 Y126.902 E0.01790
G1 X121.125 Y127.309 E0.02301
G1 X120.688 Y127.677 E0.01790
G1 X120.316 Y128.197 E0.02003
G1 X120.085 Y128.792 E0.02003
G1 X120.008 Y129.426 E0.02003
G1 X120.091 Y130.060 E0.02003
G1 X120.305 Y130.596 E0.01812
G1 X120.696 Y131.304 E0.02535
G1 X120.777 Y131.494 E0.00649
G1 X120.969 Y132.238 E0.02409
G1 X121.050 Y132.788 E0.01742
G1 X121.096 Y133.373 E0.01841
G1 X121.107 Y133.970 E0.01871
G1 X121.086 Y134.580 E0.01916
G1 X121.019 Y135.308 E0.02290
G1 X120.110 Y135.692 E0.03096
G1 X119.548 Y135.225 E0.02289
G1 X119.100 Y134.807 E0.01922
G1 X118.680 Y134.372 E0.01895
G1 X118.300 Y133.927 E0.01835
G1 X117.968 Y133.480 E0.01747
G1 X117.681 Y133.019 E0.01703
G1 X117.501 Y132.629 E0.01344
G1 X117.277 Y131.851 E0.02541
G1 X117.049 Y131.320 E0.01812
G1 X116.660 Y130.813 E0.02003
G1 X116.157 Y130.419 E0.02003
G1 X115.572 Y130.162 E0.02003
G1 X114.942 Y130.057 E0.02003
G1 X114.373 Y130.106 E0.01790
G1 X113.654 Y130.249 E0.02301
G1 X113.109 Y130.422 E0.01790
G1 X112.567 Y130.759 E0.02003
G1 X112.126 Y131.221 E0.02003
G1 X111.812 Y131.777 E0.02003
G1 X111.646 Y132.394 E0.02003
G1 X111.639 Y132.972 E0.01812
G1 X111.730 Y133.774 E0.02530
G1 X111.712 Y134.210 E0.01367
G1 X111.623 Y134.749 E0.01712
G1 X111.486 Y135.289 E0.01747
G1 X111.307 Y135.840 E0.01817
G1 X111.089 Y136.396 E0.01872
G1 X110.835 Y136.952 E0.01916
G1 X110.496 Y137.598 E0.02290
G1 X109.654 Y137.609 E0.02640
G1 X109.508 Y137.605 E0.00456
G1 X109.168 Y136.959 E0.02289
G1 X108.914 Y136.401 E0.01922
G1 X108.693 Y135.839 E0.01895
G1 X108.513 Y135.286 E0.01821
G1 X108.376 Y134.742 E0.01761
G1 X108.269 Y133.982 E0.02407
G1 X108.270 Y133.777 E0.00640
G1 X108.361 Y132.972 E0.02541
G1 X108.354 Y132.394 E0.01812
G1 X108.188 Y131.777 E0.02003
G1 X107.874 Y131.221 E0.02003
G1 X107.433 Y130.759 E0.02003
G1 X106.891 Y130.422 E0.02003
G1 X106.346 Y130.249 E0.01790
G1 X105.627 Y130.106 E0.02301
G1 X105.058 Y130.057 E0.01790
G1 X104.428 Y130.162 E0.02003
G1 X103.843 Y130.419 E0.02003
G1 X103.340 Y130.813 E0.02003
G1 X102.951 Y131.320 E0.02003
G1 X102.723 Y131.851 E0.01812
G1 X102.499 Y132.628 E0.02535
G1 X102.422 Y132.819 E0.00649
G1 X102.031 Y133.481 E0.02409
G1 X101.700 Y133.927 E0.01742
G1 X101.319 Y134.373 E0.01841
G1 X100.905 Y134.803 E0.01871
G1 X100.458 Y135.220 E0.01916
G1 X99.890 Y135.692 E0.02314
G1 X98.981 Y135.308 E0.03096
G1 X98.915 Y134.589 E0.02264
G1 X98.893 Y133.976 E0.01922
G1 X98.904 Y133.372 E0.01895
G1 X98.950 Y132.788 E0.01835
G1 X99.031 Y132.237 E0.01747
G1 X99.155 Y131.708 E0.01703
G1 X99.303 Y131.306 E0.01344
G1 X99.695 Y130.596 E0.02541
G1 X99.909 Y130.060 E0.01812
G1 X99.992 Y129.426 E0.02003
G1 X99.915 Y128.792 E0.02003
G1 X99.684 Y128.197 E0.02003
G1 X99.312 Y127.677 E0.02003
G1 X98.875 Y127.309 E0.01790
G1 X98.265 Y126.902 E0.02301
G1 X97.759 Y126.639 E0.01790
G1 X97.136 Y126.494 E0.02003
G1 X96.498 Y126.509 E0.02003
G1 X95.882 Y126.680 E0.02003
G1 X95.329 Y126.999 E0.02003
G1 X94.915 Y127.403 E0.01812
G1 X94.412 Y128.034 E0.02530
G1 X94.091 Y128.329 E0.01367
G1 X93.647 Y128.647 E0.01712
G1 X93.169 Y128.933 E0.01747
G1 X92.652 Y129.196 E0.01817
G1 X92.105 Y129.434 E0.01872
G1 X91.533 Y129.648 E0.01916
G1 X90.836 Y129.865 E0.02290
G1 X90.233 Y129.277 E0.02640
G1 X90.133 Y129.172 E0.00456
G1 X90.349 Y128.475 E0.02289
G1 X90.563 Y127.900 E0.01922
G1 X90.805 Y127.346 E0.01895
G1 X91.068 Y126.829 E0.01821
G1 X91.357 Y126.347 E0.01761
G1 X91.818 Y125.733 E0.02407
G1 X91.964 Y125.590 E0.00640
G1 X92.597 Y125.085 E0.02541
G1 X93.001 Y124.671 E0.01812
G1 X93.320 Y124.118 E0.02003
G1 X93.491 Y123.502 E0.02003
G1 X93.506 Y122.864 E0.02003
G1 X93.361 Y122.241 E0.02003
G1 X93.098 Y121.735 E0.01790
G1 X92.691 Y121.125 E0.02301
G1 X92.323 Y120.688 E0.01790
G1 X91.803 Y120.316 E0.02003
G1 X91.208 Y120.085 E0.02003
G1 X90.574 Y120.008 E0.02003
G1 X89.940 Y120.091 E0.02003
G1 X89.404 Y120.305 E0.01812
G1 X88.696 Y120.696 E0.02535
G1 X88.506 Y120.777 E0.00649
G1 X87.762 Y120.969 E0.02409
G1 X87.212 Y121.050 E0.01742
G1 X86.627 Y121.096 E0.01841
G1 X86.030 Y121.107 E0.01871
G1 X85.420 Y121.086 E0.01916
G1 X84.692 Y121.019 E0.02290
G1 X84.308 Y120.110 E0.03096
G1 X84.775 Y119.548 E0.02289
G1 X85.193 Y119.100 E0.01922
G1 X85.628 Y118.680 E0.01895
G1 X86.073 Y118.300 E0.01835
G1 X86.520 Y117.968 E0.01747
G1 X86.981 Y117.681 E0.01703
G1 X87.371 Y117.501 E0.01344
G1 X88.149 Y117.277 E0.02541
G1 X88.680 Y117.049 E0.01812
G1 X89.187 Y116.660 E0.02003
G1 X89.581 Y116.157 E0.02003
G1 X89.838 Y115.572 E0.02003
G1 X89.943 Y114.942 E0.02003
G1 X89.894 Y114.373 E0.01790
G1 X89.751 Y113.654 E0.02301
G1 X89.578 Y113.109 E0.01790
G1 X89.241 Y112.567 E0.02003
G1 X88.779 Y112.126 E0.02003
G1 X88.223 Y111.812 E0.02003
G1 X87.606 Y111.646 E0.02003
G1 X87.028 Y111.639 E0.01812
G1 X86.226 Y111.730 E0.02530
G1 X85.790 Y111.712 E0.01367
G1 X85.251 Y111.623 E0.01712
G1 X84.711 Y111.486 E0.01747
G1 X84.160 Y111.307 E0.01817
