; generated by PrusaSlicer 2.2.0+win64 on 2022-03-18 at 23:21:28 UTC

; 

; external perimeters extrusion width = 0.45mm
; perimeters extrusion width = 0.45mm
; infill extrusion width = 0.45mm
; solid infill extrusion width = 0.45mm
; top infill extrusion width = 0.40mm
; first layer extrusion width = 0.42mm

M201 X500 Y500 Z100 E5000 ; sets maximum accelerations, mm/sec^2
M203 X500 Y500 Z10 E60 ; sets maximum feedrates, mm/sec
M204 P500 R1000 T500 ; sets acceleration (P, T) and retract acceleration (R), mm/sec^2
M205 X8.00 Y8.00 Z0.40 E5.00 ; sets the jerk limits, mm/sec
M205 S0 T0 ; sets the minimum extruding and travel feed rate, mm/sec
M107
G90 ; use absolute coordinates
M83 ; extruder relative mode
M104 S215 ; set extruder temp
M140 S40 ; set bed temp
M190 S40 ; wait for bed temp
M109 S215 ; wait for extruder temp
G28 ; home all
G1 Z2 F240
G1 X2 Y10 F3000
G1 Z0.28 F240
G92 E0.0
G1 Y190 E15.0 F1500.0 ; intro line
G1 X2.3 F5000
G1 Y10 E30 F1200.0 ; intro line
G92 E0.0
G21 ; set units to millimeters
G90 ; use absolute coordinates
M83 ; use relative distances for extrusion
; Filament gcode
;BEFORE_LAYER_CHANGE
;0.2


G1 E-5.00000 F3600.00000
G1 Z0.200 F9000.000
;AFTER_LAYER_CHANGE
;0.2
G1 X89.240 Y86.407
G1 E5.00000 F2400.00000
G1 F1200.000
G1 X90.332 Y85.581 E0.04294
G1 X91.584 Y85.063 E0.04247
G1 X92.849 Y84.878 E0.04009
G1 X127.004 Y84.873 E1.07090
G1 X128.170 Y85.008 E0.03680
G1 X128.678 Y85.153 E0.01657
G1 X129.729 Y85.617 E0.03603
G1 X130.768 Y86.414 E0.04105
G1 X131.516 Y87.346 E0.03747
G1 X131.771 Y87.787 E0.01597
G1 X132.195 Y88.863 E0.03628
G1 X132.367 Y90.027 E0.03688
G1 X132.377 Y129.800 E1.24705
G1 X132.172 Y131.220 E0.04499
G1 X131.758 Y132.243 E0.03462
G1 X131.501 Y132.675 E0.01574
G1 X130.758 Y133.596 E0.03710
G1 X129.654 Y134.426 E0.04330
G1 X128.402 Y134.941 E0.04247
G1 X127.090 Y135.125 E0.04152
G1 X92.943 Y135.126 E1.07067
G1 X91.530 Y134.922 E0.04475
G1 X90.507 Y134.508 E0.03462
G1 X90.075 Y134.251 E0.01574
G1 X89.154 Y133.508 E0.03710
G1 X88.322 Y132.401 E0.04342
G1 X87.808 Y131.148 E0.04247
G1 X87.624 Y129.829 E0.04176
G1 X87.623 Y90.200 E1.24252
G1 X87.828 Y88.780 E0.04499
G1 X88.242 Y87.757 E0.03462
G1 X88.499 Y87.325 E0.01574
G1 X89.202 Y86.454 E0.03510
G1 E-3.50000 F3600.00000
G1 F7200.000
G1 X90.332 Y85.581 E-0.67828
G1 X91.584 Y85.063 E-0.64342
G1 X91.799 Y85.031 E-0.10331
G1 E-0.07500 F3600.00000
G1 X91.566 Y88.816 F9000.000
G1 E5.00000 F2400.00000
G1 F1200.000
G1 X91.986 Y88.494 E0.01660
G1 X92.451 Y88.302 E0.01577
G1 X93.068 Y88.214 E0.01955
G1 X126.937 Y88.214 E1.06193
G1 X127.499 Y88.288 E0.01777
G1 X128.018 Y88.497 E0.01755
G1 X128.434 Y88.816 E0.01644
G1 X128.756 Y89.236 E0.01660
G1 X128.958 Y89.725 E0.01660
G1 X129.036 Y90.313 E0.01859
G1 X129.036 Y129.682 E1.23438
G1 X128.948 Y130.299 E0.01955
G1 X128.756 Y130.764 E0.01577
G1 X128.434 Y131.184 E0.01660
G1 X128.014 Y131.506 E0.01660
G1 X127.549 Y131.698 E0.01577
G1 X126.932 Y131.786 E0.01955
G1 X93.063 Y131.786 E1.06193
G1 X92.475 Y131.708 E0.01859
G1 X91.986 Y131.506 E0.01660
G1 X91.566 Y131.184 E0.01660
G1 X91.244 Y130.764 E0.01660
G1 X91.052 Y130.299 E0.01577
G1 X90.964 Y129.682 E0.01955
G1 X90.964 Y90.313 E1.23438
G1 X91.042 Y89.725 E0.01859
G1 X91.244 Y89.236 E0.01660
G1 X91.530 Y88.864 E0.01471
G1 X91.297 Y88.547 F9000.000
G1 F1200.000
G1 X91.796 Y88.165 E0.01971
G1 X92.351 Y87.935 E0.01882
G1 X93.041 Y87.837 E0.02188
G1 X126.962 Y87.837 E1.06354
G1 X127.595 Y87.920 E0.02004
G1 X128.206 Y88.167 E0.02066
G1 X128.703 Y88.547 E0.01962
G1 X129.085 Y89.046 E0.01971
G1 X129.326 Y89.627 E0.01971
G1 X129.413 Y90.288 E0.02093
G1 X129.413 Y129.709 E1.23599
G1 X129.315 Y130.399 E0.02188
G1 X129.085 Y130.954 E0.01882
G1 X128.703 Y131.453 E0.01971
G1 X128.204 Y131.835 E0.01971
G1 X127.649 Y132.065 E0.01882
G1 X126.959 Y132.163 E0.02188
G1 X93.038 Y132.163 E1.06354
G1 X92.377 Y132.076 E0.02093
G1 X91.796 Y131.835 E0.01971
G1 X91.297 Y131.453 E0.01971
G1 X90.915 Y130.954 E0.01971
G1 X90.685 Y130.399 E0.01882
G1 X90.587 Y129.709 E0.02188
G1 X90.587 Y90.288 E1.23599
G1 X90.674 Y89.627 E0.02093
G1 X90.915 Y89.046 E0.01971
G1 X91.261 Y88.595 E0.01783
G1 X91.028 Y88.278 F9000.000
G1 F1200.000
G1 X91.606 Y87.835 E0.02282
G1 X92.250 Y87.568 E0.02187
G1 X93.015 Y87.460 E0.02421
G1 X126.986 Y87.460 E1.06515
G1 X127.692 Y87.553 E0.02231
G1 X128.395 Y87.836 E0.02377
G1 X128.972 Y88.278 E0.02279
G1 X129.415 Y88.856 E0.02282
G1 X129.693 Y89.528 E0.02282
G1 X129.790 Y90.264 E0.02326
G1 X129.790 Y129.735 E1.23760
G1 X129.682 Y130.500 E0.02421
G1 X129.415 Y131.144 E0.02187
G1 X128.972 Y131.722 E0.02282
G1 X128.394 Y132.165 E0.02282
G1 X127.750 Y132.432 E0.02187
G1 X126.985 Y132.540 E0.02421
G1 X93.014 Y132.540 E1.06515
G1 X92.278 Y132.443 E0.02326
G1 X91.606 Y132.165 E0.02282
G1 X91.028 Y131.722 E0.02282
G1 X90.585 Y131.144 E0.02282
G1 X90.318 Y130.500 E0.02187
G1 X90.210 Y129.735 E0.02421
G1 X90.210 Y90.264 E1.23760
G1 X90.307 Y89.528 E0.02326
G1 X90.585 Y88.856 E0.02282
G1 X90.992 Y88.326 E0.02094
G1 X91.415 Y88.382 F9000.000
G1 E-3.50000 F3600.00000
G1 F7200.000
G1 X91.606 Y87.835 E-0.37334
G1 X92.250 Y87.568 E-0.33136
G1 X93.015 Y87.460 E-0.36673
G1 X93.759 Y87.460 E-0.35358
G1 E-0.07500 F3600.00000
G1 X92.978 Y131.661 F9000.000
G1 E5.00000 F2400.00000
G1 F1200.000
G1 X91.291 Y129.974 E0.07484
G1 X91.247 Y129.662 E0.00987
G1 X91.247 Y129.396 E0.00835
G1 X93.354 Y131.503 E0.09348
G1 X93.888 Y131.503 E0.01674
G1 X91.247 Y128.862 E0.11715
G1 X91.247 Y128.329 E0.01674
G1 X94.421 Y131.503 E0.14083
G1 X94.955 Y131.503 E0.01674
G1 X91.247 Y127.795 E0.16450
G1 X91.247 Y127.262 E0.01674
G1 X95.488 Y131.503 E0.18817
G1 X96.022 Y131.503 E0.01674
G1 X91.247 Y126.728 E0.21184
G1 X91.247 Y126.195 E0.01674
G1 X96.555 Y131.503 E0.23551
G1 X97.089 Y131.503 E0.01674
G1 X91.247 Y125.661 E0.25918
G1 X91.247 Y125.127 E0.01674
G1 X97.623 Y131.503 E0.28285
G1 X98.156 Y131.503 E0.01674
G1 X91.247 Y124.594 E0.30652
G1 X91.247 Y124.060 E0.01674
G1 X98.690 Y131.503 E0.33019
G1 X99.223 Y131.503 E0.01674
G1 X91.247 Y123.527 E0.35386
G1 X91.247 Y122.993 E0.01674
G1 X99.757 Y131.503 E0.37754
G1 X100.290 Y131.503 E0.01674
G1 X91.247 Y122.460 E0.40121
G1 X91.247 Y121.926 E0.01674
G1 X100.824 Y131.503 E0.42488
G1 X101.357 Y131.503 E0.01674
G1 X91.247 Y121.393 E0.44855
G1 X91.247 Y120.859 E0.01674
G1 X101.891 Y131.503 E0.47222
G1 X102.424 Y131.503 E0.01674
G1 X91.247 Y120.326 E0.49589
G1 X91.247 Y119.792 E0.01674
G1 X102.958 Y131.503 E0.51956
G1 X103.492 Y131.503 E0.01674
G1 X91.247 Y119.258 E0.54323
G1 X91.247 Y118.725 E0.01674
G1 X104.025 Y131.503 E0.56690
G1 X104.559 Y131.503 E0.01674
G1 X91.247 Y118.191 E0.59057
G1 X91.247 Y117.658 E0.01674
G1 X105.092 Y131.503 E0.61425
G1 X105.626 Y131.503 E0.01674
G1 X91.247 Y117.124 E0.63792
G1 X91.247 Y116.591 E0.01674
G1 X106.159 Y131.503 E0.66159
G1 X106.693 Y131.503 E0.01674
G1 X91.247 Y116.057 E0.68526
G1 X91.247 Y115.524 E0.01674
G1 X107.226 Y131.503 E0.70893
G1 X107.760 Y131.503 E0.01674
G1 X91.247 Y114.990 E0.73260
G1 X91.247 Y114.456 E0.01674
G1 X108.294 Y131.503 E0.75627
G1 X108.827 Y131.503 E0.01674
G1 X91.247 Y113.923 E0.77994
G1 X91.247 Y113.389 E0.01674
G1 X109.361 Y131.503 E0.80361
G1 X109.894 Y131.503 E0.01674
G1 X91.247 Y112.856 E0.82729
G1 X91.247 Y112.322 E0.01674
G1 X110.428 Y131.503 E0.85096
G1 X110.961 Y131.503 E0.01674
G1 X91.247 Y111.789 E0.87463
G1 X91.247 Y111.255 E0.01674
G1 X111.495 Y131.503 E0.89830
G1 X112.028 Y131.503 E0.01674
G1 X91.247 Y110.722 E0.92197
G1 X91.247 Y110.188 E0.01674
G1 X112.562 Y131.503 E0.94564
G1 X113.096 Y131.503 E0.01674
G1 X91.247 Y109.654 E0.96931
G1 X91.247 Y109.121 E0.01674
G1 X113.629 Y131.503 E0.99298
G1 X114.163 Y131.503 E0.01674
G1 X91.247 Y108.587 E1.01665
G1 X91.247 Y108.054 E0.01674
G1 X114.696 Y131.503 E1.04032
G1 X115.230 Y131.503 E0.01674
G1 X91.247 Y107.520 E1.06400
G1 X91.247 Y106.987 E0.01674
G1 X115.763 Y131.503 E1.08767
G1 X116.297 Y131.503 E0.01674
G1 X91.247 Y106.453 E1.11134
G1 X91.247 Y105.920 E0.01674
G1 X116.830 Y131.503 E1.13501
G1 X117.364 Y131.503 E0.01674
G1 X91.247 Y105.386 E1.15868
G1 X91.247 Y104.853 E0.01674
G1 X117.897 Y131.503 E1.18235
G1 X118.431 Y131.503 E0.01674
G1 X91.247 Y104.319 E1.20602
G1 X91.247 Y103.785 E0.01674
G1 X118.965 Y131.503 E1.22969
G1 X119.498 Y131.503 E0.01674
G1 X91.247 Y103.252 E1.25336
G1 X91.247 Y102.718 E0.01674
G1 X120.032 Y131.503 E1.27703
G1 X120.565 Y131.503 E0.01674
G1 X91.247 Y102.185 E1.30071
G1 X91.247 Y101.651 E0.01674
G1 X121.099 Y131.503 E1.32438
G1 X121.632 Y131.503 E0.01674
G1 X91.247 Y101.118 E1.34805
G1 X91.247 Y100.584 E0.01674
G1 X122.166 Y131.503 E1.37172
G1 X122.699 Y131.503 E0.01674
G1 X91.247 Y100.051 E1.39539
G1 X91.247 Y99.517 E0.01674
G1 X123.233 Y131.503 E1.41906
G1 X123.767 Y131.503 E0.01674
G1 X91.247 Y98.983 E1.44273
G1 X91.247 Y98.450 E0.01674
G1 X124.300 Y131.503 E1.46640
G1 X124.834 Y131.503 E0.01674
G1 X91.247 Y97.916 E1.49007
G1 X91.247 Y97.383 E0.01674
G1 X125.367 Y131.503 E1.51374
G1 X125.901 Y131.503 E0.01674
G1 X91.247 Y96.849 E1.53742
G1 X91.247 Y96.316 E0.01674
G1 X126.434 Y131.503 E1.56109
G1 X126.961 Y131.496 E0.01652
G1 X91.247 Y95.782 E1.58445
G1 X91.247 Y95.249 E0.01674
G1 X127.428 Y131.430 E1.60518
G1 X127.814 Y131.282 E0.01297
G1 X91.247 Y94.715 E1.62231
G1 X91.247 Y94.181 E0.01674
G1 X128.128 Y131.062 E1.63621
G1 X128.232 Y130.982 E0.00413
G1 X128.384 Y130.784 E0.00781
G1 X91.247 Y93.648 E1.64756
G1 X91.247 Y93.114 E0.01674
G1 X128.581 Y130.448 E1.65631
G1 X128.673 Y130.224 E0.00760
G1 X128.700 Y130.034 E0.00602
G1 X91.247 Y92.581 E1.66162
G1 X91.247 Y92.047 E0.01674
G1 X128.753 Y129.553 E1.66396
G1 X128.753 Y129.020 E0.01674
G1 X91.247 Y91.514 E1.66396
G1 X91.247 Y90.980 E0.01674
G1 X128.753 Y128.486 E1.66396
G1 X128.753 Y127.953 E0.01674
G1 X91.247 Y90.447 E1.66396
G1 X91.296 Y89.962 E0.01529
G1 X128.753 Y127.419 E1.66180
G1 X128.753 Y126.886 E0.01674
G1 X91.419 Y89.552 E1.65631
G1 X91.491 Y89.379 E0.00588
G1 X91.616 Y89.216 E0.00646
G1 X128.753 Y126.352 E1.64756
G1 X128.753 Y125.819 E0.01674
G1 X91.872 Y88.938 E1.63621
G1 X92.129 Y88.741 E0.01014
G1 X92.186 Y88.718 E0.00193
G1 X128.753 Y125.285 E1.62231
G1 X128.753 Y124.751 E0.01674
G1 X92.572 Y88.570 E1.60518
G1 X93.039 Y88.504 E0.01481
G1 X128.753 Y124.218 E1.58445
G1 X128.753 Y123.684 E0.01674
G1 X93.566 Y88.497 E1.56109
G1 X94.099 Y88.497 E0.01674
G1 X128.753 Y123.151 E1.53742
G1 X128.753 Y122.617 E0.01674
G1 X94.633 Y88.497 E1.51374
G1 X95.166 Y88.497 E0.01674
G1 X128.753 Y122.084 E1.49007
G1 X128.753 Y121.550 E0.01674
G1 X95.700 Y88.497 E1.46640
G1 X96.233 Y88.497 E0.01674
G1 X128.753 Y121.017 E1.44273
G1 X128.753 Y120.483 E0.01674
G1 X96.767 Y88.497 E1.41906
G1 X97.301 Y88.497 E0.01674
G1 X128.753 Y119.949 E1.39539
G1 X128.753 Y119.416 E0.01674
G1 X97.834 Y88.497 E1.37172
G1 X98.368 Y88.497 E0.01674
G1 X128.753 Y118.882 E1.34805
G1 X128.753 Y118.349 E0.01674
G1 X98.901 Y88.497 E1.32438
G1 X99.435 Y88.497 E0.01674
G1 X128.753 Y117.815 E1.30071
G1 X128.753 Y117.282 E0.01674
G1 X99.968 Y88.497 E1.27703
G1 X100.502 Y88.497 E0.01674
G1 X128.753 Y116.748 E1.25336
G1 X128.753 Y116.215 E0.01674
G1 X101.035 Y88.497 E1.22969
G1 X101.569 Y88.497 E0.01674
G1 X128.753 Y115.681 E1.20602
G1 X128.753 Y115.147 E0.01674
G1 X102.103 Y88.497 E1.18235
G1 X102.636 Y88.497 E0.01674
G1 X128.753 Y114.614 E1.15868
G1 X128.753 Y114.080 E0.01674
G1 X103.170 Y88.497 E1.13501
G1 X103.703 Y88.497 E0.01674
G1 X128.753 Y113.547 E1.11134
G1 X128.753 Y113.013 E0.01674
G1 X104.237 Y88.497 E1.08767
G1 X104.770 Y88.497 E0.01674
G1 X128.753 Y112.480 E1.06400
G1 X128.753 Y111.946 E0.01674
G1 X105.304 Y88.497 E1.04032
G1 X105.837 Y88.497 E0.01674
G1 X128.753 Y111.413 E1.01665
G1 X128.753 Y110.879 E0.01674
G1 X106.371 Y88.497 E0.99298
G1 X106.904 Y88.497 E0.01674
G1 X128.753 Y110.346 E0.96931
G1 X128.753 Y109.812 E0.01674
G1 X107.438 Y88.497 E0.94564
G1 X107.972 Y88.497 E0.01674
G1 X128.753 Y109.278 E0.92197
G1 X128.753 Y108.745 E0.01674
G1 X108.505 Y88.497 E0.89830
G1 X109.039 Y88.497 E0.01674
G1 X128.753 Y108.211 E0.87463
G1 X128.753 Y107.678 E0.01674
G1 X109.572 Y88.497 E0.85096
G1 X110.106 Y88.497 E0.01674
G1 X128.753 Y107.144 E0.82729
G1 X128.753 Y106.611 E0.01674
G1 X110.639 Y88.497 E0.80361
G1 X111.173 Y88.497 E0.01674
G1 X128.753 Y106.077 E0.77994
G1 X128.753 Y105.544 E0.01674
G1 X111.706 Y88.497 E0.75627
G1 X112.240 Y88.497 E0.01674
G1 X128.753 Y105.010 E0.73260
G1 X128.753 Y104.476 E0.01674
G1 X112.774 Y88.497 E0.70893
G1 X113.307 Y88.497 E0.01674
G1 X128.753 Y103.943 E0.68526
G1 X128.753 Y103.409 E0.01674
G1 X113.841 Y88.497 E0.66159
G1 X114.374 Y88.497 E0.01674
G1 X128.753 Y102.876 E0.63792
G1 X128.753 Y102.342 E0.01674
G1 X114.908 Y88.497 E0.61425
G1 X115.441 Y88.497 E0.01674
G1 X128.753 Y101.809 E0.59057
G1 X128.753 Y101.275 E0.01674
G1 X115.975 Y88.497 E0.56690
G1 X116.508 Y88.497 E0.01674
G1 X128.753 Y100.742 E0.54323
G1 X128.753 Y100.208 E0.01674
G1 X117.042 Y88.497 E0.51956
G1 X117.576 Y88.497 E0.01674
G1 X128.753 Y99.674 E0.49589
G1 X128.753 Y99.141 E0.01674
G1 X118.109 Y88.497 E0.47222
G1 X118.643 Y88.497 E0.01674
G1 X128.753 Y98.607 E0.44855
G1 X128.753 Y98.074 E0.01674
G1 X119.176 Y88.497 E0.42488
G1 X119.710 Y88.497 E0.01674
G1 X128.753 Y97.540 E0.40121
G1 X128.753 Y97.007 E0.01674
G1 X120.243 Y88.497 E0.37754
G1 X120.777 Y88.497 E0.01674
G1 X128.753 Y96.473 E0.35386
G1 X128.753 Y95.940 E0.01674
G1 X121.310 Y88.497 E0.33019
G1 X121.844 Y88.497 E0.01674
G1 X128.753 Y95.406 E0.30652
G1 X128.753 Y94.873 E0.01674
G1 X122.377 Y88.497 E0.28285
G1 X122.911 Y88.497 E0.01674
G1 X128.753 Y94.339 E0.25918
G1 X128.753 Y93.805 E0.01674
G1 X123.445 Y88.497 E0.23551
G1 X123.978 Y88.497 E0.01674
G1 X128.753 Y93.272 E0.21184
G1 X128.753 Y92.738 E0.01674
G1 X124.512 Y88.497 E0.18817
G1 X125.045 Y88.497 E0.01674
G1 X128.753 Y92.205 E0.16450
G1 X128.753 Y91.671 E0.01674
G1 X125.579 Y88.497 E0.14083
G1 X126.112 Y88.497 E0.01674
G1 X128.753 Y91.138 E0.11715
G1 X128.753 Y90.604 E0.01674
G1 X126.646 Y88.497 E0.09348
G1 X126.918 Y88.497 E0.00854
G1 X127.219 Y88.537 E0.00952
G1 X128.911 Y90.228 E0.07504
M106 S255
;BEFORE_LAYER_CHANGE
;0.32


G1 E-3.50000 F3600.00000
G1 F7200.000
G1 X127.219 Y88.537 E-1.13626
G1 X126.918 Y88.497 E-0.14410
G1 X126.646 Y88.497 E-0.12938
G1 X126.669 Y88.520 E-0.01526
G1 E-0.07500 F3600.00000
G1 Z0.320 F9000.000
;AFTER_LAYER_CHANGE
;0.32
M104 S210 ; set temperature
G1 X129.729 Y85.617
G1 E5.00000 F2400.00000
G1 X130.768 Y86.414 E0.02575
G1 X131.516 Y87.346 E0.02350
G1 X131.771 Y87.787 E0.01002
G1 X132.195 Y88.863 E0.02276
G1 X132.367 Y90.027 E0.02313
G1 X132.377 Y129.800 E0.78229
G1 X132.172 Y131.220 E0.02822
G1 X131.758 Y132.243 E0.02172
G1 X131.501 Y132.675 E0.00987
G1 X130.758 Y133.596 E0.02328
G1 X129.654 Y134.426 E0.02716
G1 X128.402 Y134.941 E0.02664
G1 X127.090 Y135.125 E0.02605
G1 X92.943 Y135.126 E0.67165
G1 X91.530 Y134.922 E0.02808
G1 X90.507 Y134.508 E0.02172
G1 X90.075 Y134.251 E0.00987
G1 X89.154 Y133.508 E0.02328
G1 X88.322 Y132.401 E0.02724
G1 X87.808 Y131.148 E0.02664
G1 X87.624 Y129.829 E0.02620
G1 X87.623 Y90.200 E0.77945
G1 X87.828 Y88.780 E0.02822
G1 X88.242 Y87.757 E0.02172
G1 X88.499 Y87.325 E0.00987
G1 X89.240 Y86.407 E0.02320
G1 X90.332 Y85.581 E0.02694
G1 X91.584 Y85.063 E0.02664
G1 X92.849 Y84.878 E0.02515
G1 X127.004 Y84.873 E0.67180
G1 X128.170 Y85.008 E0.02308
G1 X128.678 Y85.153 E0.01039
G1 X129.674 Y85.593 E0.02142
G1 E-3.50000 F3600.00000
G1 F7200.000
G1 X130.768 Y86.414 E-0.64958
G1 X131.516 Y87.346 E-0.56759
G1 X131.735 Y87.724 E-0.20783
G1 E-0.07500 F3600.00000
G1 X127.959 Y88.590 F9000.000
G1 E5.00000 F2400.00000
G1 X128.356 Y88.894 E0.01059
G1 X128.660 Y89.291 E0.01059
G1 X128.852 Y89.754 E0.01059
G1 X128.927 Y90.320 E0.01210
G1 X128.927 Y129.680 E0.83307
G1 X128.852 Y130.246 E0.01210
G1 X128.660 Y130.709 E0.01059
G1 X128.356 Y131.106 E0.01059
G1 X127.959 Y131.410 E0.01059
G1 X127.496 Y131.602 E0.01059
G1 X126.930 Y131.677 E0.01210
G1 X93.070 Y131.677 E0.71666
G1 X92.504 Y131.602 E0.01210
G1 X92.041 Y131.410 E0.01059
G1 X91.644 Y131.106 E0.01059
G1 X91.340 Y130.709 E0.01059
G1 X91.148 Y130.246 E0.01059
G1 X91.073 Y129.680 E0.01210
G1 X91.073 Y90.320 E0.83307
