; generated by PrusaSlicer 2.2.0+win64 on 2022-03-18 at 23:21:50 UTC

; 

; external perimeters extrusion width = 0.45mm
; perimeters extrusion width = 0.45mm
; infill extrusion width = 0.45mm
; solid infill extrusion width = 0.45mm
; top infill extrusion width = 0.40mm
; first layer extrusion width = 0.42mm

M201 X500 Y500 Z100 E5000 ; sets maximum accelerations, mm/sec^2
M203 X500 Y500 Z10 E60 ; sets maximum feedrates, mm/sec
M204 P500 R1000 T500 ; sets acceleration (P, T) and retract acceleration (R), mm/sec^2
M205 X8.00 Y8.00 Z0.40 E5.00 ; sets the jerk limits, mm/sec
M205 S0 T0 ; sets the minimum extruding and travel feed rate, mm/sec
M107
G90 ; use absolute coordinates
M83 ; extruder relative mode
M104 S215 ; set extruder temp
M140 S40 ; set bed temp
M190 S40 ; wait for bed temp
M109 S215 ; wait for extruder temp
G28 ; home all
G1 Z2 F240
G1 X2 Y10 F3000
G1 Z0.28 F240
G92 E0.0
G1 Y190 E15.0 F1500.0 ; intro line
G1 X2.3 F5000
G1 Y10 E30 F1200.0 ; intro line
G92 E0.0
G21 ; set units to millimeters
G90 ; use absolute coordinates
M83 ; use relative distances for extrusion
; Filament gcode
;BEFORE_LAYER_CHANGE
;0.2


G1 E-5.00000 F3600.00000
G1 Z0.200 F9000.000
;AFTER_LAYER_CHANGE
;0.2
G1 X78.459 Y100.103
G1 E5.00000 F2400.00000
G1 F1200.000
G1 X79.455 Y99.383 E0.03855
G1 X80.237 Y99.062 E0.02649
G1 X112.049 Y88.731 E1.04874
G1 X112.985 Y88.624 E0.02954
G1 X137.426 Y88.623 E0.76632
G1 X138.321 Y88.799 E0.02860
G1 X139.084 Y89.300 E0.02860
G1 X139.602 Y90.051 E0.02860
G1 X139.799 Y90.942 E0.02860
G1 X139.798 Y129.080 E1.19580
G1 X139.690 Y129.713 E0.02012
G1 X139.417 Y130.293 E0.02012
G1 X138.998 Y130.780 E0.02012
G1 X138.465 Y131.136 E0.02012
G1 X137.959 Y131.316 E0.01680
G1 X137.431 Y131.377 E0.01668
G1 X112.989 Y131.377 E0.76637
G1 X111.974 Y131.254 E0.03206
G1 X80.115 Y119.895 E1.06049
G1 X79.297 Y119.532 E0.02805
G1 X78.550 Y118.978 E0.02918
G1 X78.205 Y118.618 E0.01562
G1 X77.632 Y117.793 E0.03151
G1 X77.267 Y116.863 E0.03132
G1 X77.124 Y115.829 E0.03274
G1 X77.135 Y103.014 E0.40179
G1 X77.297 Y102.032 E0.03122
G1 X77.765 Y100.971 E0.03634
G1 X78.421 Y100.150 E0.03298
G1 E-3.50000 F3600.00000
G1 F7200.000
G1 X79.455 Y99.383 E-0.61145
G1 X80.237 Y99.062 E-0.40130
G1 X81.062 Y98.793 E-0.41225
G1 E-0.07500 F3600.00000
G1 X115.036 Y93.036 F9000.000
G1 E5.00000 F2400.00000
G1 F1200.000
G1 X115.036 Y126.964 E1.06380
G1 X135.795 Y126.964 E0.65090
G1 X135.795 Y128.036 E0.03360
G1 X113.063 Y128.036 E0.71275
G1 X112.734 Y127.993 E0.01041
G1 X112.486 Y127.890 E0.00841
G1 X112.273 Y127.727 E0.00841
G1 X112.110 Y127.514 E0.00841
G1 X112.007 Y127.266 E0.00841
G1 X111.964 Y126.937 E0.01041
G1 X111.964 Y121.351 E0.17515
G1 X107.399 Y116.786 E0.20241
G1 X81.563 Y116.786 E0.81008
G1 X81.234 Y116.743 E0.01041
G1 X80.986 Y116.640 E0.00841
G1 X80.773 Y116.477 E0.00841
G1 X80.610 Y116.264 E0.00841
G1 X80.507 Y116.016 E0.00841
G1 X80.464 Y115.687 E0.01041
G1 X80.464 Y103.313 E0.38797
G1 X80.507 Y102.984 E0.01041
G1 X80.610 Y102.736 E0.00841
G1 X80.773 Y102.523 E0.00841
G1 X80.986 Y102.360 E0.00841
G1 X81.234 Y102.257 E0.00841
G1 X81.563 Y102.214 E0.01041
G1 X107.399 Y102.214 E0.81008
G1 X111.964 Y97.649 E0.20241
G1 X111.964 Y93.063 E0.14380
G1 X112.007 Y92.734 E0.01041
G1 X112.110 Y92.486 E0.00841
G1 X112.273 Y92.273 E0.00841
G1 X112.486 Y92.110 E0.00841
G1 X112.734 Y92.007 E0.00841
G1 X113.063 Y91.964 E0.01041
G1 X135.795 Y91.964 E0.71275
G1 X135.795 Y93.036 E0.03360
G1 X115.096 Y93.036 E0.64902
G1 X115.413 Y93.413 F9000.000
G1 F1200.000
G1 X115.413 Y126.587 E1.04015
G1 X136.173 Y126.587 E0.65090
G1 X136.173 Y128.413 E0.05725
G1 X113.038 Y128.413 E0.72535
G1 X112.636 Y128.360 E0.01274
G1 X112.296 Y128.219 E0.01153
G1 X112.004 Y127.995 E0.01152
G1 X111.781 Y127.704 E0.01152
G1 X111.640 Y127.364 E0.01152
G1 X111.587 Y126.962 E0.01274
G1 X111.587 Y121.507 E0.17103
G1 X107.243 Y117.163 E0.19262
G1 X81.538 Y117.163 E0.80595
G1 X81.136 Y117.110 E0.01274
G1 X80.796 Y116.969 E0.01152
G1 X80.505 Y116.746 E0.01152
G1 X80.281 Y116.454 E0.01152
G1 X80.140 Y116.114 E0.01152
G1 X80.087 Y115.712 E0.01274
G1 X80.087 Y103.288 E0.38952
G1 X80.140 Y102.886 E0.01274
G1 X80.281 Y102.546 E0.01152
G1 X80.504 Y102.254 E0.01152
G1 X80.796 Y102.031 E0.01152
G1 X81.136 Y101.890 E0.01152
G1 X81.538 Y101.837 E0.01274
G1 X107.243 Y101.837 E0.80595
G1 X111.587 Y97.493 E0.19262
G1 X111.587 Y93.038 E0.13967
G1 X111.640 Y92.636 E0.01274
G1 X111.781 Y92.296 E0.01152
G1 X112.004 Y92.005 E0.01152
G1 X112.296 Y91.781 E0.01152
G1 X112.636 Y91.640 E0.01152
G1 X113.038 Y91.587 E0.01274
G1 X136.173 Y91.587 E0.72535
G1 X136.173 Y93.413 E0.05725
G1 X115.473 Y93.413 E0.64902
G1 X115.790 Y93.790 F9000.000
G1 F1200.000
G1 X115.790 Y126.210 E1.01651
G1 X136.550 Y126.210 E0.65090
G1 X136.550 Y128.790 E0.08089
G1 X113.014 Y128.790 E0.73795
G1 X112.537 Y128.727 E0.01507
G1 X112.106 Y128.549 E0.01464
G1 X111.736 Y128.264 E0.01464
G1 X111.451 Y127.894 E0.01464
G1 X111.273 Y127.463 E0.01464
G1 X111.210 Y126.986 E0.01507
G1 X111.210 Y121.663 E0.16691
G1 X107.087 Y117.540 E0.18282
G1 X81.514 Y117.540 E0.80183
G1 X81.037 Y117.477 E0.01507
G1 X80.606 Y117.299 E0.01464
G1 X80.236 Y117.014 E0.01464
G1 X79.951 Y116.644 E0.01464
G1 X79.773 Y116.213 E0.01464
G1 X79.710 Y115.736 E0.01507
G1 X79.710 Y103.264 E0.39107
G1 X79.773 Y102.787 E0.01507
G1 X79.951 Y102.356 E0.01464
G1 X80.236 Y101.986 E0.01464
G1 X80.606 Y101.701 E0.01464
G1 X81.037 Y101.523 E0.01464
G1 X81.514 Y101.460 E0.01507
G1 X107.087 Y101.460 E0.80183
G1 X111.210 Y97.337 E0.18282
G1 X111.210 Y93.014 E0.13555
G1 X111.273 Y92.537 E0.01507
G1 X111.451 Y92.106 E0.01464
G1 X111.736 Y91.736 E0.01464
G1 X112.106 Y91.451 E0.01464
G1 X112.537 Y91.273 E0.01464
G1 X113.014 Y91.210 E0.01507
G1 X136.550 Y91.210 E0.73795
G1 X136.550 Y93.790 E0.08089
G1 X115.850 Y93.790 E0.64902
G1 X115.390 Y93.806 F9000.000
G1 E-3.50000 F3600.00000
G1 F7200.000
G1 X115.844 Y96.790 E-1.42500
G1 E-0.07500 F3600.00000
G1 X135.682 Y92.842 F9000.000
G1 E5.00000 F2400.00000
G1 F1200.000
G1 X135.087 Y92.247 E0.02650
G1 X134.552 Y92.247 E0.01684
G1 X135.058 Y92.753 E0.02252
G1 X134.522 Y92.753 E0.01684
G1 X134.016 Y92.247 E0.02252
G1 X133.481 Y92.247 E0.01684
G1 X133.987 Y92.753 E0.02252
G1 X133.452 Y92.753 E0.01684
G1 X132.946 Y92.247 E0.02252
G1 X132.411 Y92.247 E0.01684
G1 X132.917 Y92.753 E0.02252
G1 X132.382 Y92.753 E0.01684
G1 X131.876 Y92.247 E0.02252
G1 X131.340 Y92.247 E0.01684
G1 X131.846 Y92.753 E0.02252
G1 X131.311 Y92.753 E0.01684
G1 X130.805 Y92.247 E0.02252
G1 X130.270 Y92.247 E0.01684
G1 X130.776 Y92.753 E0.02252
G1 X130.241 Y92.753 E0.01684
G1 X129.735 Y92.247 E0.02252
G1 X129.199 Y92.247 E0.01684
G1 X129.706 Y92.753 E0.02252
G1 X129.170 Y92.753 E0.01684
G1 X128.664 Y92.247 E0.02252
G1 X128.129 Y92.247 E0.01684
G1 X128.635 Y92.753 E0.02252
G1 X128.100 Y92.753 E0.01684
G1 X127.594 Y92.247 E0.02252
G1 X127.059 Y92.247 E0.01684
G1 X127.565 Y92.753 E0.02252
G1 X127.030 Y92.753 E0.01684
G1 X126.523 Y92.247 E0.02252
G1 X125.988 Y92.247 E0.01684
G1 X126.494 Y92.753 E0.02252
G1 X125.959 Y92.753 E0.01684
G1 X125.453 Y92.247 E0.02252
G1 X124.918 Y92.247 E0.01684
G1 X125.424 Y92.753 E0.02252
G1 X124.889 Y92.753 E0.01684
G1 X124.383 Y92.247 E0.02252
G1 X123.847 Y92.247 E0.01684
G1 X124.353 Y92.753 E0.02252
G1 X123.818 Y92.753 E0.01684
G1 X123.312 Y92.247 E0.02252
G1 X122.777 Y92.247 E0.01684
G1 X123.283 Y92.753 E0.02252
G1 X122.748 Y92.753 E0.01684
G1 X122.242 Y92.247 E0.02252
G1 X121.707 Y92.247 E0.01684
G1 X122.213 Y92.753 E0.02252
G1 X121.677 Y92.753 E0.01684
G1 X121.171 Y92.247 E0.02252
G1 X120.636 Y92.247 E0.01684
G1 X121.142 Y92.753 E0.02252
G1 X120.607 Y92.753 E0.01684
G1 X120.101 Y92.247 E0.02252
G1 X119.566 Y92.247 E0.01684
G1 X120.072 Y92.753 E0.02252
G1 X119.537 Y92.753 E0.01684
G1 X119.030 Y92.247 E0.02252
G1 X118.495 Y92.247 E0.01684
G1 X119.001 Y92.753 E0.02252
G1 X118.466 Y92.753 E0.01684
G1 X117.960 Y92.247 E0.02252
G1 X117.425 Y92.247 E0.01684
G1 X117.931 Y92.753 E0.02252
G1 X117.396 Y92.753 E0.01684
G1 X116.890 Y92.247 E0.02252
G1 X116.354 Y92.247 E0.01684
G1 X116.860 Y92.753 E0.02252
G1 X116.325 Y92.753 E0.01684
G1 X115.819 Y92.247 E0.02252
G1 X115.284 Y92.247 E0.01684
G1 X115.790 Y92.753 E0.02252
G1 X115.255 Y92.753 E0.01684
G1 X114.749 Y92.247 E0.02252
G1 X114.214 Y92.247 E0.01684
G1 X114.753 Y92.786 E0.02401
G1 X114.753 Y93.322 E0.01684
G1 X113.678 Y92.247 E0.04783
G1 X113.143 Y92.247 E0.01684
G1 X114.753 Y93.857 E0.07165
G1 X114.753 Y94.392 E0.01684
G1 X112.692 Y92.331 E0.09172
G1 X112.629 Y92.357 E0.00215
G1 X112.475 Y92.475 E0.00610
G1 X112.399 Y92.574 E0.00391
G1 X114.753 Y94.927 E0.10474
G1 X114.753 Y95.463 E0.01684
G1 X112.262 Y92.971 E0.11088
G1 X112.247 Y93.492 E0.01639
G1 X114.753 Y95.998 E0.11153
G1 X114.753 Y96.533 E0.01684
G1 X112.247 Y94.027 E0.11153
G1 X112.247 Y94.562 E0.01684
G1 X114.753 Y97.068 E0.11153
G1 X114.753 Y97.603 E0.01684
G1 X112.247 Y95.097 E0.11153
G1 X112.247 Y95.632 E0.01684
G1 X114.753 Y98.139 E0.11153
G1 X114.753 Y98.674 E0.01684
G1 X112.247 Y96.168 E0.11153
G1 X112.247 Y96.703 E0.01684
G1 X114.753 Y99.209 E0.11153
G1 X114.753 Y99.744 E0.01684
G1 X112.247 Y97.238 E0.11153
G1 X112.244 Y97.770 E0.01674
G1 X114.753 Y100.279 E0.11168
G1 X114.753 Y100.815 E0.01684
G1 X111.976 Y98.038 E0.12359
G1 X111.708 Y98.305 E0.01191
G1 X114.753 Y101.350 E0.13550
G1 X114.753 Y101.885 E0.01684
G1 X111.441 Y98.573 E0.14741
G1 X111.173 Y98.840 E0.01191
G1 X114.753 Y102.420 E0.15932
G1 X114.753 Y102.955 E0.01684
G1 X110.906 Y99.108 E0.17123
G1 X110.638 Y99.376 E0.01191
G1 X114.753 Y103.491 E0.18314
G1 X114.753 Y104.026 E0.01684
G1 X110.370 Y99.643 E0.19505
G1 X110.103 Y99.911 E0.01191
G1 X114.753 Y104.561 E0.20695
G1 X114.753 Y105.096 E0.01684
G1 X109.835 Y100.178 E0.21886
G1 X109.567 Y100.446 E0.01191
G1 X114.753 Y105.632 E0.23077
G1 X114.753 Y106.167 E0.01684
G1 X109.300 Y100.714 E0.24268
G1 X109.032 Y100.981 E0.01191
G1 X114.753 Y106.702 E0.25459
G1 X114.753 Y107.237 E0.01684
G1 X108.765 Y101.249 E0.26650
G1 X108.497 Y101.516 E0.01191
G1 X114.753 Y107.772 E0.27841
G1 X114.753 Y108.308 E0.01684
G1 X108.229 Y101.784 E0.29032
G1 X107.962 Y102.052 E0.01191
G1 X114.753 Y108.843 E0.30223
G1 X114.753 Y109.378 E0.01684
G1 X107.694 Y102.319 E0.31414
G1 X107.517 Y102.497 E0.00791
G1 X107.337 Y102.497 E0.00566
G1 X114.753 Y109.913 E0.33005
G1 X114.753 Y110.448 E0.01684
G1 X106.802 Y102.497 E0.35387
G1 X106.266 Y102.497 E0.01684
G1 X114.753 Y110.984 E0.37768
G1 X114.753 Y111.519 E0.01684
G1 X105.731 Y102.497 E0.40150
G1 X105.196 Y102.497 E0.01684
G1 X114.753 Y112.054 E0.42532
G1 X114.753 Y112.589 E0.01684
G1 X104.661 Y102.497 E0.44914
G1 X104.125 Y102.497 E0.01684
G1 X114.753 Y113.125 E0.47296
G1 X114.753 Y113.660 E0.01684
G1 X103.590 Y102.497 E0.49678
G1 X103.055 Y102.497 E0.01684
G1 X114.753 Y114.195 E0.52060
G1 X114.753 Y114.730 E0.01684
G1 X102.520 Y102.497 E0.54441
G1 X101.985 Y102.497 E0.01684
G1 X114.753 Y115.265 E0.56823
G1 X114.753 Y115.801 E0.01684
G1 X101.449 Y102.497 E0.59205
G1 X100.914 Y102.497 E0.01684
G1 X114.753 Y116.336 E0.61587
G1 X114.753 Y116.871 E0.01684
G1 X100.379 Y102.497 E0.63969
G1 X99.844 Y102.497 E0.01684
G1 X114.753 Y117.406 E0.66351
G1 X114.753 Y117.941 E0.01684
G1 X99.309 Y102.497 E0.68733
G1 X98.773 Y102.497 E0.01684
G1 X114.753 Y118.477 E0.71114
G1 X114.753 Y119.012 E0.01684
G1 X98.238 Y102.497 E0.73496
G1 X97.703 Y102.497 E0.01684
G1 X114.753 Y119.547 E0.75878
G1 X114.753 Y120.082 E0.01684
G1 X97.168 Y102.497 E0.78260
G1 X96.633 Y102.497 E0.01684
G1 X114.753 Y120.617 E0.80642
G1 X114.753 Y121.153 E0.01684
G1 X96.097 Y102.497 E0.83024
G1 X95.562 Y102.497 E0.01684
G1 X114.753 Y121.688 E0.85406
G1 X114.753 Y122.223 E0.01684
G1 X95.027 Y102.497 E0.87787
G1 X94.492 Y102.497 E0.01684
G1 X114.753 Y122.758 E0.90169
G1 X114.753 Y123.294 E0.01684
G1 X93.956 Y102.497 E0.92551
G1 X93.421 Y102.497 E0.01684
G1 X114.753 Y123.829 E0.94933
G1 X114.753 Y124.364 E0.01684
G1 X112.247 Y121.858 E0.11153
G1 X112.247 Y122.393 E0.01684
G1 X114.753 Y124.899 E0.11153
G1 X114.753 Y125.434 E0.01684
G1 X112.247 Y122.928 E0.11153
G1 X112.247 Y123.463 E0.01684
G1 X114.753 Y125.970 E0.11153
G1 X114.753 Y126.505 E0.01684
G1 X112.247 Y123.999 E0.11153
G1 X112.247 Y124.534 E0.01684
G1 X115.466 Y127.753 E0.14326
G1 X116.001 Y127.753 E0.01684
G1 X115.495 Y127.247 E0.02252
G1 X116.030 Y127.247 E0.01684
G1 X116.536 Y127.753 E0.02252
G1 X117.072 Y127.753 E0.01684
G1 X116.566 Y127.247 E0.02252
G1 X117.101 Y127.247 E0.01684
G1 X117.607 Y127.753 E0.02252
G1 X118.142 Y127.753 E0.01684
G1 X117.636 Y127.247 E0.02252
G1 X118.171 Y127.247 E0.01684
G1 X118.677 Y127.753 E0.02252
G1 X119.213 Y127.753 E0.01684
G1 X118.706 Y127.247 E0.02252
G1 X119.242 Y127.247 E0.01684
G1 X119.748 Y127.753 E0.02252
G1 X120.283 Y127.753 E0.01684
G1 X119.777 Y127.247 E0.02252
G1 X120.312 Y127.247 E0.01684
G1 X120.818 Y127.753 E0.02252
G1 X121.353 Y127.753 E0.01684
G1 X120.847 Y127.247 E0.02252
G1 X121.383 Y127.247 E0.01684
G1 X121.889 Y127.753 E0.02252
G1 X122.424 Y127.753 E0.01684
G1 X121.918 Y127.247 E0.02252
G1 X122.453 Y127.247 E0.01684
G1 X122.959 Y127.753 E0.02252
G1 X123.494 Y127.753 E0.01684
G1 X122.988 Y127.247 E0.02252
G1 X123.523 Y127.247 E0.01684
G1 X124.029 Y127.753 E0.02252
G1 X124.565 Y127.753 E0.01684
G1 X124.059 Y127.247 E0.02252
G1 X124.594 Y127.247 E0.01684
G1 X125.100 Y127.753 E0.02252
G1 X125.635 Y127.753 E0.01684
G1 X125.129 Y127.247 E0.02252
G1 X125.664 Y127.247 E0.01684
G1 X126.170 Y127.753 E0.02252
G1 X126.706 Y127.753 E0.01684
G1 X126.199 Y127.247 E0.02252
G1 X126.735 Y127.247 E0.01684
G1 X127.241 Y127.753 E0.02252
G1 X127.776 Y127.753 E0.01684
G1 X127.270 Y127.247 E0.02252
G1 X127.805 Y127.247 E0.01684
G1 X128.311 Y127.753 E0.02252
G1 X128.846 Y127.753 E0.01684
G1 X128.340 Y127.247 E0.02252
G1 X128.875 Y127.247 E0.01684
G1 X129.382 Y127.753 E0.02252
G1 X129.917 Y127.753 E0.01684
G1 X129.411 Y127.247 E0.02252
G1 X129.946 Y127.247 E0.01684
G1 X130.452 Y127.753 E0.02252
G1 X130.987 Y127.753 E0.01684
G1 X130.481 Y127.247 E0.02252
G1 X131.016 Y127.247 E0.01684
G1 X131.522 Y127.753 E0.02252
G1 X132.058 Y127.753 E0.01684
G1 X131.552 Y127.247 E0.02252
G1 X132.087 Y127.247 E0.01684
G1 X132.593 Y127.753 E0.02252
G1 X133.128 Y127.753 E0.01684
G1 X132.622 Y127.247 E0.02252
G1 X133.157 Y127.247 E0.01684
G1 X133.663 Y127.753 E0.02252
G1 X134.198 Y127.753 E0.01684
G1 X133.692 Y127.247 E0.02252
G1 X134.228 Y127.247 E0.01684
G1 X134.734 Y127.753 E0.02252
G1 X135.269 Y127.753 E0.01684
G1 X134.763 Y127.247 E0.02252
G1 X135.298 Y127.247 E0.01684
G1 X135.682 Y127.631 E0.01710
G1 E-3.50000 F3600.00000
G1 F7200.000
G1 X135.298 Y127.247 E-0.25814
G1 X134.763 Y127.247 E-0.25423
G1 X135.269 Y127.753 E-0.33996
G1 X134.734 Y127.753 E-0.25423
G1 X134.260 Y127.279 E-0.31845
G1 E-0.07500 F3600.00000
G1 X115.101 Y127.923 F9000.000
G1 E5.00000 F2400.00000
G1 F1200.000
G1 X112.247 Y125.069 E0.12699
G1 X112.247 Y125.604 E0.01684
G1 X114.396 Y127.753 E0.09562
G1 X113.860 Y127.753 E0.01684
G1 X112.247 Y126.140 E0.07180
G1 X112.247 Y126.675 E0.01684
G1 X113.325 Y127.753 E0.04799
G1 X113.082 Y127.753 E0.00766
G1 X112.808 Y127.717 E0.00869
G1 X112.716 Y127.679 E0.00314
G1 X112.094 Y127.057 E0.02767
G1 E-3.50000 F3600.00000
G1 F7200.000
G1 X112.716 Y127.679 E-0.41766
G1 X112.808 Y127.717 E-0.04738
G1 X113.082 Y127.753 E-0.13113
G1 X113.325 Y127.753 E-0.11569
G1 X112.264 Y126.691 E-0.71314
G1 E-0.07500 F3600.00000
G1 X107.062 Y116.673 F9000.000
G1 E5.00000 F2400.00000
G1 F1200.000
G1 X92.886 Y102.497 E0.63087
G1 X92.351 Y102.497 E0.01684
G1 X106.357 Y116.503 E0.62331
G1 X105.822 Y116.503 E0.01684
G1 X91.816 Y102.497 E0.62331
G1 X91.280 Y102.497 E0.01684
G1 X105.286 Y116.503 E0.62331
G1 X104.751 Y116.503 E0.01684
G1 X90.745 Y102.497 E0.62331
G1 X90.210 Y102.497 E0.01684
G1 X104.216 Y116.503 E0.62331
G1 X103.681 Y116.503 E0.01684
G1 X89.675 Y102.497 E0.62331
G1 X89.140 Y102.497 E0.01684
G1 X103.146 Y116.503 E0.62331
G1 X102.610 Y116.503 E0.01684
G1 X88.604 Y102.497 E0.62331
G1 X88.069 Y102.497 E0.01684
G1 X102.075 Y116.503 E0.62331
G1 X101.540 Y116.503 E0.01684
G1 X87.534 Y102.497 E0.62331
G1 X86.999 Y102.497 E0.01684
G1 X101.005 Y116.503 E0.62331
