; generated by PrusaSlicer 2.2.0+win64 on 2022-04-16 at 15:16:00 UTC

; 

; external perimeters extrusion width = 0.45mm
; perimeters extrusion width = 0.45mm
; infill extrusion width = 0.45mm
; solid infill extrusion width = 0.45mm
; top infill extrusion width = 0.40mm
; first layer extrusion width = 0.42mm

M201 X500 Y500 Z100 E5000 ; sets maximum accelerations, mm/sec^2
M203 X500 Y500 Z10 E60 ; sets maximum feedrates, mm/sec
M204 P500 R1000 T500 ; sets acceleration (P, T) and retract acceleration (R), mm/sec^2
M205 X8.00 Y8.00 Z0.40 E5.00 ; sets the jerk limits, mm/sec
M205 S0 T0 ; sets the minimum extruding and travel feed rate, mm/sec
M107
G90 ; use absolute coordinates
M83 ; extruder relative mode
M104 S215 ; set extruder temp
M140 S40 ; set bed temp
M190 S40 ; wait for bed temp
M109 S215 ; wait for extruder temp
G28 ; home all
G1 Z2 F240
G1 X2 Y10 F3000
G1 Z0.28 F240
G92 E0.0
G1 Y190 E15.0 F1500.0 ; intro line
G1 X2.3 F5000
G1 Y10 E30 F1200.0 ; intro line
G92 E0.0
G21 ; set units to millimeters
G90 ; use absolute coordinates
M83 ; use relative distances for extrusion
; Filament gcode
;BEFORE_LAYER_CHANGE
;0.2


G1 E-5.00000 F3600.00000
G1 Z0.200 F9000.000
;AFTER_LAYER_CHANGE
;0.2
G1 X33.357 Y42.689
G1 E5.00000 F2400.00000
G1 F1200.000
G1 X34.188 Y42.535 E0.02649
G1 X185.807 Y42.535 E4.75390
G1 X186.709 Y42.715 E0.02884
G1 X187.475 Y43.223 E0.02884
G1 X187.992 Y43.985 E0.02884
G1 X188.180 Y44.885 E0.02884
G1 X188.180 Y175.103 E4.08289
G1 X188.124 Y175.601 E0.01574
G1 X187.964 Y176.077 E0.01574
G1 X187.708 Y176.509 E0.01574
G1 X187.368 Y176.877 E0.01574
G1 X186.643 Y177.311 E0.02649
G1 X185.812 Y177.465 E0.02649
G1 X34.193 Y177.465 E4.75390
G1 X33.690 Y177.410 E0.01585
G1 X33.211 Y177.250 E0.01585
G1 X32.775 Y176.993 E0.01585
G1 X32.407 Y176.652 E0.01574
G1 X31.973 Y175.927 E0.02649
G1 X31.820 Y175.096 E0.02649
G1 X31.820 Y44.909 E4.08194
G1 X31.874 Y44.406 E0.01585
G1 X32.034 Y43.926 E0.01585
G1 X32.292 Y43.491 E0.01585
G1 X32.632 Y43.123 E0.01574
G1 X33.306 Y42.719 E0.02461
G1 E-3.50000 F3600.00000
G1 F7200.000
G1 X34.188 Y42.535 E-0.42814
G1 X36.287 Y42.535 E-0.99686
G1 E-0.07500 F3600.00000
G1 X35.161 Y45.877 F9000.000
G1 E5.00000 F2400.00000
G1 F1200.000
G1 X184.839 Y45.877 E4.69305
G1 X184.839 Y174.123 E4.02108
G1 X35.161 Y174.123 E4.69305
G1 X35.161 Y45.937 E4.01920
G1 X34.784 Y45.500 F9000.000
G1 F1200.000
G1 X185.216 Y45.500 E4.71669
G1 X185.216 Y174.500 E4.04473
G1 X34.784 Y174.500 E4.71669
G1 X34.784 Y45.560 E4.04285
G1 X34.407 Y45.122 F9000.000
G1 F1200.000
G1 X185.593 Y45.122 E4.74034
G1 X185.593 Y174.877 E4.06838
G1 X34.407 Y174.877 E4.74034
G1 X34.407 Y45.182 E4.06650
G1 X34.796 Y45.216 F9000.000
G1 E-3.50000 F3600.00000
G1 F7200.000
G1 X37.407 Y45.181 E-1.42500
G1 E-0.07500 F3600.00000
G1 X184.726 Y46.753 F9000.000
G1 E5.00000 F2400.00000
G1 F1200.000
G1 X184.133 Y46.159 E0.02633
G1 X183.599 Y46.159 E0.01675
G1 X184.556 Y47.117 E0.04249
G1 X184.556 Y47.651 E0.01675
G1 X183.065 Y46.159 E0.06618
G1 X182.531 Y46.159 E0.01675
G1 X184.556 Y48.184 E0.08986
G1 X184.556 Y48.718 E0.01675
G1 X181.998 Y46.159 E0.11355
G1 X181.464 Y46.159 E0.01675
G1 X184.556 Y49.252 E0.13724
G1 X184.556 Y49.786 E0.01675
G1 X180.930 Y46.159 E0.16093
G1 X180.396 Y46.159 E0.01675
G1 X184.556 Y50.319 E0.18462
G1 X184.556 Y50.853 E0.01675
G1 X179.863 Y46.159 E0.20830
G1 X179.329 Y46.159 E0.01675
G1 X184.556 Y51.387 E0.23199
G1 X184.556 Y51.921 E0.01675
G1 X178.795 Y46.159 E0.25568
G1 X178.261 Y46.159 E0.01675
G1 X184.556 Y52.454 E0.27937
G1 X184.556 Y52.988 E0.01675
G1 X177.728 Y46.159 E0.30306
G1 X177.194 Y46.159 E0.01675
G1 X184.556 Y53.522 E0.32675
G1 X184.556 Y54.055 E0.01675
G1 X176.660 Y46.159 E0.35043
G1 X176.126 Y46.159 E0.01675
G1 X184.556 Y54.589 E0.37412
G1 X184.556 Y55.123 E0.01675
G1 X175.593 Y46.159 E0.39781
G1 X175.059 Y46.159 E0.01675
G1 X184.556 Y55.657 E0.42150
G1 X184.556 Y56.190 E0.01675
G1 X174.525 Y46.159 E0.44519
G1 X173.991 Y46.159 E0.01675
G1 X184.556 Y56.724 E0.46887
G1 X184.556 Y57.258 E0.01675
G1 X173.458 Y46.159 E0.49256
G1 X172.924 Y46.159 E0.01675
G1 X184.556 Y57.792 E0.51625
G1 X184.556 Y58.325 E0.01675
G1 X172.390 Y46.159 E0.53994
G1 X171.856 Y46.159 E0.01675
G1 X184.556 Y58.859 E0.56363
G1 X184.556 Y59.393 E0.01675
G1 X171.323 Y46.159 E0.58731
G1 X170.789 Y46.159 E0.01675
G1 X184.556 Y59.927 E0.61100
G1 X184.556 Y60.460 E0.01675
G1 X170.255 Y46.159 E0.63469
G1 X169.721 Y46.159 E0.01675
G1 X184.556 Y60.994 E0.65838
G1 X184.556 Y61.528 E0.01675
G1 X169.188 Y46.159 E0.68207
G1 X168.654 Y46.159 E0.01675
G1 X184.556 Y62.062 E0.70575
G1 X184.556 Y62.595 E0.01675
G1 X168.120 Y46.159 E0.72944
G1 X167.586 Y46.159 E0.01675
G1 X184.556 Y63.129 E0.75313
G1 X184.556 Y63.663 E0.01675
G1 X167.053 Y46.159 E0.77682
G1 X166.519 Y46.159 E0.01675
G1 X184.556 Y64.197 E0.80051
G1 X184.556 Y64.730 E0.01675
G1 X165.985 Y46.159 E0.82420
G1 X165.452 Y46.159 E0.01675
G1 X184.556 Y65.264 E0.84788
G1 X184.556 Y65.798 E0.01675
G1 X164.918 Y46.159 E0.87157
G1 X164.384 Y46.159 E0.01675
G1 X184.556 Y66.332 E0.89526
G1 X184.556 Y66.865 E0.01675
G1 X163.850 Y46.159 E0.91895
G1 X163.317 Y46.159 E0.01675
G1 X184.556 Y67.399 E0.94264
G1 X184.556 Y67.933 E0.01675
G1 X162.783 Y46.159 E0.96632
G1 X162.249 Y46.159 E0.01675
G1 X184.556 Y68.467 E0.99001
G1 X184.556 Y69.000 E0.01675
G1 X161.715 Y46.159 E1.01370
G1 X161.182 Y46.159 E0.01675
G1 X184.556 Y69.534 E1.03739
G1 X184.556 Y70.068 E0.01675
G1 X160.648 Y46.159 E1.06108
G1 X160.114 Y46.159 E0.01675
G1 X184.556 Y70.602 E1.08476
G1 X184.556 Y71.135 E0.01675
G1 X159.580 Y46.159 E1.10845
G1 X159.047 Y46.159 E0.01675
G1 X184.556 Y71.669 E1.13214
G1 X184.556 Y72.203 E0.01675
G1 X158.513 Y46.159 E1.15583
G1 X157.979 Y46.159 E0.01675
G1 X184.556 Y72.737 E1.17952
G1 X184.556 Y73.270 E0.01675
G1 X157.445 Y46.159 E1.20320
G1 X156.912 Y46.159 E0.01675
G1 X184.556 Y73.804 E1.22689
G1 X184.556 Y74.338 E0.01675
G1 X156.378 Y46.159 E1.25058
G1 X155.844 Y46.159 E0.01675
G1 X184.556 Y74.871 E1.27427
G1 X184.556 Y75.405 E0.01675
G1 X155.310 Y46.159 E1.29796
G1 X154.777 Y46.159 E0.01675
G1 X184.556 Y75.939 E1.32165
G1 X184.556 Y76.473 E0.01675
G1 X154.243 Y46.159 E1.34533
G1 X153.709 Y46.159 E0.01675
G1 X184.556 Y77.006 E1.36902
G1 X184.556 Y77.540 E0.01675
G1 X153.175 Y46.159 E1.39271
G1 X152.642 Y46.159 E0.01675
G1 X184.556 Y78.074 E1.41640
G1 X184.556 Y78.608 E0.01675
G1 X152.108 Y46.159 E1.44009
G1 X151.574 Y46.159 E0.01675
G1 X184.556 Y79.141 E1.46377
G1 X184.556 Y79.675 E0.01675
G1 X151.040 Y46.159 E1.48746
G1 X150.507 Y46.159 E0.01675
G1 X184.556 Y80.209 E1.51115
G1 X184.556 Y80.743 E0.01675
G1 X149.973 Y46.159 E1.53484
G1 X149.439 Y46.159 E0.01675
G1 X184.556 Y81.276 E1.55853
G1 X184.556 Y81.810 E0.01675
G1 X148.905 Y46.159 E1.58221
G1 X148.372 Y46.159 E0.01675
G1 X184.556 Y82.344 E1.60590
G1 X184.556 Y82.878 E0.01675
G1 X147.838 Y46.159 E1.62959
G1 X147.304 Y46.159 E0.01675
G1 X184.556 Y83.411 E1.65328
G1 X184.556 Y83.945 E0.01675
G1 X146.770 Y46.159 E1.67697
G1 X146.237 Y46.159 E0.01675
G1 X184.556 Y84.479 E1.70065
G1 X184.556 Y85.013 E0.01675
G1 X145.703 Y46.159 E1.72434
G1 X145.169 Y46.159 E0.01675
G1 X184.556 Y85.546 E1.74803
G1 X184.556 Y86.080 E0.01675
G1 X144.635 Y46.159 E1.77172
G1 X144.102 Y46.159 E0.01675
G1 X184.556 Y86.614 E1.79541
G1 X184.556 Y87.148 E0.01675
G1 X143.568 Y46.159 E1.81909
G1 X143.034 Y46.159 E0.01675
G1 X184.556 Y87.681 E1.84278
G1 X184.556 Y88.215 E0.01675
G1 X142.501 Y46.159 E1.86647
G1 X141.967 Y46.159 E0.01675
G1 X184.556 Y88.749 E1.89016
G1 X184.556 Y89.283 E0.01675
G1 X141.433 Y46.159 E1.91385
G1 X140.899 Y46.159 E0.01675
G1 X184.556 Y89.816 E1.93754
G1 X184.556 Y90.350 E0.01675
G1 X140.366 Y46.159 E1.96122
G1 X139.832 Y46.159 E0.01675
G1 X184.556 Y90.884 E1.98491
G1 X184.556 Y91.418 E0.01675
G1 X139.298 Y46.159 E2.00860
G1 X138.764 Y46.159 E0.01675
G1 X184.556 Y91.951 E2.03229
G1 X184.556 Y92.485 E0.01675
G1 X138.231 Y46.159 E2.05598
G1 X137.697 Y46.159 E0.01675
G1 X184.556 Y93.019 E2.07966
G1 X184.556 Y93.553 E0.01675
G1 X137.163 Y46.159 E2.10335
G1 X136.629 Y46.159 E0.01675
G1 X184.556 Y94.086 E2.12704
G1 X184.556 Y94.620 E0.01675
G1 X136.096 Y46.159 E2.15073
G1 X135.562 Y46.159 E0.01675
G1 X184.556 Y95.154 E2.17442
G1 X184.556 Y95.688 E0.01675
G1 X135.028 Y46.159 E2.19810
G1 X134.494 Y46.159 E0.01675
G1 X184.556 Y96.221 E2.22179
G1 X184.556 Y96.755 E0.01675
G1 X133.961 Y46.159 E2.24548
G1 X133.427 Y46.159 E0.01675
G1 X184.556 Y97.289 E2.26917
G1 X184.556 Y97.822 E0.01675
G1 X132.893 Y46.159 E2.29286
G1 X132.359 Y46.159 E0.01675
G1 X184.556 Y98.356 E2.31654
G1 X184.556 Y98.890 E0.01675
G1 X131.826 Y46.159 E2.34023
G1 X131.292 Y46.159 E0.01675
G1 X184.556 Y99.424 E2.36392
G1 X184.556 Y99.957 E0.01675
G1 X130.758 Y46.159 E2.38761
G1 X130.224 Y46.159 E0.01675
G1 X184.556 Y100.491 E2.41130
G1 X184.556 Y101.025 E0.01675
G1 X129.691 Y46.159 E2.43499
G1 X129.157 Y46.159 E0.01675
G1 X184.556 Y101.559 E2.45867
G1 X184.556 Y102.092 E0.01675
G1 X128.623 Y46.159 E2.48236
G1 X128.089 Y46.159 E0.01675
G1 X184.556 Y102.626 E2.50605
G1 X184.556 Y103.160 E0.01675
G1 X127.556 Y46.159 E2.52974
G1 X127.022 Y46.159 E0.01675
G1 X184.556 Y103.694 E2.55343
G1 X184.556 Y104.227 E0.01675
G1 X126.488 Y46.159 E2.57711
G1 X125.954 Y46.159 E0.01675
G1 X184.556 Y104.761 E2.60080
G1 X184.556 Y105.295 E0.01675
G1 X125.421 Y46.159 E2.62449
G1 X124.887 Y46.159 E0.01675
G1 X184.556 Y105.829 E2.64818
G1 X184.556 Y106.362 E0.01675
G1 X124.353 Y46.159 E2.67187
G1 X123.819 Y46.159 E0.01675
G1 X184.556 Y106.896 E2.69555
G1 X184.556 Y107.430 E0.01675
G1 X123.286 Y46.159 E2.71924
G1 X122.752 Y46.159 E0.01675
G1 X184.556 Y107.964 E2.74293
G1 X184.556 Y108.497 E0.01675
G1 X122.218 Y46.159 E2.76662
G1 X121.685 Y46.159 E0.01675
G1 X184.556 Y109.031 E2.79031
G1 X184.556 Y109.565 E0.01675
G1 X121.151 Y46.159 E2.81399
G1 X120.617 Y46.159 E0.01675
G1 X184.556 Y110.099 E2.83768
G1 X184.556 Y110.632 E0.01675
G1 X120.083 Y46.159 E2.86137
G1 X119.550 Y46.159 E0.01675
G1 X184.556 Y111.166 E2.88506
G1 X184.556 Y111.700 E0.01675
G1 X119.016 Y46.159 E2.90875
G1 X118.482 Y46.159 E0.01675
G1 X184.556 Y112.234 E2.93244
G1 X184.556 Y112.767 E0.01675
G1 X117.948 Y46.159 E2.95612
G1 X117.415 Y46.159 E0.01675
G1 X184.556 Y113.301 E2.97981
G1 X184.556 Y113.835 E0.01675
G1 X116.881 Y46.159 E3.00350
G1 X116.347 Y46.159 E0.01675
G1 X184.556 Y114.369 E3.02719
G1 X184.556 Y114.902 E0.01675
G1 X115.813 Y46.159 E3.05088
G1 X115.280 Y46.159 E0.01675
G1 X184.556 Y115.436 E3.07456
G1 X184.556 Y115.970 E0.01675
G1 X114.746 Y46.159 E3.09825
G1 X114.212 Y46.159 E0.01675
G1 X184.556 Y116.504 E3.12194
G1 X184.556 Y117.037 E0.01675
G1 X113.678 Y46.159 E3.14563
G1 X113.145 Y46.159 E0.01675
G1 X184.556 Y117.571 E3.16932
G1 X184.556 Y118.105 E0.01675
G1 X112.611 Y46.159 E3.19300
G1 X112.077 Y46.159 E0.01675
G1 X184.556 Y118.639 E3.21669
G1 X184.556 Y119.172 E0.01675
G1 X111.543 Y46.159 E3.24038
G1 X111.010 Y46.159 E0.01675
G1 X184.556 Y119.706 E3.26407
G1 X184.556 Y120.240 E0.01675
G1 X110.476 Y46.159 E3.28776
G1 X109.942 Y46.159 E0.01675
G1 X184.556 Y120.773 E3.31144
G1 X184.556 Y121.307 E0.01675
G1 X109.408 Y46.159 E3.33513
G1 X108.875 Y46.159 E0.01675
G1 X184.556 Y121.841 E3.35882
G1 X184.556 Y122.375 E0.01675
G1 X108.341 Y46.159 E3.38251
G1 X107.807 Y46.159 E0.01675
G1 X184.556 Y122.908 E3.40620
G1 X184.556 Y123.442 E0.01675
G1 X107.273 Y46.159 E3.42989
G1 X106.740 Y46.159 E0.01675
G1 X184.556 Y123.976 E3.45357
G1 X184.556 Y124.510 E0.01675
G1 X106.206 Y46.159 E3.47726
G1 X105.672 Y46.159 E0.01675
G1 X184.556 Y125.043 E3.50095
G1 X184.556 Y125.577 E0.01675
G1 X105.138 Y46.159 E3.52464
G1 X104.605 Y46.159 E0.01675
G1 X184.556 Y126.111 E3.54833
G1 X184.556 Y126.645 E0.01675
G1 X104.071 Y46.159 E3.57201
G1 X103.537 Y46.159 E0.01675
G1 X184.556 Y127.178 E3.59570
G1 X184.556 Y127.712 E0.01675
G1 X103.003 Y46.159 E3.61939
G1 X102.470 Y46.159 E0.01675
G1 X184.556 Y128.246 E3.64308
G1 X184.556 Y128.780 E0.01675
G1 X101.936 Y46.159 E3.66677
G1 X101.402 Y46.159 E0.01675
G1 X184.556 Y129.313 E3.69045
G1 X184.556 Y129.847 E0.01675
G1 X100.868 Y46.159 E3.71414
G1 X100.335 Y46.159 E0.01675
G1 X184.556 Y130.381 E3.73783
G1 X184.556 Y130.915 E0.01675
G1 X99.801 Y46.159 E3.76152
G1 X99.267 Y46.159 E0.01675
G1 X184.556 Y131.448 E3.78521
G1 X184.556 Y131.982 E0.01675
G1 X98.734 Y46.159 E3.80889
G1 X98.200 Y46.159 E0.01675
G1 X184.556 Y132.516 E3.83258
G1 X184.556 Y133.050 E0.01675
G1 X97.666 Y46.159 E3.85627
G1 X97.132 Y46.159 E0.01675
G1 X184.556 Y133.583 E3.87996
G1 X184.556 Y134.117 E0.01675
G1 X96.599 Y46.159 E3.90365
G1 X96.065 Y46.159 E0.01675
G1 X184.556 Y134.651 E3.92733
G1 X184.556 Y135.185 E0.01675
G1 X95.531 Y46.159 E3.95102
G1 X94.997 Y46.159 E0.01675
G1 X184.556 Y135.718 E3.97471
G1 X184.556 Y136.252 E0.01675
G1 X94.464 Y46.159 E3.99840
G1 X93.930 Y46.159 E0.01675
G1 X184.556 Y136.786 E4.02209
G1 X184.556 Y137.320 E0.01675
G1 X93.396 Y46.159 E4.04578
G1 X92.862 Y46.159 E0.01675
G1 X184.556 Y137.853 E4.06946
G1 X184.556 Y138.387 E0.01675
G1 X92.329 Y46.159 E4.09315
G1 X91.795 Y46.159 E0.01675
G1 X184.556 Y138.921 E4.11684
G1 X184.556 Y139.455 E0.01675
G1 X91.261 Y46.159 E4.14053
G1 X90.727 Y46.159 E0.01675
G1 X184.556 Y139.988 E4.16422
G1 X184.556 Y140.522 E0.01675
G1 X90.194 Y46.159 E4.18790
G1 X89.660 Y46.159 E0.01675
G1 X184.556 Y141.056 E4.21159
G1 X184.556 Y141.589 E0.01675
G1 X89.126 Y46.159 E4.23528
G1 X88.592 Y46.159 E0.01675
G1 X184.556 Y142.123 E4.25897
G1 X184.556 Y142.657 E0.01675
G1 X88.059 Y46.159 E4.28266
G1 X87.525 Y46.159 E0.01675
G1 X184.556 Y143.191 E4.30634
G1 X184.556 Y143.724 E0.01675
G1 X86.991 Y46.159 E4.33003
G1 X86.457 Y46.159 E0.01675
G1 X184.556 Y144.258 E4.35372
G1 X184.556 Y144.792 E0.01675
G1 X85.924 Y46.159 E4.37741
G1 X85.390 Y46.159 E0.01675
G1 X184.556 Y145.326 E4.40110
G1 X184.556 Y145.859 E0.01675
G1 X84.856 Y46.159 E4.42478
G1 X84.322 Y46.159 E0.01675
G1 X184.556 Y146.393 E4.44847
G1 X184.556 Y146.927 E0.01675
G1 X83.789 Y46.159 E4.47216
G1 X83.255 Y46.159 E0.01675
G1 X184.556 Y147.461 E4.49585
G1 X184.556 Y147.994 E0.01675
G1 X82.721 Y46.159 E4.51954
G1 X82.187 Y46.159 E0.01675
G1 X184.556 Y148.528 E4.54323
G1 X184.556 Y149.062 E0.01675
G1 X81.654 Y46.159 E4.56691
G1 X81.120 Y46.159 E0.01675
G1 X184.556 Y149.596 E4.59060
G1 X184.556 Y150.129 E0.01675
G1 X80.586 Y46.159 E4.61429
G1 X80.052 Y46.159 E0.01675
G1 X184.556 Y150.663 E4.63798
G1 X184.556 Y151.197 E0.01675
G1 X79.519 Y46.159 E4.66167
G1 X78.985 Y46.159 E0.01675
G1 X184.556 Y151.731 E4.68535
G1 X184.556 Y152.264 E0.01675
G1 X78.451 Y46.159 E4.70904
G1 X77.917 Y46.159 E0.01675
G1 X184.556 Y152.798 E4.73273
G1 X184.556 Y153.332 E0.01675
G1 X77.384 Y46.159 E4.75642
G1 X76.850 Y46.159 E0.01675
G1 X184.556 Y153.866 E4.78011
G1 X184.556 Y154.399 E0.01675
G1 X76.316 Y46.159 E4.80379
G1 X75.783 Y46.159 E0.01675
G1 X184.556 Y154.933 E4.82748
G1 X184.556 Y155.467 E0.01675
G1 X75.249 Y46.159 E4.85117
G1 X74.715 Y46.159 E0.01675
G1 X184.556 Y156.001 E4.87486
G1 X184.556 Y156.534 E0.01675
G1 X74.181 Y46.159 E4.89855
G1 X73.648 Y46.159 E0.01675
G1 X184.556 Y157.068 E4.92223
G1 X184.556 Y157.602 E0.01675
G1 X73.114 Y46.159 E4.94592
G1 X72.580 Y46.159 E0.01675
G1 X184.556 Y158.136 E4.96961
G1 X184.556 Y158.669 E0.01675
G1 X72.046 Y46.159 E4.99330
G1 X71.513 Y46.159 E0.01675
G1 X184.556 Y159.203 E5.01699
G1 X184.556 Y159.737 E0.01675
G1 X70.979 Y46.159 E5.04068
G1 X70.445 Y46.159 E0.01675
G1 X184.556 Y160.271 E5.06436
G1 X184.556 Y160.804 E0.01675
G1 X69.911 Y46.159 E5.08805
G1 X69.378 Y46.159 E0.01675
G1 X184.556 Y161.338 E5.11174
G1 X184.556 Y161.872 E0.01675
G1 X68.844 Y46.159 E5.13543
G1 X68.310 Y46.159 E0.01675
G1 X184.556 Y162.406 E5.15912
G1 X184.556 Y162.939 E0.01675
G1 X67.776 Y46.159 E5.18280
G1 X67.243 Y46.159 E0.01675
G1 X184.556 Y163.473 E5.20649
G1 X184.556 Y164.007 E0.01675
G1 X66.709 Y46.159 E5.23018
G1 X66.175 Y46.159 E0.01675
G1 X184.556 Y164.540 E5.25387
G1 X184.556 Y165.074 E0.01675
G1 X65.641 Y46.159 E5.27756
G1 X65.108 Y46.159 E0.01675
G1 X184.556 Y165.608 E5.30124
G1 X184.556 Y166.142 E0.01675
G1 X64.574 Y46.159 E5.32493
G1 X64.040 Y46.159 E0.01675
G1 X184.556 Y166.675 E5.34862
G1 X184.556 Y167.209 E0.01675
