; generated by PrusaSlicer 2.2.0+win64 on 2022-03-30 at 00:58:59 UTC

; 

; external perimeters extrusion width = 0.45mm
; perimeters extrusion width = 0.45mm
; infill extrusion width = 0.45mm
; solid infill extrusion width = 0.45mm
; top infill extrusion width = 0.40mm
; first layer extrusion width = 0.42mm

M201 X500 Y500 Z100 E5000 ; sets maximum accelerations, mm/sec^2
M203 X500 Y500 Z10 E60 ; sets maximum feedrates, mm/sec
M204 P500 R1000 T500 ; sets acceleration (P, T) and retract acceleration (R), mm/sec^2
M205 X8.00 Y8.00 Z0.40 E5.00 ; sets the jerk limits, mm/sec
M205 S0 T0 ; sets the minimum extruding and travel feed rate, mm/sec
M107
G90 ; use absolute coordinates
M83 ; extruder relative mode
M104 S215 ; set extruder temp
M140 S40 ; set bed temp
M190 S40 ; wait for bed temp
M109 S215 ; wait for extruder temp
G28 ; home all
G1 Z2 F240
G1 X2 Y10 F3000
G1 Z0.28 F240
G92 E0.0
G1 Y190 E15.0 F1500.0 ; intro line
G1 X2.3 F5000
G1 Y10 E30 F1200.0 ; intro line
G92 E0.0
G21 ; set units to millimeters
G90 ; use absolute coordinates
M83 ; use relative distances for extrusion
; Filament gcode
;BEFORE_LAYER_CHANGE
;0.2


G1 E-5.00000 F3600.00000
G1 Z0.200 F9000.000
;AFTER_LAYER_CHANGE
;0.2
G1 X94.011 Y94.345
G1 E5.00000 F2400.00000
G1 F1200.000
G1 X95.640 Y92.838 E0.06958
G1 X97.439 Y91.481 E0.07065
G1 X99.365 Y90.312 E0.07064
G1 X101.398 Y89.342 E0.07064
G1 X103.520 Y88.582 E0.07065
G1 X105.706 Y88.039 E0.07065
G1 X107.937 Y87.718 E0.07064
G1 X110.160 Y87.624 E0.06978
G1 X112.436 Y87.756 E0.07149
G1 X114.592 Y88.100 E0.06844
G1 X116.165 Y88.489 E0.05082
G1 X118.298 Y89.219 E0.07068
G1 X120.316 Y90.143 E0.06958
G1 X122.261 Y91.281 E0.07065
G1 X124.081 Y92.609 E0.07065
G1 X125.758 Y94.113 E0.07065
G1 X127.276 Y95.778 E0.07064
G1 X128.619 Y97.587 E0.07065
G1 X129.773 Y99.523 E0.07065
G1 X130.707 Y101.518 E0.06909
G1 X131.469 Y103.691 E0.07220
G1 X131.980 Y105.809 E0.06831
G1 X132.227 Y107.415 E0.05092
G1 X132.374 Y109.686 E0.07137
G1 X132.298 Y111.879 E0.06880
G1 X131.996 Y114.112 E0.07067
G1 X131.472 Y116.301 E0.07055
G1 X130.728 Y118.432 E0.07079
G1 X129.776 Y120.471 E0.07055
G1 X128.622 Y122.408 E0.07067
G1 X127.280 Y124.218 E0.07067
G1 X125.786 Y125.860 E0.06960
G1 X124.087 Y127.387 E0.07162
G1 X122.291 Y128.699 E0.06972
G1 X120.348 Y129.840 E0.07067
G1 X118.883 Y130.538 E0.05087
G1 X116.850 Y131.303 E0.06812
G1 X114.668 Y131.885 E0.07079
G1 X112.447 Y132.243 E0.07055
G1 X110.165 Y132.376 E0.07165
G1 X107.945 Y132.282 E0.06968
G1 X105.714 Y131.963 E0.07067
G1 X103.530 Y131.421 E0.07055
G1 X101.408 Y130.662 E0.07067
G1 X99.373 Y129.692 E0.07067
G1 X97.446 Y128.523 E0.07067
G1 X95.646 Y127.166 E0.07067
G1 X94.019 Y125.662 E0.06948
G1 X92.502 Y123.949 E0.07175
G1 X91.207 Y122.146 E0.06960
G1 X90.080 Y120.194 E0.07067
G1 X89.393 Y118.722 E0.05092
G1 X88.639 Y116.667 E0.06863
G1 X88.074 Y114.469 E0.07117
G1 X87.737 Y112.258 E0.07012
G1 X87.623 Y110.001 E0.07087
G1 X87.737 Y107.742 E0.07092
G1 X88.074 Y105.531 E0.07012
G1 X88.639 Y103.333 E0.07117
G1 X89.394 Y101.276 E0.06867
G1 X90.075 Y99.816 E0.05052
G1 X91.201 Y97.863 E0.07068
G1 X92.496 Y96.059 E0.06966
G1 X93.971 Y94.390 E0.06983
G1 E-3.50000 F3600.00000
G1 F7200.000
G1 X95.640 Y92.838 E-1.08244
G1 X96.216 Y92.404 E-0.34256
G1 E-0.07500 F3600.00000
G1 X114.994 Y118.004 F9000.000
G1 E5.00000 F2400.00000
G1 F1200.000
G1 X115.354 Y117.702 E0.01476
G1 X115.662 Y117.558 E0.01064
G1 X116.114 Y117.477 E0.01440
G1 X116.628 Y117.563 E0.01636
G1 X117.040 Y117.800 E0.01490
G1 X117.281 Y118.042 E0.01069
G1 X117.516 Y118.449 E0.01476
G1 X117.606 Y118.955 E0.01611
G1 X117.516 Y119.461 E0.01610
G1 X117.260 Y119.906 E0.01611
G1 X116.899 Y120.208 E0.01476
G1 X116.590 Y120.352 E0.01069
G1 X116.169 Y120.427 E0.01340
G1 X115.831 Y120.397 E0.01064
G1 X115.399 Y120.241 E0.01440
G1 X114.996 Y119.910 E0.01636
G1 X114.737 Y119.461 E0.01625
G1 X114.647 Y118.955 E0.01610
G1 X114.737 Y118.449 E0.01611
G1 X114.964 Y118.056 E0.01422
G1 X115.287 Y118.250 F9000.000
G1 F1200.000
G1 X115.558 Y118.023 E0.01111
G1 X115.777 Y117.921 E0.00755
G1 X116.116 Y117.860 E0.01082
G1 X116.499 Y117.923 E0.01217
G1 X116.808 Y118.102 E0.01120
G1 X116.979 Y118.273 E0.00758
G1 X117.157 Y118.580 E0.01111
G1 X117.223 Y118.955 E0.01194
G1 X117.157 Y119.330 E0.01194
G1 X116.966 Y119.660 E0.01194
G1 X116.695 Y119.887 E0.01111
G1 X116.476 Y119.990 E0.00758
G1 X116.152 Y120.047 E0.01029
G1 X115.913 Y120.026 E0.00755
G1 X115.588 Y119.909 E0.01082
G1 X115.288 Y119.662 E0.01217
G1 X115.096 Y119.330 E0.01203
G1 X115.030 Y118.955 E0.01194
G1 X115.096 Y118.580 E0.01194
G1 X115.257 Y118.302 E0.01005
G1 X115.763 Y118.343 F9000.000
G1 F1200.000
G1 X115.891 Y118.283 E0.00446
G1 X116.119 Y118.242 E0.00724
G1 X116.370 Y118.284 E0.00798
G1 X116.577 Y118.404 E0.00750
G1 X116.678 Y118.505 E0.00447
G1 X116.797 Y118.711 E0.00747
G1 X116.840 Y118.955 E0.00777
G1 X116.797 Y119.199 E0.00777
G1 X116.673 Y119.413 E0.00777
G1 X116.490 Y119.567 E0.00747
G1 X116.361 Y119.627 E0.00447
G1 X116.136 Y119.667 E0.00718
G1 X115.994 Y119.654 E0.00445
G1 X115.777 Y119.576 E0.00724
G1 X115.581 Y119.414 E0.00798
G1 X115.456 Y119.199 E0.00780
G1 X115.413 Y118.955 E0.00777
G1 X115.456 Y118.711 E0.00777
G1 X115.580 Y118.496 E0.00777
G1 X115.717 Y118.382 E0.00559
G1 X115.754 Y118.201 F9000.000
G1 E-3.50000 F3600.00000
G1 F7200.000
G1 X115.891 Y118.283 E-0.09531
G1 X116.119 Y118.242 E-0.10963
G1 X116.370 Y118.284 E-0.12083
G1 X116.577 Y118.404 E-0.11369
G1 X116.678 Y118.505 E-0.06766
G1 X116.797 Y118.711 E-0.11320
G1 X116.840 Y118.955 E-0.11766
G1 X116.797 Y119.199 E-0.11765
G1 X116.673 Y119.413 E-0.11766
G1 X116.490 Y119.567 E-0.11321
G1 X116.361 Y119.627 E-0.06767
G1 X116.136 Y119.667 E-0.10875
G1 X115.994 Y119.654 E-0.06749
G1 X115.807 Y119.587 E-0.09458
G1 E-0.07500 F3600.00000
G1 X117.565 Y116.632 F9000.000
G1 E5.00000 F2400.00000
G1 F1200.000
G1 X117.476 Y116.127 E0.01610
G1 X117.565 Y115.621 E0.01610
G1 X117.822 Y115.176 E0.01611
G1 X118.182 Y114.873 E0.01475
G1 X118.490 Y114.730 E0.01064
G1 X118.942 Y114.649 E0.01441
G1 X119.457 Y114.734 E0.01636
G1 X119.906 Y114.994 E0.01625
G1 X120.208 Y115.354 E0.01476
G1 X120.352 Y115.663 E0.01069
G1 X120.427 Y116.084 E0.01340
G1 X120.397 Y116.422 E0.01064
G1 X120.241 Y116.854 E0.01440
G1 X119.910 Y117.257 E0.01636
G1 X119.461 Y117.516 E0.01625
G1 X118.955 Y117.606 E0.01610
G1 X118.449 Y117.516 E0.01611
G1 X118.042 Y117.281 E0.01476
G1 X117.800 Y117.040 E0.01069
G1 X117.595 Y116.684 E0.01287
G1 X117.925 Y116.501 F9000.000
G1 F1200.000
G1 X117.859 Y116.127 E0.01194
G1 X117.925 Y115.752 E0.01194
G1 X118.115 Y115.422 E0.01194
G1 X118.387 Y115.194 E0.01111
G1 X118.605 Y115.092 E0.00755
G1 X118.945 Y115.031 E0.01082
G1 X119.327 Y115.095 E0.01217
G1 X119.660 Y115.287 E0.01203
G1 X119.887 Y115.558 E0.01111
G1 X119.990 Y115.777 E0.00758
G1 X120.047 Y116.101 E0.01029
G1 X120.026 Y116.341 E0.00755
G1 X119.909 Y116.665 E0.01082
G1 X119.662 Y116.965 E0.01217
G1 X119.330 Y117.157 E0.01203
G1 X118.955 Y117.223 E0.01194
G1 X118.580 Y117.157 E0.01194
G1 X118.273 Y116.979 E0.01111
G1 X118.102 Y116.808 E0.00758
G1 X117.955 Y116.553 E0.00923
G1 X118.404 Y116.577 F9000.000
G1 F1200.000
G1 X118.285 Y116.370 E0.00747
G1 X118.242 Y116.127 E0.00777
G1 X118.285 Y115.883 E0.00777
G1 X118.409 Y115.668 E0.00777
G1 X118.591 Y115.515 E0.00747
G1 X118.720 Y115.455 E0.00445
G1 X118.947 Y115.414 E0.00724
G1 X119.198 Y115.456 E0.00798
G1 X119.413 Y115.580 E0.00780
G1 X119.567 Y115.763 E0.00747
G1 X119.627 Y115.892 E0.00447
G1 X119.667 Y116.117 E0.00718
G1 X119.654 Y116.259 E0.00445
G1 X119.576 Y116.476 E0.00724
G1 X119.414 Y116.672 E0.00798
G1 X119.199 Y116.797 E0.00780
G1 X118.955 Y116.840 E0.00777
G1 X118.711 Y116.797 E0.00777
G1 X118.505 Y116.678 E0.00747
G1 X118.446 Y116.619 E0.00259
G1 X118.168 Y116.611 F9000.000
G1 E-3.50000 F3600.00000
G1 F7200.000
G1 X118.285 Y116.370 E-0.14093
G1 X118.242 Y116.127 E-0.11766
G1 X118.285 Y115.883 E-0.11766
G1 X118.409 Y115.668 E-0.11766
G1 X118.591 Y115.515 E-0.11320
G1 X118.720 Y115.455 E-0.06749
G1 X118.947 Y115.414 E-0.10964
G1 X119.198 Y115.456 E-0.12083
G1 X119.413 Y115.580 E-0.11815
G1 X119.567 Y115.763 E-0.11321
G1 X119.627 Y115.892 E-0.06767
G1 X119.667 Y116.117 E-0.10875
G1 X119.654 Y116.259 E-0.06749
G1 X119.622 Y116.347 E-0.04468
G1 E-0.07500 F3600.00000
G1 X118.955 Y105.353 F9000.000
G1 E5.00000 F2400.00000
G1 F1200.000
G1 X118.449 Y105.263 E0.01611
G1 X118.042 Y105.028 E0.01476
G1 X117.800 Y104.787 E0.01069
G1 X117.565 Y104.379 E0.01476
G1 X117.476 Y103.873 E0.01611
G1 X117.565 Y103.368 E0.01610
G1 X117.822 Y102.923 E0.01611
G1 X118.182 Y102.620 E0.01476
G1 X118.490 Y102.477 E0.01064
G1 X118.942 Y102.396 E0.01441
G1 X119.457 Y102.481 E0.01636
G1 X119.906 Y102.740 E0.01625
G1 X120.208 Y103.101 E0.01476
G1 X120.352 Y103.410 E0.01069
G1 X120.434 Y103.873 E0.01475
G1 X120.352 Y104.337 E0.01476
G1 X120.208 Y104.646 E0.01069
G1 X119.906 Y105.006 E0.01476
G1 X119.461 Y105.263 E0.01611
G1 X119.014 Y105.342 E0.01422
G1 X118.955 Y104.970 F9000.000
G1 F1200.000
G1 X118.580 Y104.904 E0.01194
G1 X118.273 Y104.726 E0.01111
G1 X118.102 Y104.555 E0.00758
G1 X117.925 Y104.248 E0.01111
G1 X117.859 Y103.873 E0.01194
G1 X117.925 Y103.499 E0.01194
G1 X118.115 Y103.169 E0.01194
G1 X118.387 Y102.941 E0.01111
G1 X118.605 Y102.839 E0.00755
G1 X118.945 Y102.778 E0.01082
G1 X119.327 Y102.842 E0.01217
G1 X119.660 Y103.034 E0.01203
G1 X119.887 Y103.305 E0.01111
G1 X119.990 Y103.524 E0.00758
G1 X120.051 Y103.873 E0.01111
G1 X119.990 Y104.223 E0.01111
G1 X119.887 Y104.442 E0.00758
G1 X119.660 Y104.713 E0.01111
G1 X119.330 Y104.904 E0.01194
G1 X119.014 Y104.959 E0.01005
G1 X118.955 Y104.587 F9000.000
G1 F1200.000
G1 X118.711 Y104.544 E0.00777
G1 X118.505 Y104.425 E0.00747
G1 X118.404 Y104.324 E0.00447
G1 X118.285 Y104.117 E0.00747
G1 X118.242 Y103.873 E0.00777
G1 X118.285 Y103.630 E0.00777
G1 X118.409 Y103.415 E0.00777
G1 X118.591 Y103.262 E0.00747
G1 X118.720 Y103.202 E0.00445
G1 X118.947 Y103.161 E0.00724
G1 X119.198 Y103.203 E0.00798
G1 X119.413 Y103.327 E0.00780
G1 X119.567 Y103.510 E0.00747
G1 X119.627 Y103.639 E0.00447
G1 X119.668 Y103.873 E0.00747
G1 X119.627 Y104.108 E0.00747
G1 X119.567 Y104.237 E0.00447
G1 X119.413 Y104.420 E0.00747
G1 X119.199 Y104.544 E0.00777
G1 X119.014 Y104.576 E0.00589
G1 X118.831 Y104.801 F9000.000
G1 E-3.50000 F3600.00000
G1 F7200.000
G1 X118.711 Y104.544 E-0.14477
G1 X118.505 Y104.425 E-0.11320
G1 X118.404 Y104.324 E-0.06766
G1 X118.285 Y104.117 E-0.11320
G1 X118.242 Y103.873 E-0.11766
G1 X118.285 Y103.630 E-0.11765
G1 X118.409 Y103.415 E-0.11766
G1 X118.591 Y103.262 E-0.11321
G1 X118.720 Y103.202 E-0.06748
G1 X118.947 Y103.161 E-0.10964
G1 X119.198 Y103.203 E-0.12084
G1 X119.413 Y103.327 E-0.11814
G1 X119.554 Y103.495 E-0.10387
G1 E-0.07500 F3600.00000
G1 X117.081 Y102.176 F9000.000
G1 E5.00000 F2400.00000
G1 F1200.000
G1 X116.632 Y102.435 E0.01625
G1 X116.169 Y102.517 E0.01475
G1 X115.831 Y102.487 E0.01064
G1 X115.399 Y102.331 E0.01440
G1 X114.996 Y102.000 E0.01636
G1 X114.737 Y101.551 E0.01625
G1 X114.647 Y101.045 E0.01611
G1 X114.737 Y100.539 E0.01611
G1 X114.994 Y100.094 E0.01611
G1 X115.354 Y99.792 E0.01476
G1 X115.662 Y99.648 E0.01064
G1 X116.114 Y99.567 E0.01440
G1 X116.628 Y99.653 E0.01636
G1 X117.040 Y99.890 E0.01490
G1 X117.281 Y100.132 E0.01069
G1 X117.516 Y100.539 E0.01476
G1 X117.598 Y101.003 E0.01476
G1 X117.568 Y101.341 E0.01064
G1 X117.413 Y101.773 E0.01440
G1 X117.119 Y102.129 E0.01448
G1 X116.834 Y101.883 F9000.000
G1 F1200.000
G1 X116.501 Y102.075 E0.01203
G1 X116.152 Y102.137 E0.01111
G1 X115.913 Y102.116 E0.00755
G1 X115.588 Y101.999 E0.01082
G1 X115.288 Y101.752 E0.01217
G1 X115.096 Y101.420 E0.01203
G1 X115.030 Y101.045 E0.01194
G1 X115.096 Y100.670 E0.01194
G1 X115.287 Y100.340 E0.01194
G1 X115.558 Y100.113 E0.01111
G1 X115.777 Y100.011 E0.00755
G1 X116.116 Y99.950 E0.01082
G1 X116.499 Y100.014 E0.01217
G1 X116.808 Y100.192 E0.01120
G1 X116.979 Y100.363 E0.00758
G1 X117.157 Y100.670 E0.01111
G1 X117.218 Y101.019 E0.01111
G1 X117.197 Y101.259 E0.00755
G1 X117.080 Y101.584 E0.01082
G1 X116.872 Y101.837 E0.01029
G1 X116.586 Y101.591 F9000.000
G1 F1200.000
G1 X116.370 Y101.715 E0.00780
G1 X116.136 Y101.757 E0.00747
G1 X115.994 Y101.744 E0.00446
G1 X115.777 Y101.666 E0.00724
G1 X115.581 Y101.504 E0.00798
G1 X115.456 Y101.289 E0.00780
G1 X115.413 Y101.045 E0.00777
G1 X115.456 Y100.801 E0.00777
G1 X115.580 Y100.587 E0.00777
G1 X115.763 Y100.433 E0.00747
G1 X115.891 Y100.373 E0.00446
G1 X116.119 Y100.332 E0.00724
G1 X116.370 Y100.374 E0.00798
G1 X116.577 Y100.494 E0.00750
G1 X116.678 Y100.595 E0.00447
G1 X116.797 Y100.801 E0.00747
G1 X116.838 Y101.036 E0.00747
G1 X116.826 Y101.177 E0.00445
G1 X116.748 Y101.395 E0.00724
G1 X116.624 Y101.545 E0.00610
G1 X116.629 Y101.836 F9000.000
G1 E-3.50000 F3600.00000
G1 F7200.000
G1 X116.370 Y101.715 E-0.14518
G1 X116.136 Y101.757 E-0.11320
G1 X115.994 Y101.744 E-0.06749
G1 X115.777 Y101.666 E-0.10963
G1 X115.581 Y101.504 E-0.12084
G1 X115.456 Y101.289 E-0.11814
G1 X115.413 Y101.045 E-0.11766
G1 X115.456 Y100.801 E-0.11766
G1 X115.580 Y100.587 E-0.11766
G1 X115.763 Y100.433 E-0.11321
G1 X115.891 Y100.373 E-0.06749
G1 X116.119 Y100.332 E-0.10963
G1 X116.341 Y100.370 E-0.10721
G1 E-0.07500 F3600.00000
G1 X105.263 Y100.539 F9000.000
G1 E5.00000 F2400.00000
G1 F1200.000
G1 X105.345 Y101.003 E0.01476
G1 X105.315 Y101.341 E0.01064
G1 X105.160 Y101.773 E0.01440
G1 X104.828 Y102.176 E0.01636
G1 X104.379 Y102.435 E0.01625
G1 X103.916 Y102.517 E0.01476
G1 X103.578 Y102.487 E0.01064
G1 X103.146 Y102.331 E0.01440
G1 X102.743 Y102.000 E0.01636
G1 X102.484 Y101.551 E0.01625
G1 X102.394 Y101.045 E0.01611
G1 X102.484 Y100.539 E0.01611
G1 X102.740 Y100.094 E0.01611
G1 X103.101 Y99.792 E0.01476
G1 X103.409 Y99.648 E0.01064
G1 X103.861 Y99.567 E0.01440
G1 X104.375 Y99.653 E0.01636
G1 X104.787 Y99.890 E0.01490
G1 X105.028 Y100.132 E0.01069
G1 X105.233 Y100.487 E0.01287
G1 X104.904 Y100.670 F9000.000
G1 F1200.000
G1 X104.965 Y101.019 E0.01111
G1 X104.944 Y101.259 E0.00755
G1 X104.827 Y101.584 E0.01082
G1 X104.581 Y101.883 E0.01217
G1 X104.248 Y102.075 E0.01203
G1 X103.899 Y102.137 E0.01111
G1 X103.659 Y102.116 E0.00755
G1 X103.335 Y101.999 E0.01082
G1 X103.035 Y101.752 E0.01217
G1 X102.843 Y101.420 E0.01203
G1 X102.777 Y101.045 E0.01194
G1 X102.843 Y100.670 E0.01194
G1 X103.034 Y100.340 E0.01194
G1 X103.305 Y100.113 E0.01111
G1 X103.523 Y100.011 E0.00755
G1 X103.863 Y99.950 E0.01082
G1 X104.246 Y100.014 E0.01217
G1 X104.555 Y100.192 E0.01120
G1 X104.726 Y100.363 E0.00758
G1 X104.874 Y100.618 E0.00923
G1 X104.425 Y100.595 F9000.000
G1 F1200.000
G1 X104.544 Y100.801 E0.00747
G1 X104.585 Y101.036 E0.00747
G1 X104.573 Y101.177 E0.00445
G1 X104.495 Y101.395 E0.00724
G1 X104.333 Y101.591 E0.00798
G1 X104.117 Y101.715 E0.00780
G1 X103.883 Y101.757 E0.00747
G1 X103.741 Y101.744 E0.00446
G1 X103.524 Y101.666 E0.00724
G1 X103.328 Y101.504 E0.00798
G1 X103.203 Y101.289 E0.00780
G1 X103.160 Y101.045 E0.00777
G1 X103.203 Y100.801 E0.00777
G1 X103.327 Y100.587 E0.00777
G1 X103.510 Y100.433 E0.00747
G1 X103.638 Y100.373 E0.00446
G1 X103.866 Y100.332 E0.00724
G1 X104.117 Y100.374 E0.00798
G1 X104.324 Y100.494 E0.00750
G1 X104.382 Y100.552 E0.00259
G1 X104.660 Y100.561 F9000.000
G1 E-3.50000 F3600.00000
G1 F7200.000
G1 X104.544 Y100.801 E-0.14093
G1 X104.585 Y101.036 E-0.11321
G1 X104.573 Y101.177 E-0.06749
G1 X104.495 Y101.395 E-0.10963
G1 X104.333 Y101.591 E-0.12084
G1 X104.117 Y101.715 E-0.11814
G1 X103.883 Y101.757 E-0.11320
G1 X103.741 Y101.744 E-0.06749
G1 X103.524 Y101.666 E-0.10963
G1 X103.328 Y101.504 E-0.12084
G1 X103.203 Y101.289 E-0.11814
G1 X103.160 Y101.045 E-0.11766
G1 X103.200 Y100.822 E-0.10780
G1 E-0.07500 F3600.00000
G1 X101.996 Y102.740 F9000.000
G1 E5.00000 F2400.00000
G1 F1200.000
G1 X102.298 Y103.101 E0.01475
G1 X102.442 Y103.410 E0.01069
G1 X102.524 Y103.873 E0.01475
G1 X102.435 Y104.379 E0.01611
G1 X102.200 Y104.787 E0.01476
G1 X101.958 Y105.028 E0.01069
G1 X101.551 Y105.263 E0.01476
G1 X101.045 Y105.353 E0.01611
G1 X100.539 Y105.263 E0.01610
G1 X100.094 Y105.006 E0.01611
G1 X99.792 Y104.646 E0.01476
G1 X99.648 Y104.337 E0.01069
