; generated by PrusaSlicer 2.2.0+win64 on 2022-04-26 at 01:24:58 UTC

; 

; external perimeters extrusion width = 0.45mm
; perimeters extrusion width = 0.45mm
; infill extrusion width = 0.45mm
; solid infill extrusion width = 0.45mm
; top infill extrusion width = 0.40mm
; first layer extrusion width = 0.42mm

M201 X500 Y500 Z100 E5000 ; sets maximum accelerations, mm/sec^2
M203 X500 Y500 Z10 E60 ; sets maximum feedrates, mm/sec
M204 P500 R1000 T500 ; sets acceleration (P, T) and retract acceleration (R), mm/sec^2
M205 X8.00 Y8.00 Z0.40 E5.00 ; sets the jerk limits, mm/sec
M205 S0 T0 ; sets the minimum extruding and travel feed rate, mm/sec
M107
G90 ; use absolute coordinates
M83 ; extruder relative mode
M104 S215 ; set extruder temp
M140 S40 ; set bed temp
M190 S40 ; wait for bed temp
M109 S215 ; wait for extruder temp
G28 ; home all
G1 Z2 F240
G1 X2 Y10 F3000
G1 Z0.28 F240
G92 E0.0
G1 Y190 E15.0 F1500.0 ; intro line
G1 X2.3 F5000
G1 Y10 E30 F1200.0 ; intro line
G92 E0.0
G21 ; set units to millimeters
G90 ; use absolute coordinates
M83 ; use relative distances for extrusion
; Filament gcode
;BEFORE_LAYER_CHANGE
;0.2


G1 E-5.00000 F3600.00000
G1 Z0.200 F9000.000
;AFTER_LAYER_CHANGE
;0.2
G1 X55.309 Y9.622
G1 E5.00000 F2400.00000
G1 F1200.000
G1 X55.540 Y9.055 E0.01917
G1 X55.911 Y8.564 E0.01929
G1 X56.398 Y8.182 E0.01941
G1 X56.967 Y7.939 E0.01941
G1 X57.576 Y7.851 E0.01929
G1 X172.343 Y7.494 E3.59844
G1 X173.245 Y7.673 E0.02884
G1 X174.012 Y8.181 E0.02884
G1 X174.526 Y8.939 E0.02872
G1 X174.716 Y9.839 E0.02884
G1 X175.334 Y208.088 E6.21597
G1 X175.255 Y208.698 E0.01929
G1 X175.024 Y209.264 E0.01917
G1 X174.651 Y209.758 E0.01941
G1 X174.163 Y210.139 E0.01941
G1 X173.594 Y210.381 E0.01941
G1 X172.981 Y210.468 E0.01941
G1 X58.225 Y210.826 E3.59809
G1 X57.619 Y210.747 E0.01917
G1 X57.053 Y210.516 E0.01917
G1 X56.556 Y210.141 E0.01953
G1 X56.176 Y209.652 E0.01941
G1 X55.934 Y209.082 E0.01941
G1 X55.849 Y208.465 E0.01953
G1 X55.231 Y10.232 E6.21549
G1 X55.302 Y9.681 E0.01741
G1 E-3.50000 F3600.00000
G1 F7200.000
G1 X55.540 Y9.055 E-0.31812
G1 X55.911 Y8.564 E-0.29228
G1 X56.398 Y8.182 E-0.29408
G1 X56.967 Y7.939 E-0.29407
G1 X57.439 Y7.871 E-0.22645
G1 E-0.07500 F3600.00000
G1 X169.051 Y203.699 F9000.000
G1 E5.00000 F2400.00000
G1 F1200.000
G1 X169.582 Y203.477 E0.01805
G1 X170.134 Y203.402 E0.01747
G1 X170.723 Y203.473 E0.01859
G1 X171.257 Y203.692 E0.01808
G1 X171.715 Y204.041 E0.01805
G1 X172.067 Y204.497 E0.01805
G1 X172.289 Y205.028 E0.01805
G1 X172.366 Y205.599 E0.01805
G1 X172.292 Y206.170 E0.01805
G1 X172.081 Y206.685 E0.01747
G1 X171.725 Y207.160 E0.01859
G1 X171.269 Y207.512 E0.01808
G1 X170.737 Y207.734 E0.01805
G1 X170.167 Y207.811 E0.01805
G1 X169.596 Y207.738 E0.01805
G1 X169.063 Y207.519 E0.01805
G1 X168.605 Y207.170 E0.01805
G1 X168.253 Y206.714 E0.01805
G1 X168.031 Y206.183 E0.01805
G1 X167.954 Y205.612 E0.01805
G1 X168.028 Y205.041 E0.01805
G1 X168.239 Y204.526 E0.01747
G1 X168.595 Y204.051 E0.01859
G1 X169.004 Y203.735 E0.01620
G1 X169.049 Y203.299 F9000.000
G1 E-3.50000 F3600.00000
G1 F7200.000
G1 X169.582 Y203.477 E-0.30113
G1 X170.134 Y203.402 E-0.26461
G1 X170.723 Y203.473 E-0.28169
G1 X171.257 Y203.692 E-0.27394
G1 X171.715 Y204.041 E-0.27351
G1 X171.753 Y204.091 E-0.03012
G1 E-0.07500 F3600.00000
G1 X172.366 Y206.933 F9000.000
G1 E5.00000 F2400.00000
G1 F1200.000
G1 X172.368 Y207.506 E0.01797
G1 X171.892 Y207.507 E0.01493
G1 X171.996 Y207.427 E0.00414
G1 X172.330 Y206.981 E0.01747
G1 E-3.50000 F3600.00000
G1 F7200.000
G1 X172.368 Y207.506 E-0.25008
G1 X171.892 Y207.507 E-0.22620
G1 X171.996 Y207.427 E-0.06274
G1 X172.330 Y206.981 E-0.26461
G1 E-0.69637 F3600.00000
G1 X63.091 Y205.982 F9000.000
G1 E5.00000 F2400.00000
G1 F1200.000
G1 X63.018 Y206.553 E0.01805
G1 X62.806 Y207.069 E0.01747
G1 X62.451 Y207.543 E0.01859
G1 X61.994 Y207.896 E0.01808
G1 X61.463 Y208.118 E0.01805
G1 X60.893 Y208.195 E0.01805
G1 X60.321 Y208.121 E0.01805
G1 X59.789 Y207.903 E0.01805
G1 X59.331 Y207.554 E0.01805
G1 X58.979 Y207.098 E0.01805
G1 X58.757 Y206.566 E0.01805
G1 X58.680 Y205.996 E0.01805
G1 X58.753 Y205.425 E0.01805
G1 X58.972 Y204.892 E0.01805
G1 X59.321 Y204.434 E0.01805
G1 X59.777 Y204.082 E0.01805
G1 X60.308 Y203.860 E0.01805
G1 X60.860 Y203.786 E0.01747
G1 X61.449 Y203.856 E0.01859
G1 X61.983 Y204.075 E0.01808
G1 X62.440 Y204.424 E0.01805
G1 X62.792 Y204.880 E0.01805
G1 X63.014 Y205.411 E0.01805
G1 X63.083 Y205.923 E0.01617
G1 X63.438 Y206.181 F9000.000
G1 E-3.50000 F3600.00000
G1 F7200.000
G1 X63.018 Y206.553 E-0.30112
G1 X62.806 Y207.069 E-0.26461
G1 X62.451 Y207.543 E-0.28170
G1 X61.994 Y207.896 E-0.27394
G1 X61.463 Y208.118 E-0.27351
G1 X61.400 Y208.126 E-0.03012
G1 E-0.07500 F3600.00000
G1 X59.110 Y207.859 F9000.000
G1 E5.00000 F2400.00000
G1 F1200.000
G1 X58.811 Y207.860 E0.00937
G1 X58.810 Y207.496 E0.01142
G1 X59.062 Y207.822 E0.01295
G1 E-3.50000 F3600.00000
G1 F7200.000
G1 X58.811 Y207.860 E-0.12066
G1 X58.810 Y207.496 E-0.17304
G1 X59.062 Y207.822 E-0.19612
G1 E-1.01017 F3600.00000
G1 X58.200 Y11.724 F9000.000
G1 E5.00000 F2400.00000
G1 F1200.000
G1 X58.197 Y10.813 E0.02854
G1 X59.077 Y10.811 E0.02759
G1 X58.618 Y11.165 E0.01818
G1 X58.231 Y11.673 E0.02002
G1 X58.538 Y11.891 F9000.000
G1 F1200.000
G1 X58.888 Y11.433 E0.01805
G1 X59.343 Y11.081 E0.01805
G1 X59.875 Y10.859 E0.01805
G1 X60.427 Y10.785 E0.01747
G1 X61.015 Y10.855 E0.01859
G1 X61.549 Y11.074 E0.01808
G1 X62.007 Y11.423 E0.01805
G1 X62.359 Y11.879 E0.01805
G1 X62.581 Y12.410 E0.01805
G1 X62.658 Y12.981 E0.01805
G1 X62.584 Y13.552 E0.01805
G1 X62.373 Y14.068 E0.01747
G1 X62.017 Y14.542 E0.01859
G1 X61.561 Y14.895 E0.01808
G1 X61.030 Y15.117 E0.01805
G1 X60.459 Y15.194 E0.01805
G1 X59.888 Y15.120 E0.01805
G1 X59.355 Y14.902 E0.01805
G1 X58.897 Y14.552 E0.01805
G1 X58.545 Y14.097 E0.01805
G1 X58.323 Y13.565 E0.01805
G1 X58.246 Y12.995 E0.01805
G1 X58.320 Y12.424 E0.01805
G1 X58.516 Y11.947 E0.01617
G1 X58.337 Y11.545 F9000.000
G1 E-3.50000 F3600.00000
G1 F7200.000
G1 X58.888 Y11.433 E-0.30113
G1 X59.343 Y11.081 E-0.27351
G1 X59.875 Y10.859 E-0.27350
G1 X60.427 Y10.785 E-0.26461
G1 X61.015 Y10.855 E-0.28169
G1 X61.075 Y10.880 E-0.03056
G1 E-0.07500 F3600.00000
G1 X99.784 Y68.261 F9000.000
G1 E5.00000 F2400.00000
G1 F1200.000
G1 X101.987 Y66.980 E0.07993
G1 X104.325 Y65.963 E0.07993
G1 X106.765 Y65.224 E0.07993
G1 X109.274 Y64.774 E0.07993
G1 X111.733 Y64.623 E0.07725
G1 X114.362 Y64.758 E0.08253
G1 X116.875 Y65.193 E0.07999
G1 X119.320 Y65.916 E0.07993
G1 X121.663 Y66.919 E0.07993
G1 X123.875 Y68.186 E0.07993
G1 X125.925 Y69.702 E0.07993
G1 X127.784 Y71.446 E0.07993
G1 X129.429 Y73.393 E0.07993
G1 X130.836 Y75.519 E0.07993
G1 X131.949 Y77.717 E0.07725
G1 X132.866 Y80.184 E0.08253
G1 X133.462 Y82.665 E0.07999
G1 X133.766 Y85.196 E0.07993
G1 X133.774 Y87.745 E0.07993
G1 X133.486 Y90.278 E0.07993
G1 X132.906 Y92.760 E0.07993
G1 X132.041 Y95.158 E0.07993
G1 X130.905 Y97.440 E0.07993
G1 X129.510 Y99.574 E0.07993
G1 X127.878 Y101.532 E0.07993
G1 X126.029 Y103.287 E0.07993
G1 X123.989 Y104.815 E0.07993
G1 X121.786 Y106.097 E0.07993
G1 X119.448 Y107.114 E0.07993
G1 X117.008 Y107.852 E0.07993
G1 X114.499 Y108.303 E0.07993
G1 X111.955 Y108.459 E0.07993
G1 X109.410 Y108.319 E0.07993
G1 X106.898 Y107.884 E0.07993
G1 X104.453 Y107.160 E0.07993
G1 X102.110 Y106.158 E0.07993
G1 X99.898 Y104.890 E0.07993
G1 X97.848 Y103.375 E0.07993
G1 X95.989 Y101.631 E0.07993
G1 X94.344 Y99.683 E0.07993
G1 X92.937 Y97.558 E0.07993
G1 X91.824 Y95.360 E0.07725
G1 X90.907 Y92.893 E0.08253
G1 X90.311 Y90.412 E0.07999
G1 X90.007 Y87.881 E0.07993
G1 X89.999 Y85.332 E0.07993
G1 X90.287 Y82.799 E0.07993
G1 X90.867 Y80.317 E0.07993
G1 X91.703 Y77.999 E0.07725
G1 X92.867 Y75.639 E0.08253
G1 X94.263 Y73.503 E0.07999
G1 X95.895 Y71.545 E0.07993
G1 X97.744 Y69.790 E0.07993
G1 X99.736 Y68.297 E0.07805
G1 X99.962 Y68.599 F9000.000
G1 F1200.000
G1 X102.158 Y67.317 E0.07973
G1 X104.455 Y66.318 E0.07855
G1 X106.853 Y65.592 E0.07855
G1 X109.319 Y65.149 E0.07855
G1 X111.735 Y65.001 E0.07590
G1 X114.320 Y65.133 E0.08115
G1 X116.789 Y65.561 E0.07859
G1 X119.192 Y66.272 E0.07855
G1 X121.495 Y67.257 E0.07855
G1 X123.668 Y68.503 E0.07855
G1 X125.683 Y69.992 E0.07855
G1 X127.510 Y71.706 E0.07855
G1 X129.127 Y73.620 E0.07855
G1 X130.510 Y75.709 E0.07855
G1 X131.603 Y77.869 E0.07590
G1 X132.505 Y80.294 E0.08115
G1 X133.091 Y82.731 E0.07859
G1 X133.389 Y85.219 E0.07855
G1 X133.397 Y87.724 E0.07855
G1 X133.114 Y90.213 E0.07855
G1 X132.544 Y92.653 E0.07855
G1 X131.694 Y95.009 E0.07855
G1 X130.577 Y97.252 E0.07855
G1 X129.207 Y99.349 E0.07855
G1 X127.602 Y101.273 E0.07855
G1 X125.785 Y102.998 E0.07855
G1 X123.781 Y104.500 E0.07855
G1 X121.615 Y105.760 E0.07855
G1 X119.318 Y106.759 E0.07855
G1 X116.920 Y107.485 E0.07855
G1 X114.454 Y107.928 E0.07855
G1 X111.954 Y108.081 E0.07855
G1 X109.452 Y107.943 E0.07855
G1 X106.984 Y107.516 E0.07855
G1 X104.581 Y106.805 E0.07855
G1 X102.278 Y105.820 E0.07855
G1 X100.105 Y104.574 E0.07855
G1 X98.090 Y103.084 E0.07855
G1 X96.263 Y101.371 E0.07855
G1 X94.646 Y99.457 E0.07855
G1 X93.263 Y97.368 E0.07855
G1 X92.170 Y95.208 E0.07590
G1 X91.268 Y92.782 E0.08115
G1 X90.682 Y90.345 E0.07859
G1 X90.384 Y87.858 E0.07855
G1 X90.376 Y85.353 E0.07855
G1 X90.659 Y82.864 E0.07855
G1 X91.229 Y80.424 E0.07855
G1 X92.050 Y78.147 E0.07590
G1 X93.196 Y75.826 E0.08115
G1 X94.566 Y73.728 E0.07859
G1 X96.171 Y71.804 E0.07855
G1 X97.988 Y70.079 E0.07855
G1 X99.914 Y68.635 E0.07548
G1 X100.140 Y68.937 F9000.000
G1 F1200.000
G1 X102.329 Y67.654 E0.07954
G1 X104.586 Y66.672 E0.07717
G1 X106.941 Y65.959 E0.07717
G1 X109.364 Y65.524 E0.07717
G1 X111.737 Y65.378 E0.07454
G1 X114.278 Y65.509 E0.07977
G1 X116.703 Y65.928 E0.07719
G1 X119.063 Y66.627 E0.07717
G1 X121.326 Y67.595 E0.07717
G1 X123.462 Y68.819 E0.07717
G1 X125.441 Y70.282 E0.07717
G1 X127.236 Y71.966 E0.07717
G1 X128.824 Y73.846 E0.07717
G1 X130.183 Y75.899 E0.07717
G1 X131.257 Y78.020 E0.07454
G1 X132.144 Y80.405 E0.07977
G1 X132.719 Y82.798 E0.07719
G1 X133.012 Y85.242 E0.07717
G1 X133.020 Y87.703 E0.07717
G1 X132.742 Y90.149 E0.07717
G1 X132.182 Y92.545 E0.07717
G1 X131.347 Y94.861 E0.07717
G1 X130.249 Y97.064 E0.07717
G1 X128.903 Y99.124 E0.07717
G1 X127.327 Y101.015 E0.07717
G1 X125.542 Y102.709 E0.07717
G1 X123.572 Y104.185 E0.07717
G1 X121.444 Y105.423 E0.07717
G1 X119.187 Y106.405 E0.07717
G1 X116.832 Y107.118 E0.07717
G1 X114.409 Y107.553 E0.07717
G1 X111.952 Y107.704 E0.07717
G1 X109.495 Y107.568 E0.07717
G1 X107.070 Y107.148 E0.07717
G1 X104.710 Y106.450 E0.07717
G1 X102.446 Y105.482 E0.07717
G1 X100.311 Y104.258 E0.07717
G1 X98.332 Y102.794 E0.07717
G1 X96.537 Y101.111 E0.07717
G1 X94.949 Y99.230 E0.07717
G1 X93.590 Y97.178 E0.07717
G1 X92.516 Y95.057 E0.07454
G1 X91.629 Y92.672 E0.07977
G1 X91.054 Y90.279 E0.07719
G1 X90.761 Y87.835 E0.07717
G1 X90.753 Y85.374 E0.07717
G1 X91.031 Y82.928 E0.07717
G1 X91.591 Y80.531 E0.07717
G1 X92.398 Y78.295 E0.07454
G1 X93.524 Y76.013 E0.07977
G1 X94.870 Y73.952 E0.07719
G1 X96.446 Y72.062 E0.07717
G1 X98.231 Y70.367 E0.07717
G1 X100.092 Y68.973 E0.07291
G1 X100.114 Y68.538 F9000.000
G1 E-3.50000 F3600.00000
G1 F7200.000
G1 X102.329 Y67.654 E-1.23335
G1 X102.699 Y67.493 E-0.19165
G1 E-0.07500 F3600.00000
G1 X75.013 Y153.455 F9000.000
G1 E5.00000 F2400.00000
G1 F1200.000
G1 X75.069 Y171.258 E0.55821
G1 X70.275 Y171.273 E0.15029
G1 X70.220 Y153.470 E0.55821
G1 X74.953 Y153.455 E0.14841
G1 X74.637 Y153.833 F9000.000
G1 F1200.000
G1 X74.690 Y170.882 E0.53456
G1 X70.651 Y170.895 E0.12664
G1 X70.598 Y153.846 E0.53456
G1 X74.577 Y153.833 E0.12476
G1 X74.261 Y154.211 F9000.000
G1 F1200.000
G1 X74.312 Y170.506 E0.51092
G1 X71.027 Y170.516 E0.10300
G1 X70.976 Y154.221 E0.51092
G1 X74.201 Y154.211 E0.10111
G1 X74.620 Y154.034 F9000.000
G1 E-3.50000 F3600.00000
G1 F7200.000
G1 X74.222 Y157.211 E-1.42500
G1 E-0.07500 F3600.00000
G1 X59.175 Y203.594 F9000.000
G1 E5.00000 F2400.00000
G1 F1200.000
G1 X58.588 Y15.265 E5.90497
G1 X58.977 Y15.562 E0.01535
G1 X59.693 Y15.856 E0.02428
G1 X60.461 Y15.954 E0.02428
G1 X61.229 Y15.851 E0.02428
G1 X61.943 Y15.552 E0.02428
G1 X62.559 Y15.076 E0.02441
G1 X63.034 Y14.443 E0.02482
G1 X63.320 Y13.747 E0.02359
G1 X63.418 Y12.979 E0.02428
G1 X63.315 Y12.211 E0.02428
G1 X63.016 Y11.497 E0.02428
G1 X62.769 Y11.176 E0.01270
G1 X167.289 Y10.851 E3.27718
G1 X167.070 Y11.138 E0.01133
G1 X166.776 Y11.854 E0.02428
G1 X166.678 Y12.622 E0.02428
G1 X166.781 Y13.390 E0.02428
G1 X167.080 Y14.104 E0.02428
G1 X167.555 Y14.720 E0.02441
G1 X168.189 Y15.195 E0.02482
G1 X168.885 Y15.481 E0.02359
G1 X169.653 Y15.579 E0.02428
G1 X170.421 Y15.476 E0.02428
G1 X171.135 Y15.177 E0.02428
G1 X171.391 Y14.980 E0.01013
G1 X171.978 Y203.293 E5.90446
G1 X171.635 Y203.032 E0.01351
G1 X170.915 Y202.736 E0.02441
G1 X170.129 Y202.642 E0.02482
G1 X169.383 Y202.743 E0.02359
G1 X168.669 Y203.041 E0.02428
G1 X168.053 Y203.517 E0.02441
G1 X167.578 Y204.151 E0.02482
G1 X167.292 Y204.847 E0.02359
G1 X167.194 Y205.615 E0.02428
G1 X167.297 Y206.382 E0.02428
G1 X167.596 Y207.097 E0.02428
G1 X167.632 Y207.144 E0.00187
G1 X63.449 Y207.468 E3.26659
G1 X63.753 Y206.748 E0.02452
G1 X63.852 Y205.980 E0.02428
G1 X63.749 Y205.212 E0.02428
G1 X63.450 Y204.498 E0.02428
G1 X62.977 Y203.885 E0.02428
G1 X62.361 Y203.415 E0.02428
G1 X61.641 Y203.120 E0.02441
G1 X60.855 Y203.026 E0.02482
G1 X60.109 Y203.126 E0.02359
G1 X59.394 Y203.425 E0.02428
G1 X59.222 Y203.558 E0.00683
G1 X58.800 Y204.495 F9000.000
G1 F1200.000
G1 X58.207 Y14.266 E5.96453
G1 X58.629 Y14.822 E0.02188
G1 X59.166 Y15.232 E0.02117
G1 X59.791 Y15.488 E0.02117
G1 X60.460 Y15.574 E0.02117
G1 X61.129 Y15.484 E0.02117
G1 X61.752 Y15.223 E0.02117
G1 X62.288 Y14.809 E0.02125
G1 X62.703 Y14.255 E0.02171
G1 X62.952 Y13.649 E0.02053
G1 X63.038 Y12.980 E0.02117
G1 X62.948 Y12.311 E0.02117
G1 X62.688 Y11.688 E0.02117
G1 X62.275 Y11.154 E0.02117
G1 X61.814 Y10.802 E0.01818
G1 X168.223 Y10.471 E3.33641
G1 X167.810 Y10.790 E0.01639
G1 X167.400 Y11.327 E0.02117
G1 X167.144 Y11.951 E0.02117
G1 X167.058 Y12.621 E0.02117
G1 X167.148 Y13.290 E0.02117
G1 X167.408 Y13.913 E0.02117
G1 X167.823 Y14.449 E0.02125
G1 X168.377 Y14.864 E0.02171
G1 X168.982 Y15.113 E0.02053
G1 X169.652 Y15.199 E0.02117
G1 X170.321 Y15.109 E0.02117
G1 X170.944 Y14.849 E0.02117
G1 X171.478 Y14.436 E0.02117
G1 X171.765 Y14.060 E0.01483
G1 X172.358 Y204.257 E5.96352
G1 X171.983 Y203.771 E0.01924
G1 X171.446 Y203.362 E0.02117
G1 X170.819 Y203.104 E0.02125
G1 X170.132 Y203.022 E0.02171
G1 X169.483 Y203.110 E0.02053
G1 X168.860 Y203.370 E0.02117
G1 X168.324 Y203.784 E0.02125
G1 X167.909 Y204.338 E0.02171
G1 X167.660 Y204.944 E0.02053
G1 X167.574 Y205.613 E0.02117
G1 X167.664 Y206.283 E0.02117
G1 X167.924 Y206.905 E0.02117
G1 X168.337 Y207.440 E0.02117
G1 X168.440 Y207.518 E0.00406
G1 X62.673 Y207.848 E3.31626
G1 X62.722 Y207.810 E0.00193
G1 X63.137 Y207.256 E0.02171
G1 X63.386 Y206.651 E0.02053
G1 X63.472 Y205.981 E0.02117
G1 X63.381 Y205.312 E0.02117
G1 X63.121 Y204.689 E0.02117
G1 X62.709 Y204.155 E0.02117
G1 X62.172 Y203.745 E0.02117
G1 X61.545 Y203.488 E0.02125
G1 X60.857 Y203.406 E0.02171
G1 X60.209 Y203.493 E0.02053
G1 X59.586 Y203.753 E0.02117
G1 X59.051 Y204.166 E0.02117
G1 X58.837 Y204.448 E0.01110
G1 E-3.50000 F3600.00000
G1 F7200.000
G1 X58.827 Y201.448 E-1.42500
G1 E-0.07500 F3600.00000
G1 X168.564 Y14.534 F9000.000
G1 E5.00000 F2400.00000
G1 F1200.000
G1 X168.090 Y14.178 E0.01859
G1 X167.737 Y13.722 E0.01808
G1 X167.515 Y13.191 E0.01805
G1 X167.438 Y12.620 E0.01805
G1 X167.512 Y12.049 E0.01805
G1 X167.730 Y11.516 E0.01805
G1 X168.079 Y11.058 E0.01805
G1 X168.535 Y10.706 E0.01805
G1 X169.066 Y10.484 E0.01805
G1 X169.618 Y10.410 E0.01747
G1 X170.207 Y10.480 E0.01859
G1 X170.741 Y10.699 E0.01808
G1 X171.199 Y11.048 E0.01805
G1 X171.551 Y11.504 E0.01805
G1 X171.773 Y12.035 E0.01805
G1 X171.850 Y12.606 E0.01805
G1 X171.776 Y13.177 E0.01805
G1 X171.558 Y13.710 E0.01805
G1 X171.208 Y14.168 E0.01805
G1 X170.753 Y14.520 E0.01805
G1 X170.221 Y14.742 E0.01805
G1 X169.651 Y14.819 E0.01805
G1 X169.080 Y14.745 E0.01805
G1 X168.620 Y14.557 E0.01559
G1 X168.220 Y14.737 F9000.000
