; generated by PrusaSlicer 2.2.0+win64 on 2022-04-27 at 01:34:02 UTC

; 

; external perimeters extrusion width = 0.45mm
; perimeters extrusion width = 0.45mm
; infill extrusion width = 0.45mm
; solid infill extrusion width = 0.45mm
; top infill extrusion width = 0.40mm
; first layer extrusion width = 0.42mm

M201 X500 Y500 Z100 E5000 ; sets maximum accelerations, mm/sec^2
M203 X500 Y500 Z10 E60 ; sets maximum feedrates, mm/sec
M204 P500 R1000 T500 ; sets acceleration (P, T) and retract acceleration (R), mm/sec^2
M205 X8.00 Y8.00 Z0.40 E5.00 ; sets the jerk limits, mm/sec
M205 S0 T0 ; sets the minimum extruding and travel feed rate, mm/sec
M107
G90 ; use absolute coordinates
M83 ; extruder relative mode
M104 S215 ; set extruder temp
M140 S40 ; set bed temp
M190 S40 ; wait for bed temp
M109 S215 ; wait for extruder temp
G28 ; home all
G1 Z2 F240
G1 X2 Y10 F3000
G1 Z0.28 F240
G92 E0.0
G1 Y190 E15.0 F1500.0 ; intro line
G1 X2.3 F5000
G1 Y10 E30 F1200.0 ; intro line
G92 E0.0
G21 ; set units to millimeters
G90 ; use absolute coordinates
M83 ; use relative distances for extrusion
; Filament gcode
;BEFORE_LAYER_CHANGE
;0.2


G1 E-5.00000 F3600.00000
G1 Z0.200 F9000.000
;AFTER_LAYER_CHANGE
;0.2
G1 X50.690 Y8.319
G1 E5.00000 F2400.00000
G1 F1200.000
G1 X51.208 Y7.558 E0.02884
G1 X51.979 Y7.050 E0.02896
G1 X52.883 Y6.874 E0.02887
G1 X167.637 Y7.151 E3.59805
G1 X168.250 Y7.239 E0.01941
G1 X168.823 Y7.484 E0.01953
G1 X169.312 Y7.870 E0.01953
G1 X169.682 Y8.366 E0.01941
G1 X169.909 Y8.930 E0.01906
G1 X169.986 Y9.529 E0.01894
G1 X169.500 Y210.766 E6.30967
G1 X169.414 Y211.383 E0.01953
G1 X169.170 Y211.956 E0.01953
G1 X168.784 Y212.450 E0.01965
G1 X168.285 Y212.823 E0.01953
G1 X167.721 Y213.050 E0.01906
G1 X167.122 Y213.126 E0.01894
G1 X52.367 Y212.849 E3.59809
G1 X51.750 Y212.761 E0.01953
G1 X51.177 Y212.516 E0.01953
G1 X50.688 Y212.130 E0.01953
G1 X50.318 Y211.634 E0.01941
G1 X50.091 Y211.070 E0.01906
G1 X50.014 Y210.471 E0.01894
G1 X50.500 Y9.222 E6.31003
G1 X50.678 Y8.378 E0.02707
G1 E-3.50000 F3600.00000
G1 F7200.000
G1 X51.208 Y7.558 E-0.46337
G1 X51.979 Y7.050 E-0.43866
G1 X52.883 Y6.874 E-0.43739
G1 X53.063 Y6.874 E-0.08559
G1 E-0.07500 F3600.00000
G1 X163.242 Y206.335 F9000.000
G1 E5.00000 F2400.00000
G1 F1200.000
G1 X163.774 Y206.116 E0.01805
G1 X164.327 Y206.044 E0.01747
G1 X164.915 Y206.118 E0.01859
G1 X165.447 Y206.340 E0.01808
G1 X165.903 Y206.692 E0.01805
G1 X166.253 Y207.149 E0.01805
G1 X166.465 Y207.665 E0.01747
G1 X166.546 Y208.252 E0.01859
G1 X166.469 Y208.824 E0.01808
G1 X166.247 Y209.355 E0.01805
G1 X165.896 Y209.811 E0.01805
G1 X165.438 Y210.161 E0.01805
G1 X164.906 Y210.380 E0.01805
G1 X164.334 Y210.453 E0.01805
G1 X163.764 Y210.377 E0.01805
G1 X163.232 Y210.155 E0.01805
G1 X162.776 Y209.804 E0.01805
G1 X162.427 Y209.346 E0.01805
G1 X162.208 Y208.813 E0.01805
G1 X162.134 Y208.242 E0.01805
G1 X162.211 Y207.672 E0.01805
G1 X162.432 Y207.140 E0.01805
G1 X162.784 Y206.684 E0.01805
G1 X163.194 Y206.371 E0.01617
G1 X163.243 Y205.935 F9000.000
G1 E-3.50000 F3600.00000
G1 F7200.000
G1 X163.774 Y206.116 E-0.30113
G1 X164.327 Y206.044 E-0.26461
G1 X164.915 Y206.118 E-0.28169
G1 X165.447 Y206.340 E-0.27394
G1 X165.903 Y206.692 E-0.27351
G1 X165.942 Y206.742 E-0.03012
G1 E-0.07500 F3600.00000
G1 X166.539 Y209.595 F9000.000
G1 E5.00000 F2400.00000
G1 F1200.000
G1 X166.537 Y210.160 E0.01773
G1 X166.061 Y210.159 E0.01493
G1 X166.164 Y210.081 E0.00406
G1 X166.502 Y209.642 E0.01735
G1 E-3.50000 F3600.00000
G1 F7200.000
G1 X166.537 Y210.160 E-0.24663
G1 X166.061 Y210.159 E-0.22620
G1 X166.164 Y210.081 E-0.06151
G1 X166.502 Y209.642 E-0.26290
G1 E-0.70276 F3600.00000
G1 X57.271 Y208.032 F9000.000
G1 E5.00000 F2400.00000
G1 F1200.000
G1 X57.194 Y208.603 E0.01805
G1 X56.973 Y209.134 E0.01805
G1 X56.621 Y209.590 E0.01805
G1 X56.163 Y209.940 E0.01805
G1 X55.631 Y210.159 E0.01805
G1 X55.060 Y210.233 E0.01805
G1 X54.489 Y210.156 E0.01805
G1 X53.958 Y209.934 E0.01805
G1 X53.502 Y209.583 E0.01805
G1 X53.152 Y209.125 E0.01805
G1 X52.933 Y208.593 E0.01805
G1 X52.859 Y208.022 E0.01805
G1 X52.936 Y207.451 E0.01805
G1 X53.158 Y206.919 E0.01805
G1 X53.509 Y206.464 E0.01805
G1 X53.967 Y206.114 E0.01805
G1 X54.499 Y205.895 E0.01805
G1 X55.052 Y205.824 E0.01747
G1 X55.640 Y205.897 E0.01859
G1 X56.173 Y206.119 E0.01808
G1 X56.629 Y206.471 E0.01805
G1 X56.978 Y206.929 E0.01805
G1 X57.197 Y207.461 E0.01805
G1 X57.263 Y207.973 E0.01617
G1 X57.617 Y208.233 F9000.000
G1 E-3.50000 F3600.00000
G1 F7200.000
G1 X57.194 Y208.603 E-0.30113
G1 X56.973 Y209.134 E-0.27351
G1 X56.621 Y209.590 E-0.27351
G1 X56.163 Y209.940 E-0.27350
G1 X55.631 Y210.159 E-0.27351
G1 X55.569 Y210.167 E-0.02984
G1 E-0.07500 F3600.00000
G1 X53.279 Y209.887 F9000.000
G1 E5.00000 F2400.00000
G1 F1200.000
G1 X52.980 Y209.886 E0.00937
G1 X52.981 Y209.522 E0.01142
G1 X53.231 Y209.850 E0.01295
G1 E-3.50000 F3600.00000
G1 F7200.000
G1 X52.980 Y209.886 E-0.12066
G1 X52.981 Y209.522 E-0.17305
G1 X53.231 Y209.850 E-0.19613
G1 E-1.01016 F3600.00000
G1 X53.462 Y10.088 F9000.000
G1 E5.00000 F2400.00000
G1 F1200.000
G1 X53.463 Y9.840 E0.00779
G1 X53.735 Y9.840 E0.00854
G1 X53.536 Y9.992 E0.00787
G1 X53.499 Y10.040 E0.00190
G1 X53.797 Y10.271 F9000.000
G1 F1200.000
G1 X54.262 Y9.913 E0.01838
G1 X54.794 Y9.694 E0.01805
G1 X55.347 Y9.622 E0.01747
G1 X55.935 Y9.696 E0.01859
G1 X56.467 Y9.918 E0.01808
G1 X56.923 Y10.270 E0.01805
G1 X57.273 Y10.727 E0.01805
G1 X57.492 Y11.260 E0.01805
G1 X57.566 Y11.831 E0.01805
G1 X57.489 Y12.401 E0.01805
G1 X57.267 Y12.933 E0.01805
G1 X56.916 Y13.389 E0.01805
G1 X56.458 Y13.738 E0.01805
G1 X55.926 Y13.957 E0.01805
G1 X55.355 Y14.031 E0.01805
G1 X54.784 Y13.955 E0.01805
G1 X54.252 Y13.733 E0.01805
G1 X53.796 Y13.381 E0.01805
G1 X53.447 Y12.924 E0.01805
G1 X53.228 Y12.391 E0.01805
G1 X53.154 Y11.820 E0.01805
G1 X53.231 Y11.249 E0.01805
G1 X53.452 Y10.718 E0.01805
G1 X53.761 Y10.318 E0.01583
G1 X53.693 Y9.884 F9000.000
G1 E-3.50000 F3600.00000
G1 F7200.000
G1 X54.262 Y9.913 E-0.30612
G1 X54.794 Y9.694 E-0.27351
G1 X55.347 Y9.622 E-0.26460
G1 X55.935 Y9.696 E-0.28170
G1 X56.467 Y9.918 E-0.27395
G1 X56.509 Y9.950 E-0.02513
G1 E-0.07500 F3600.00000
G1 X100.544 Y89.289 F9000.000
G1 E5.00000 F2400.00000
G1 F1200.000
G1 X102.682 Y88.064 E0.07727
G1 X104.955 Y87.112 E0.07727
G1 X107.330 Y86.445 E0.07733
G1 X109.847 Y86.074 E0.07977
G1 X112.228 Y86.009 E0.07469
G1 X114.681 Y86.245 E0.07727
G1 X117.086 Y86.781 E0.07727
G1 X119.408 Y87.608 E0.07727
G1 X121.610 Y88.714 E0.07727
G1 X123.659 Y90.083 E0.07727
G1 X125.525 Y91.693 E0.07727
G1 X127.179 Y93.520 E0.07727
G1 X128.596 Y95.536 E0.07727
G1 X129.754 Y97.711 E0.07727
G1 X130.636 Y100.013 E0.07727
G1 X131.229 Y102.405 E0.07727
G1 X131.523 Y104.851 E0.07727
G1 X131.515 Y107.316 E0.07727
G1 X131.203 Y109.760 E0.07727
G1 X130.594 Y112.148 E0.07727
G1 X129.695 Y114.443 E0.07727
G1 X128.522 Y116.610 E0.07727
G1 X127.091 Y118.617 E0.07727
G1 X125.424 Y120.432 E0.07727
G1 X123.547 Y122.029 E0.07727
G1 X121.488 Y123.383 E0.07727
G1 X119.278 Y124.474 E0.07727
G1 X116.951 Y125.284 E0.07727
G1 X114.542 Y125.803 E0.07727
G1 X112.087 Y126.022 E0.07727
G1 X109.624 Y125.937 E0.07727
G1 X107.190 Y125.551 E0.07727
G1 X104.822 Y124.868 E0.07727
G1 X102.556 Y123.899 E0.07727
G1 X100.426 Y122.660 E0.07727
G1 X98.465 Y121.168 E0.07727
G1 X96.702 Y119.446 E0.07727
G1 X95.163 Y117.520 E0.07727
G1 X93.873 Y115.421 E0.07727
G1 X92.850 Y113.176 E0.07733
G1 X92.098 Y110.746 E0.07977
G1 X91.668 Y108.403 E0.07469
G1 X91.525 Y105.941 E0.07733
G1 X91.701 Y103.403 E0.07977
G1 X92.147 Y101.063 E0.07469
G1 X92.903 Y98.715 E0.07733
G1 X93.984 Y96.412 E0.07977
G1 X95.245 Y94.391 E0.07469
G1 X96.798 Y92.475 E0.07733
G1 X98.638 Y90.718 E0.07977
G1 X100.496 Y89.325 E0.07281
G1 X100.722 Y89.627 F9000.000
G1 F1200.000
G1 X102.849 Y88.403 E0.07695
G1 X105.079 Y87.469 E0.07581
G1 X107.408 Y86.815 E0.07585
G1 X109.879 Y86.450 E0.07831
G1 X112.215 Y86.387 E0.07326
G1 X114.622 Y86.618 E0.07581
G1 X116.982 Y87.144 E0.07581
G1 X119.259 Y87.955 E0.07581
G1 X121.420 Y89.041 E0.07581
G1 X123.431 Y90.383 E0.07581
G1 X125.261 Y91.963 E0.07581
G1 X126.884 Y93.756 E0.07581
G1 X128.274 Y95.734 E0.07581
G1 X129.410 Y97.868 E0.07581
G1 X130.276 Y100.126 E0.07581
G1 X130.857 Y102.473 E0.07581
G1 X131.146 Y104.873 E0.07581
G1 X131.138 Y107.291 E0.07581
G1 X130.832 Y109.690 E0.07581
G1 X130.234 Y112.033 E0.07581
G1 X129.353 Y114.284 E0.07581
G1 X128.201 Y116.410 E0.07581
G1 X126.797 Y118.379 E0.07581
G1 X125.162 Y120.160 E0.07581
G1 X123.320 Y121.727 E0.07581
G1 X121.300 Y123.055 E0.07581
G1 X119.132 Y124.125 E0.07581
G1 X116.849 Y124.921 E0.07581
G1 X114.485 Y125.430 E0.07581
G1 X112.077 Y125.644 E0.07581
G1 X109.660 Y125.561 E0.07581
G1 X107.272 Y125.182 E0.07581
G1 X104.949 Y124.512 E0.07581
G1 X102.726 Y123.562 E0.07581
G1 X100.636 Y122.346 E0.07581
G1 X98.712 Y120.882 E0.07581
G1 X96.982 Y119.192 E0.07581
G1 X95.473 Y117.303 E0.07581
G1 X94.207 Y115.243 E0.07581
G1 X93.204 Y113.042 E0.07585
G1 X92.465 Y110.656 E0.07831
G1 X92.043 Y108.358 E0.07326
G1 X91.903 Y105.943 E0.07585
G1 X92.076 Y103.451 E0.07831
G1 X92.513 Y101.156 E0.07326
G1 X93.254 Y98.854 E0.07585
G1 X94.315 Y96.593 E0.07831
G1 X95.552 Y94.611 E0.07326
G1 X97.076 Y92.731 E0.07585
G1 X98.882 Y91.006 E0.07831
G1 X100.674 Y89.663 E0.07022
G1 X100.900 Y89.965 F9000.000
G1 F1200.000
G1 X103.017 Y88.742 E0.07664
G1 X105.204 Y87.825 E0.07435
G1 X107.487 Y87.184 E0.07437
G1 X109.912 Y86.827 E0.07685
G1 X112.202 Y86.764 E0.07182
G1 X114.562 Y86.991 E0.07435
G1 X116.877 Y87.507 E0.07435
G1 X119.111 Y88.303 E0.07435
G1 X121.230 Y89.367 E0.07435
G1 X123.202 Y90.684 E0.07435
G1 X124.997 Y92.233 E0.07435
G1 X126.589 Y93.991 E0.07435
G1 X127.952 Y95.932 E0.07435
G1 X129.067 Y98.025 E0.07435
G1 X129.915 Y100.239 E0.07435
G1 X130.486 Y102.541 E0.07435
G1 X130.769 Y104.895 E0.07435
G1 X130.761 Y107.267 E0.07435
G1 X130.461 Y109.619 E0.07435
G1 X129.874 Y111.917 E0.07435
G1 X129.010 Y114.125 E0.07435
G1 X127.881 Y116.210 E0.07435
G1 X126.504 Y118.141 E0.07435
G1 X124.900 Y119.888 E0.07435
G1 X123.094 Y121.424 E0.07435
G1 X121.112 Y122.727 E0.07435
G1 X118.986 Y123.777 E0.07435
G1 X116.747 Y124.557 E0.07435
G1 X114.428 Y125.056 E0.07435
G1 X112.066 Y125.267 E0.07435
G1 X109.696 Y125.185 E0.07435
G1 X107.354 Y124.813 E0.07435
G1 X105.076 Y124.156 E0.07435
G1 X102.895 Y123.224 E0.07435
G1 X100.846 Y122.031 E0.07435
G1 X98.958 Y120.596 E0.07435
G1 X97.262 Y118.939 E0.07435
G1 X95.782 Y117.086 E0.07435
G1 X94.540 Y115.066 E0.07435
G1 X93.557 Y112.907 E0.07437
G1 X92.831 Y110.566 E0.07685
G1 X92.418 Y108.313 E0.07182
G1 X92.281 Y105.945 E0.07437
G1 X92.450 Y103.500 E0.07685
G1 X92.879 Y101.250 E0.07182
G1 X93.606 Y98.992 E0.07437
G1 X94.647 Y96.773 E0.07685
G1 X95.860 Y94.830 E0.07182
G1 X97.353 Y92.987 E0.07437
G1 X99.126 Y91.294 E0.07685
G1 X100.852 Y90.001 E0.06764
G1 X100.876 Y89.565 F9000.000
G1 E-3.50000 F3600.00000
G1 F7200.000
G1 X103.017 Y88.742 E-1.18935
G1 X103.474 Y88.550 E-0.23565
G1 E-0.07500 F3600.00000
G1 X69.483 Y155.572 F9000.000
G1 E5.00000 F2400.00000
G1 F1200.000
G1 X69.440 Y173.375 E0.55821
G1 X64.647 Y173.363 E0.15029
G1 X64.690 Y155.560 E0.55821
G1 X69.423 Y155.572 E0.14841
G1 X69.105 Y155.948 F9000.000
G1 F1200.000
G1 X69.064 Y172.997 E0.53456
G1 X65.025 Y172.987 E0.12664
G1 X65.066 Y155.938 E0.53456
G1 X69.045 Y155.948 E0.12476
G1 X68.727 Y156.324 F9000.000
G1 F1200.000
G1 X68.688 Y172.619 E0.51092
G1 X65.403 Y172.611 E0.10300
G1 X65.442 Y156.316 E0.51092
G1 X68.667 Y156.324 E0.10111
G1 X69.086 Y156.148 F9000.000
G1 E-3.50000 F3600.00000
G1 F7200.000
G1 X68.671 Y159.324 E-1.42500
G1 E-0.07500 F3600.00000
G1 X53.367 Y205.623 F9000.000
G1 E5.00000 F2400.00000
G1 F1200.000
G1 X53.829 Y14.359 E5.99697
G1 X53.871 Y14.391 E0.00165
G1 X54.585 Y14.689 E0.02428
G1 X55.353 Y14.792 E0.02428
G1 X56.121 Y14.693 E0.02428
G1 X56.837 Y14.398 E0.02428
G1 X57.452 Y13.928 E0.02428
G1 X57.925 Y13.315 E0.02428
G1 X58.223 Y12.600 E0.02428
G1 X58.326 Y11.833 E0.02428
G1 X58.227 Y11.065 E0.02428
G1 X57.932 Y10.348 E0.02428
G1 X57.840 Y10.227 E0.00478
G1 X162.542 Y10.480 E3.28286
G1 X162.442 Y10.610 E0.00513
G1 X162.143 Y11.326 E0.02433
G1 X162.039 Y12.099 E0.02446
G1 X162.148 Y12.885 E0.02487
G1 X162.434 Y13.582 E0.02364
G1 X162.905 Y14.199 E0.02433
G1 X163.520 Y14.673 E0.02433
G1 X164.236 Y14.971 E0.02433
G1 X165.009 Y15.075 E0.02446
G1 X165.795 Y14.967 E0.02487
G1 X166.492 Y14.680 E0.02364
G1 X166.632 Y14.573 E0.00552
G1 X166.170 Y205.945 E6.00037
G1 X165.829 Y205.682 E0.01351
G1 X165.111 Y205.383 E0.02441
G1 X164.325 Y205.284 E0.02482
G1 X163.579 Y205.381 E0.02359
G1 X162.863 Y205.675 E0.02428
G1 X162.247 Y206.145 E0.02428
G1 X161.774 Y206.758 E0.02428
G1 X161.476 Y207.473 E0.02428
G1 X161.373 Y208.241 E0.02428
G1 X161.473 Y209.009 E0.02428
G1 X161.767 Y209.725 E0.02428
G1 X161.803 Y209.772 E0.00186
G1 X57.627 Y209.521 E3.26638
G1 X57.929 Y208.802 E0.02444
G1 X58.031 Y208.034 E0.02428
G1 X57.932 Y207.266 E0.02428
G1 X57.638 Y206.550 E0.02428
G1 X57.168 Y205.934 E0.02428
G1 X56.554 Y205.462 E0.02428
G1 X55.836 Y205.162 E0.02441
G1 X55.050 Y205.063 E0.02482
G1 X54.304 Y205.160 E0.02359
G1 X53.588 Y205.454 E0.02428
G1 X53.415 Y205.587 E0.00683
G1 X52.988 Y206.522 F9000.000
G1 F1200.000
G1 X53.454 Y13.554 E6.05039
G1 X53.527 Y13.650 E0.00378
G1 X54.061 Y14.062 E0.02117
G1 X54.685 Y14.322 E0.02117
G1 X55.354 Y14.412 E0.02117
G1 X56.023 Y14.325 E0.02117
G1 X56.648 Y14.068 E0.02117
G1 X57.184 Y13.659 E0.02117
G1 X57.596 Y13.124 E0.02117
G1 X57.856 Y12.501 E0.02117
G1 X57.946 Y11.832 E0.02117
G1 X57.859 Y11.162 E0.02117
G1 X57.603 Y10.538 E0.02117
G1 X57.193 Y10.001 E0.02117
G1 X56.994 Y9.848 E0.00787
G1 X163.393 Y10.105 E3.33607
G1 X163.184 Y10.265 E0.00826
G1 X162.771 Y10.801 E0.02122
G1 X162.510 Y11.425 E0.02122
G1 X162.420 Y12.098 E0.02130
G1 X162.515 Y12.786 E0.02176
G1 X162.764 Y13.393 E0.02058
G1 X163.175 Y13.930 E0.02122
G1 X163.711 Y14.344 E0.02122
G1 X164.335 Y14.604 E0.02122
G1 X165.009 Y14.694 E0.02130
G1 X165.696 Y14.600 E0.02176
G1 X166.303 Y14.350 E0.02058
G1 X166.841 Y13.939 E0.02122
G1 X167.011 Y13.718 E0.00876
G1 X166.545 Y206.911 E6.05745
G1 X166.173 Y206.424 E0.01924
G1 X165.638 Y206.011 E0.02117
G1 X165.013 Y205.750 E0.02125
G1 X164.326 Y205.664 E0.02171
G1 X163.677 Y205.748 E0.02053
G1 X163.052 Y206.005 E0.02117
G1 X162.516 Y206.415 E0.02117
G1 X162.103 Y206.949 E0.02117
G1 X161.843 Y207.572 E0.02117
G1 X161.754 Y208.241 E0.02117
G1 X161.840 Y208.911 E0.02117
G1 X162.097 Y209.535 E0.02117
G1 X162.507 Y210.072 E0.02117
G1 X162.609 Y210.151 E0.00406
G1 X56.842 Y209.896 E3.31626
G1 X56.889 Y209.860 E0.00185
G1 X57.302 Y209.325 E0.02117
G1 X57.561 Y208.702 E0.02117
G1 X57.651 Y208.033 E0.02117
G1 X57.565 Y207.364 E0.02117
G1 X57.308 Y206.739 E0.02117
G1 X56.898 Y206.203 E0.02117
G1 X56.363 Y205.790 E0.02117
G1 X55.738 Y205.530 E0.02125
G1 X55.051 Y205.444 E0.02171
G1 X54.402 Y205.527 E0.02053
G1 X53.777 Y205.784 E0.02117
G1 X53.241 Y206.194 E0.02117
G1 X53.025 Y206.474 E0.01110
G1 E-3.50000 F3600.00000
G1 F7200.000
G1 X53.031 Y203.474 E-1.42500
G1 E-0.07500 F3600.00000
G1 X163.902 Y14.015 F9000.000
G1 E5.00000 F2400.00000
G1 F1200.000
G1 X163.445 Y13.662 E0.01810
G1 X163.094 Y13.203 E0.01810
G1 X162.882 Y12.687 E0.01751
G1 X162.800 Y12.098 E0.01865
G1 X162.877 Y11.524 E0.01813
G1 X163.099 Y10.991 E0.01810
G1 X163.452 Y10.534 E0.01810
G1 X163.911 Y10.184 E0.01810
G1 X164.445 Y9.964 E0.01810
G1 X164.999 Y9.893 E0.01751
G1 X165.589 Y9.967 E0.01865
G1 X166.123 Y10.189 E0.01813
G1 X166.580 Y10.542 E0.01810
G1 X166.930 Y11.001 E0.01810
G1 X167.150 Y11.535 E0.01810
G1 X167.224 Y12.107 E0.01810
G1 X167.147 Y12.680 E0.01810
G1 X166.925 Y13.213 E0.01810
G1 X166.572 Y13.670 E0.01810
G1 X166.114 Y14.020 E0.01810
G1 X165.597 Y14.233 E0.01751
G1 X165.008 Y14.314 E0.01865
G1 X164.435 Y14.237 E0.01813
G1 X163.957 Y14.038 E0.01622
G1 X163.555 Y14.214 F9000.000
G1 E-3.50000 F3600.00000
G1 F7200.000
G1 X163.445 Y13.662 E-0.30188
G1 X163.094 Y13.203 E-0.27427
G1 X162.882 Y12.687 E-0.26534
G1 X162.800 Y12.098 E-0.28247
G1 X162.877 Y11.524 E-0.27470
G1 X162.899 Y11.473 E-0.02634
G1 E-0.07500 F3600.00000
