; generated by PrusaSlicer 2.2.0+win64 on 2022-05-08 at 00:47:48 UTC

; 

; external perimeters extrusion width = 0.45mm
; perimeters extrusion width = 0.45mm
; infill extrusion width = 0.45mm
; solid infill extrusion width = 0.45mm
; top infill extrusion width = 0.40mm
; first layer extrusion width = 0.42mm

M201 X500 Y500 Z100 E5000 ; sets maximum accelerations, mm/sec^2
M203 X500 Y500 Z10 E60 ; sets maximum feedrates, mm/sec
M204 P500 R1000 T500 ; sets acceleration (P, T) and retract acceleration (R), mm/sec^2
M205 X8.00 Y8.00 Z0.40 E5.00 ; sets the jerk limits, mm/sec
M205 S0 T0 ; sets the minimum extruding and travel feed rate, mm/sec
M107
G90 ; use absolute coordinates
M83 ; extruder relative mode
M104 S215 ; set extruder temp
M140 S40 ; set bed temp
M190 S40 ; wait for bed temp
M109 S215 ; wait for extruder temp
G28 ; home all
G1 Z2 F240
G1 X2 Y10 F3000
G1 Z0.28 F240
G92 E0.0
G1 Y190 E15.0 F1500.0 ; intro line
G1 X2.3 F5000
G1 Y10 E30 F1200.0 ; intro line
G92 E0.0
G21 ; set units to millimeters
G90 ; use absolute coordinates
M83 ; use relative distances for extrusion
; Filament gcode
;BEFORE_LAYER_CHANGE
;0.2


G1 E-5.00000 F3600.00000
G1 Z0.200 F9000.000
;AFTER_LAYER_CHANGE
;0.2
G1 X87.309 Y32.834
G1 E5.00000 F2400.00000
G1 F1200.000
G1 X87.828 Y32.074 E0.02884
G1 X88.596 Y31.569 E0.02884
G1 X89.498 Y31.393 E0.02880
G1 X130.868 Y31.459 E1.29713
G1 X131.604 Y31.609 E0.02355
G1 X132.257 Y31.980 E0.02355
G1 X132.761 Y32.537 E0.02355
G1 X133.066 Y33.223 E0.02355
G1 X133.146 Y33.818 E0.01882
G1 X133.154 Y46.534 E0.39871
G1 X132.935 Y186.261 E4.38103
G1 X132.801 Y187.019 E0.02414
G1 X132.434 Y187.691 E0.02402
G1 X131.868 Y188.214 E0.02414
G1 X131.170 Y188.527 E0.02402
G1 X130.559 Y188.607 E0.01929
G1 X89.108 Y188.541 E1.29967
G1 X88.372 Y188.393 E0.02355
G1 X87.719 Y188.022 E0.02355
G1 X87.214 Y187.466 E0.02355
G1 X86.906 Y186.777 E0.02367
G1 X86.827 Y186.162 E0.01945
G1 X87.117 Y33.730 E4.77942
G1 X87.296 Y32.893 E0.02684
G1 E-3.50000 F3600.00000
G1 F7200.000
G1 X87.828 Y32.074 E-0.46338
G1 X88.596 Y31.569 E-0.43688
G1 X89.498 Y31.393 E-0.43637
G1 X89.684 Y31.393 E-0.08836
G1 E-0.07500 F3600.00000
G1 X124.627 Y37.390 F9000.000
G1 E5.00000 F2400.00000
G1 F1200.000
G1 X124.721 Y36.678 E0.02252
G1 X124.997 Y36.015 E0.02252
G1 X125.436 Y35.445 E0.02252
G1 X126.006 Y35.009 E0.02252
G1 X126.670 Y34.735 E0.02252
G1 X127.383 Y34.642 E0.02252
G1 X128.095 Y34.737 E0.02252
G1 X128.758 Y35.013 E0.02252
G1 X129.327 Y35.451 E0.02252
G1 X129.764 Y36.022 E0.02252
G1 X130.005 Y36.607 E0.01984
G1 X130.037 Y36.686 E0.00269
G1 X130.130 Y37.398 E0.02252
G1 X130.035 Y38.111 E0.02252
G1 X129.759 Y38.774 E0.02252
G1 X129.321 Y39.343 E0.02252
G1 X128.751 Y39.779 E0.02252
G1 X128.086 Y40.053 E0.02252
G1 X127.374 Y40.146 E0.02252
G1 X126.662 Y40.051 E0.02252
G1 X125.999 Y39.775 E0.02252
G1 X125.429 Y39.337 E0.02252
G1 X124.993 Y38.766 E0.02252
G1 X124.719 Y38.102 E0.02252
G1 X124.634 Y37.449 E0.02064
G1 X124.280 Y37.189 F9000.000
G1 E-3.50000 F3600.00000
G1 F7200.000
G1 X124.721 Y36.678 E-0.36882
G1 X124.997 Y36.015 E-0.34122
G1 X125.436 Y35.445 E-0.34123
G1 X126.006 Y35.009 E-0.34123
G1 X126.069 Y34.983 E-0.03250
G1 E-0.07500 F3600.00000
G1 X129.713 Y34.797 F9000.000
G1 E5.00000 F2400.00000
G1 F1200.000
G1 X129.803 Y34.797 E0.00283
G1 X129.803 Y34.866 E0.00217
G1 X129.761 Y34.833 E0.00168
G1 X130.178 Y36.039 F9000.000
G1 F1200.000
G1 X130.093 Y35.832 E0.00700
G1 X129.597 Y35.183 E0.02564
G1 X128.949 Y34.684 E0.02564
G1 X128.308 Y34.417 E0.02177
G1 X130.181 Y34.420 E0.05873
G1 X130.179 Y35.979 E0.04886
G1 E-3.50000 F3600.00000
G1 F7200.000
G1 X130.093 Y35.832 E-0.08048
G1 X129.597 Y35.183 E-0.38839
G1 X128.949 Y34.684 E-0.38839
G1 X128.308 Y34.417 E-0.32974
G1 X128.809 Y34.418 E-0.23800
G1 E-0.07500 F3600.00000
G1 X129.795 Y39.930 F9000.000
G1 E5.00000 F2400.00000
G1 F1200.000
G1 X129.783 Y47.493 E0.23714
G1 X129.811 Y47.493 E0.00086
G1 X129.596 Y185.265 E4.31974
G1 X90.169 Y185.203 E1.23619
G1 X90.385 Y47.432 E4.31974
G1 X90.437 Y47.432 E0.00164
G1 X90.457 Y34.735 E0.39808
G1 X125.052 Y34.789 E1.08470
G1 X124.899 Y34.907 E0.00605
G1 X124.339 Y35.633 E0.02875
G1 X123.987 Y36.480 E0.02875
G1 X123.866 Y37.389 E0.02875
G1 X123.984 Y38.298 E0.02875
G1 X124.334 Y39.146 E0.02875
G1 X124.891 Y39.874 E0.02875
G1 X125.617 Y40.433 E0.02875
G1 X126.464 Y40.786 E0.02875
G1 X127.373 Y40.907 E0.02875
G1 X128.282 Y40.788 E0.02875
G1 X129.130 Y40.439 E0.02875
G1 X129.748 Y39.966 E0.02439
G1 X130.174 Y38.758 F9000.000
G1 F1200.000
G1 X130.161 Y47.117 E0.26207
G1 X130.189 Y47.117 E0.00086
G1 X129.972 Y185.642 E4.34338
G1 X89.792 Y185.580 E1.25983
G1 X90.008 Y47.054 E4.34338
G1 X90.060 Y47.054 E0.00164
G1 X90.080 Y34.358 E0.39808
G1 X126.458 Y34.415 E1.14061
G1 X125.817 Y34.679 E0.02177
G1 X125.167 Y35.176 E0.02564
G1 X124.668 Y35.824 E0.02564
G1 X124.354 Y36.579 E0.02564
G1 X124.246 Y37.389 E0.02564
G1 X124.352 Y38.200 E0.02564
G1 X124.663 Y38.956 E0.02564
G1 X125.160 Y39.605 E0.02564
G1 X125.808 Y40.104 E0.02564
G1 X126.563 Y40.418 E0.02564
G1 X127.373 Y40.526 E0.02564
G1 X128.184 Y40.421 E0.02564
G1 X128.940 Y40.109 E0.02564
G1 X129.590 Y39.612 E0.02564
G1 X130.088 Y38.964 E0.02564
G1 X130.151 Y38.814 E0.00512
G1 E-3.50000 F3600.00000
G1 F7200.000
G1 X130.155 Y41.814 E-1.42500
G1 E-0.07500 F3600.00000
G1 X130.559 Y34.044 F9000.000
G1 E5.00000 F2400.00000
G1 F1200.000
G1 X130.539 Y46.740 E0.39808
G1 X130.566 Y46.740 E0.00086
G1 X130.349 Y186.020 E4.36703
G1 X89.414 Y185.956 E1.28348
G1 X89.632 Y46.676 E4.36703
G1 X89.684 Y46.676 E0.00164
G1 X89.704 Y33.980 E0.39808
G1 X130.499 Y34.044 E1.27910
G1 X130.394 Y34.408 F9000.000
G1 X129.850 Y35.168
G1 F1200.000
G1 X129.951 Y35.269 E0.00096
G1 X129.974 Y35.338 E0.00049
G1 X130.139 Y36.239 F9000.000
G1 F1200.000
G1 X130.269 Y36.498 E0.00469
G1 X130.291 Y36.609 E0.00182
G1 X130.317 Y37.003 E0.00495
G1 X130.341 Y37.378 E0.00306
G1 X130.341 Y37.420 F9000.000
G1 F1200.000
G1 X130.291 Y38.170 E0.00612
G1 X130.236 Y38.578 E0.00336
G1 X129.967 Y39.459 F9000.000
G1 F1200.000
G1 X129.944 Y39.528 E0.00049
G1 X129.843 Y39.629 E0.00096
G1 X129.680 Y41.101 F9000.000
G1 F1200.000
G1 X129.267 Y40.688 E0.01834
G1 X128.889 Y40.844 E0.01284
G1 X129.510 Y41.465 E0.02757
G1 X129.509 Y41.998 E0.01674
G1 X128.511 Y41.000 E0.04432
G1 X128.356 Y41.064 E0.00528
G1 X128.077 Y41.100 E0.00881
G1 X129.508 Y42.531 E0.06354
G1 X129.508 Y43.064 E0.01674
G1 X127.605 Y41.162 E0.08448
G1 X127.372 Y41.192 E0.00736
G1 X127.059 Y41.150 E0.00991
G1 X129.507 Y43.598 E0.10866
G1 X129.506 Y44.131 E0.01674
G1 X126.155 Y40.779 E0.14880
G1 E-3.50000 F3600.00000
G1 F7200.000
G1 X128.276 Y42.901 E-1.42500
G1 E-0.07500 F3600.00000
G1 X123.994 Y38.619 F9000.000
G1 E5.00000 F2400.00000
G1 F1200.000
G1 X120.440 Y35.065 E0.15780
G1 X120.975 Y35.066 E0.01679
G1 X123.623 Y37.714 E0.11757
G1 X123.581 Y37.388 E0.01031
G1 X123.610 Y37.167 E0.00701
G1 X121.510 Y35.067 E0.09325
G1 X122.045 Y35.068 E0.01679
G1 X123.673 Y36.696 E0.07229
G1 X123.712 Y36.406 E0.00919
G1 X123.772 Y36.261 E0.00493
G1 X122.580 Y35.068 E0.05294
G1 X123.114 Y35.069 E0.01679
G1 X123.929 Y35.884 E0.03616
G1 X124.086 Y35.506 E0.01282
G1 X123.649 Y35.070 E0.01938
G1 X124.184 Y35.071 E0.01679
G1 X124.436 Y35.323 E0.01117
G1 E-3.50000 F3600.00000
G1 F7200.000
G1 X124.184 Y35.071 E-0.16902
G1 X123.649 Y35.070 E-0.25404
G1 X124.086 Y35.506 E-0.29317
G1 X123.929 Y35.884 E-0.19401
G1 X123.162 Y35.117 E-0.51477
G1 E-0.07500 F3600.00000
G1 X126.645 Y34.387 F9000.000
G1 E5.00000 F2400.00000
G1 F1200.000
G1 X127.398 Y34.340 E0.01416
G1 X127.759 Y34.365 E0.00793
G1 X128.121 Y34.389 E0.00906
G1 E-3.50000 F3600.00000
G1 F7200.000
G1 X127.759 Y34.365 E-0.17217
G1 E-1.32783 F3600.00000
G1 X129.674 Y44.833 F9000.000
G1 E5.00000 F2400.00000
G1 F1200.000
G1 X119.905 Y35.064 E0.43376
G1 X119.371 Y35.063 E0.01679
G1 X129.504 Y45.197 E0.44994
G1 X129.503 Y45.730 E0.01674
G1 X118.836 Y35.063 E0.47365
G1 X118.301 Y35.062 E0.01679
G1 X129.503 Y46.263 E0.49736
G1 X129.502 Y46.796 E0.01674
G1 X117.766 Y35.061 E0.52107
G1 X117.231 Y35.060 E0.01679
G1 X129.501 Y47.330 E0.54478
G1 X129.500 Y47.775 E0.01399
G1 X129.528 Y47.775 E0.00086
G1 X129.527 Y47.890 E0.00360
G1 X116.697 Y35.059 E0.56971
G1 X116.162 Y35.058 E0.01679
G1 X129.527 Y48.423 E0.59342
G1 X129.526 Y48.956 E0.01674
G1 X115.627 Y35.058 E0.61713
G1 X115.092 Y35.057 E0.01679
G1 X129.525 Y49.490 E0.64084
G1 X129.524 Y50.023 E0.01674
G1 X114.557 Y35.056 E0.66455
G1 X114.022 Y35.055 E0.01679
G1 X129.523 Y50.556 E0.68826
G1 X129.522 Y51.089 E0.01674
G1 X113.488 Y35.054 E0.71197
G1 X112.953 Y35.053 E0.01679
G1 X129.522 Y51.622 E0.73568
G1 X129.521 Y52.155 E0.01674
G1 X112.418 Y35.053 E0.75939
G1 X111.883 Y35.052 E0.01679
G1 X129.520 Y52.689 E0.78310
G1 X129.519 Y53.222 E0.01674
G1 X111.348 Y35.051 E0.80681
G1 X110.813 Y35.050 E0.01679
G1 X129.518 Y53.755 E0.83052
G1 X129.517 Y54.288 E0.01674
G1 X110.279 Y35.049 E0.85423
G1 X109.744 Y35.048 E0.01679
G1 X129.517 Y54.821 E0.87793
G1 X129.516 Y55.354 E0.01674
G1 X109.209 Y35.048 E0.90164
G1 X108.674 Y35.047 E0.01679
G1 X129.515 Y55.887 E0.92535
G1 X129.514 Y56.421 E0.01674
G1 X108.139 Y35.046 E0.94906
G1 X107.605 Y35.045 E0.01679
G1 X129.513 Y56.954 E0.97277
G1 X129.512 Y57.487 E0.01674
G1 X107.070 Y35.044 E0.99648
G1 X106.535 Y35.043 E0.01679
G1 X129.512 Y58.020 E1.02019
G1 X129.511 Y58.553 E0.01674
G1 X106.000 Y35.042 E1.04390
G1 X105.465 Y35.042 E0.01679
G1 X129.510 Y59.086 E1.06761
G1 X129.509 Y59.620 E0.01674
G1 X104.930 Y35.041 E1.09132
G1 X104.396 Y35.040 E0.01679
G1 X129.508 Y60.153 E1.11503
G1 X129.507 Y60.686 E0.01674
G1 X103.861 Y35.039 E1.13874
G1 X103.326 Y35.038 E0.01679
G1 X129.507 Y61.219 E1.16245
G1 X129.506 Y61.752 E0.01674
G1 X102.791 Y35.037 E1.18616
G1 X102.256 Y35.037 E0.01679
G1 X129.505 Y62.285 E1.20987
G1 X129.504 Y62.818 E0.01674
G1 X101.722 Y35.036 E1.23358
G1 X101.187 Y35.035 E0.01679
G1 X129.503 Y63.352 E1.25729
G1 X129.502 Y63.885 E0.01674
G1 X100.652 Y35.034 E1.28100
G1 X100.117 Y35.033 E0.01679
G1 X129.502 Y64.418 E1.30471
G1 X129.501 Y64.951 E0.01674
G1 X99.582 Y35.032 E1.32842
G1 X99.047 Y35.032 E0.01679
G1 X129.500 Y65.484 E1.35213
G1 X129.499 Y66.017 E0.01674
G1 X98.513 Y35.031 E1.37584
G1 X97.978 Y35.030 E0.01679
G1 X129.498 Y66.551 E1.39955
G1 X129.497 Y67.084 E0.01674
G1 X97.443 Y35.029 E1.42326
G1 X96.908 Y35.028 E0.01679
G1 X129.497 Y67.617 E1.44697
G1 X129.496 Y68.150 E0.01674
G1 X96.373 Y35.027 E1.47068
G1 X95.838 Y35.027 E0.01679
G1 X129.495 Y68.683 E1.49439
G1 X129.494 Y69.216 E0.01674
G1 X95.304 Y35.026 E1.51810
G1 X94.769 Y35.025 E0.01679
G1 X129.493 Y69.749 E1.54181
G1 X129.492 Y70.283 E0.01674
G1 X94.234 Y35.024 E1.56552
G1 X93.699 Y35.023 E0.01679
G1 X129.492 Y70.816 E1.58922
G1 X129.491 Y71.349 E0.01674
G1 X93.164 Y35.022 E1.61293
G1 X92.630 Y35.022 E0.01679
G1 X129.490 Y71.882 E1.63664
G1 X129.489 Y72.415 E0.01674
G1 X92.095 Y35.021 E1.66035
G1 X91.560 Y35.020 E0.01679
G1 X129.488 Y72.948 E1.68406
G1 X129.487 Y73.482 E0.01674
G1 X91.025 Y35.019 E1.70777
G1 X90.739 Y35.019 E0.00898
G1 X90.739 Y35.267 E0.00779
G1 X129.487 Y74.015 E1.72046
G1 X129.486 Y74.548 E0.01674
G1 X90.738 Y35.800 E1.72046
G1 X90.737 Y36.333 E0.01674
G1 X129.485 Y75.081 E1.72046
G1 X129.484 Y75.614 E0.01674
G1 X90.736 Y36.866 E1.72046
G1 X90.735 Y37.399 E0.01674
G1 X129.483 Y76.147 E1.72046
G1 X129.483 Y76.680 E0.01674
G1 X90.734 Y37.932 E1.72046
G1 X90.734 Y38.466 E0.01674
G1 X129.482 Y77.214 E1.72046
G1 X129.481 Y77.747 E0.01674
G1 X90.733 Y38.999 E1.72046
G1 X90.732 Y39.532 E0.01674
G1 X129.480 Y78.280 E1.72046
G1 X129.479 Y78.813 E0.01674
G1 X90.731 Y40.065 E1.72046
G1 X90.730 Y40.598 E0.01674
G1 X129.478 Y79.346 E1.72046
G1 X129.478 Y79.879 E0.01674
G1 X90.729 Y41.131 E1.72046
G1 X90.729 Y41.664 E0.01674
G1 X129.477 Y80.412 E1.72046
G1 X129.476 Y80.946 E0.01674
G1 X90.728 Y42.198 E1.72046
G1 X90.727 Y42.731 E0.01674
G1 X129.475 Y81.479 E1.72046
G1 X129.474 Y82.012 E0.01674
G1 X90.726 Y43.264 E1.72046
G1 X90.725 Y43.797 E0.01674
G1 X129.473 Y82.545 E1.72046
G1 X129.473 Y83.078 E0.01674
G1 X90.724 Y44.330 E1.72046
G1 X90.724 Y44.863 E0.01674
G1 X129.472 Y83.611 E1.72046
G1 X129.471 Y84.145 E0.01674
G1 X90.723 Y45.397 E1.72046
G1 X90.722 Y45.930 E0.01674
G1 X129.470 Y84.678 E1.72046
G1 X129.469 Y85.211 E0.01674
G1 X90.721 Y46.463 E1.72046
G1 X90.720 Y46.996 E0.01674
G1 X129.468 Y85.744 E1.72046
G1 X129.468 Y86.277 E0.01674
G1 X90.719 Y47.529 E1.72046
G1 X90.719 Y47.715 E0.00583
G1 X90.667 Y47.715 E0.00164
G1 X90.666 Y48.010 E0.00927
G1 X129.467 Y86.810 E1.72277
G1 X129.466 Y87.343 E0.01674
G1 X90.666 Y48.543 E1.72277
G1 X90.665 Y49.076 E0.01674
G1 X129.465 Y87.877 E1.72277
G1 X129.464 Y88.410 E0.01674
G1 X90.664 Y49.610 E1.72277
G1 X90.663 Y50.143 E0.01674
G1 X129.463 Y88.943 E1.72277
G1 X129.463 Y89.476 E0.01674
G1 X90.662 Y50.676 E1.72277
G1 X90.661 Y51.209 E0.01674
G1 X129.462 Y90.009 E1.72277
G1 X129.461 Y90.542 E0.01674
G1 X90.661 Y51.742 E1.72277
G1 X90.660 Y52.275 E0.01674
G1 X129.460 Y91.076 E1.72277
G1 X129.459 Y91.609 E0.01674
G1 X90.659 Y52.808 E1.72277
G1 X90.658 Y53.342 E0.01674
G1 X129.458 Y92.142 E1.72277
G1 X129.458 Y92.675 E0.01674
G1 X90.657 Y53.875 E1.72277
G1 X90.656 Y54.408 E0.01674
G1 X129.457 Y93.208 E1.72277
G1 X129.456 Y93.741 E0.01674
G1 X90.656 Y54.941 E1.72277
G1 X90.655 Y55.474 E0.01674
G1 X129.455 Y94.274 E1.72277
G1 X129.454 Y94.808 E0.01674
G1 X90.654 Y56.007 E1.72277
G1 X90.653 Y56.540 E0.01674
G1 X129.453 Y95.341 E1.72277
G1 X129.453 Y95.874 E0.01674
G1 X90.652 Y57.074 E1.72277
G1 X90.651 Y57.607 E0.01674
G1 X129.452 Y96.407 E1.72277
G1 X129.451 Y96.940 E0.01674
G1 X90.651 Y58.140 E1.72277
G1 X90.650 Y58.673 E0.01674
G1 X129.450 Y97.473 E1.72277
G1 X129.449 Y98.007 E0.01674
G1 X90.649 Y59.206 E1.72277
G1 X90.648 Y59.739 E0.01674
G1 X129.448 Y98.540 E1.72277
G1 X129.448 Y99.073 E0.01674
G1 X90.647 Y60.273 E1.72277
G1 X90.646 Y60.806 E0.01674
G1 X129.447 Y99.606 E1.72277
G1 X129.446 Y100.139 E0.01674
G1 X90.646 Y61.339 E1.72277
G1 X90.645 Y61.872 E0.01674
G1 X129.445 Y100.672 E1.72277
G1 X129.444 Y101.205 E0.01674
G1 X90.644 Y62.405 E1.72277
G1 X90.643 Y62.938 E0.01674
G1 X129.443 Y101.739 E1.72277
G1 X129.443 Y102.272 E0.01674
G1 X90.642 Y63.471 E1.72277
G1 X90.641 Y64.005 E0.01674
G1 X129.442 Y102.805 E1.72277
G1 X129.441 Y103.338 E0.01674
G1 X90.641 Y64.538 E1.72277
G1 X90.640 Y65.071 E0.01674
G1 X129.440 Y103.871 E1.72277
G1 X129.439 Y104.404 E0.01674
G1 X90.639 Y65.604 E1.72277
G1 X90.638 Y66.137 E0.01674
G1 X129.438 Y104.938 E1.72277
G1 X129.438 Y105.471 E0.01674
G1 X90.637 Y66.670 E1.72277
G1 X90.636 Y67.204 E0.01674
G1 X129.437 Y106.004 E1.72277
G1 X129.436 Y106.537 E0.01674
G1 X90.636 Y67.737 E1.72277
G1 X90.635 Y68.270 E0.01674
G1 X129.435 Y107.070 E1.72277
G1 X129.434 Y107.603 E0.01674
G1 X90.634 Y68.803 E1.72277
G1 X90.633 Y69.336 E0.01674
G1 X129.433 Y108.136 E1.72277
G1 X129.433 Y108.670 E0.01674
G1 X90.632 Y69.869 E1.72277
G1 X90.631 Y70.402 E0.01674
G1 X129.432 Y109.203 E1.72277
G1 X129.431 Y109.736 E0.01674
G1 X90.631 Y70.936 E1.72277
G1 X90.630 Y71.469 E0.01674
G1 X129.430 Y110.269 E1.72277
G1 X129.429 Y110.802 E0.01674
G1 X90.629 Y72.002 E1.72277
G1 X90.628 Y72.535 E0.01674
G1 X129.428 Y111.335 E1.72277
G1 X129.428 Y111.869 E0.01674
G1 X90.627 Y73.068 E1.72277
G1 X90.626 Y73.601 E0.01674
G1 X129.427 Y112.402 E1.72277
G1 X129.426 Y112.935 E0.01674
G1 X90.626 Y74.135 E1.72277
G1 X90.625 Y74.668 E0.01674
G1 X129.425 Y113.468 E1.72277
G1 X129.424 Y114.001 E0.01674
G1 X90.624 Y75.201 E1.72277
G1 X90.623 Y75.734 E0.01674
G1 X129.423 Y114.534 E1.72277
G1 X129.423 Y115.067 E0.01674
G1 X90.622 Y76.267 E1.72277
G1 X90.621 Y76.800 E0.01674
G1 X129.422 Y115.601 E1.72277
G1 X129.421 Y116.134 E0.01674
G1 X90.621 Y77.333 E1.72277
G1 X90.620 Y77.867 E0.01674
G1 X129.420 Y116.667 E1.72277
G1 X129.419 Y117.200 E0.01674
G1 X90.619 Y78.400 E1.72277
G1 X90.618 Y78.933 E0.01674
G1 X129.418 Y117.733 E1.72277
G1 X129.418 Y118.266 E0.01674
G1 X90.617 Y79.466 E1.72277
G1 X90.616 Y79.999 E0.01674
G1 X129.417 Y118.799 E1.72277
G1 X129.416 Y119.333 E0.01674
G1 X90.616 Y80.532 E1.72277
G1 X90.615 Y81.066 E0.01674
G1 X129.415 Y119.866 E1.72277
